P3
200 112
255
164 200 253
163 200 253
163 200 253
163 200 253
163 200 253
163 200 253
162 200 253
162 200 253
162 199 253
162 199 253
162 199 253
162 199 253
161 199 253
161 199 253
161 199 253
161 199 253
161 199 253
160 198 253
160 198 253
160 198 253
160 198 253
160 198 253
159 198 253
159 198 253
159 198 253
159 197 253
159 197 253
158 197 253
158 197 253
158 197 253
158 197 253
157 197 253
157 197 253
157 196 253
157 196 253
157 196 253
156 196 253
156 196 253
156 196 253
156 196 253
156 196 253
155 195 253
155 195 253
155 195 253
155 195 253
154 195 253
154 195 253
154 195 253
154 194 253
154 194 253
153 194 253
153 194 253
153 194 253
153 194 253
152 194 253
152 194 253
152 193 253
152 193 253
152 193 253
151 193 253
151 193 253
151 193 253
151 193 253
151 193 253
150 192 253
150 192 253
150 192 253
150 192 253
150 192 253
149 192 253
149 192 253
149 192 253
149 192 253
149 191 253
149 191 253
148 191 253
148 191 253
148 191 253
148 191 253
148 191 253
148 191 253
148 191 253
147 191 253
147 191 253
147 191 253
147 191 253
147 190 253
147 190 253
147 190 253
147 190 253
147 190 253
147 190 253
147 190 253
147 190 253
147 190 253
147 190 253
147 190 253
146 190 253
146 190 253
146 190 253
146 190 253
146 190 253
146 190 253
146 190 253
147 190 253
147 190 253
147 190 253
147 190 253
147 190 253
147 190 253
147 190 253
147 190 253
147 190 253
147 190 253
147 191 253
147 191 253
147 191 253
148 191 253
148 191 253
148 191 253
148 191 253
148 191 253
148 191 253
148 191 253
148 191 253
149 191 253
149 191 253
149 192 253
149 192 253
149 192 253
149 192 253
150 192 253
150 192 253
150 192 253
150 192 253
150 192 253
151 193 253
151 193 253
151 193 253
151 193 253
151 193 253
152 193 253
152 193 253
152 193 253
152 194 253
152 194 253
153 194 253
153 194 253
153 194 253
153 194 253
154 194 253
154 194 253
154 195 253
154 195 253
154 195 253
155 195 253
155 195 253
155 195 253
155 195 253
156 196 253
156 196 253
156 196 253
156 196 253
156 196 253
157 196 253
157 196 253
157 196 253
157 197 253
158 197 253
158 197 253
158 197 253
158 197 253
158 197 253
159 197 253
159 197 253
159 198 253
159 198 253
159 198 253
160 198 253
160 198 253
160 198 253
160 198 253
160 198 253
161 199 253
161 199 253
161 199 253
161 199 253
161 199 253
162 199 253
162 199 253
162 199 253
162 199 253
162 200 253
162 200 253
163 200 253
163 200 253
163 200 253
163 200 253
163 200 253
164 200 253
164 201 253
164 200 253
164 200 253
163 200 253
163 200 253
163 200 253
163 200 253
163 200 253
163 200 253
162 200 253
162 199 253
162 199 253
162 199 253
162 199 253
161 199 253
161 199 253
161 199 253
161 199 253
161 199 253
160 198 253
160 198 253
160 198 253
160 198 253
160 198 253
159 198 253
159 198 253
159 198 253
159 197 253
159 197 253
158 197 253
158 197 253
158 197 253
158 197 253
158 197 253
157 197 253
157 196 253
157 196 253
157 196 253
156 196 253
156 196 253
156 196 253
156 196 253
156 196 253
155 195 253
155 195 253
155 195 253
155 195 253
154 195 253
154 195 253
154 195 253
154 194 253
154 194 253
153 194 253
153 194 253
153 194 253
153 194 253
153 194 253
152 194 253
152 193 253
152 193 253
152 193 253
151 193 253
151 193 253
151 193 253
151 193 253
151 193 253
150 192 253
150 192 253
150 192 253
150 192 253
150 192 253
150 192 253
149 192 253
149 192 253
149 192 253
149 192 253
149 191 253
149 191 253
148 191 253
148 191 253
148 191 253
148 191 253
148 191 253
148 191 253
148 191 253
148 191 253
148 191 253
147 191 253
147 191 253
147 191 253
147 191 253
147 190 253
147 190 253
147 190 253
147 190 253
147 190 253
147 190 253
147 190 253
147 190 253
147 190 253
147 190 253
147 190 253
147 190 253
147 190 253
147 190 253
147 190 253
147 190 253
147 190 253
147 190 253
147 191 253
147 191 253
147 191 253
147 191 253
148 191 253
148 191 253
148 191 253
148 191 253
148 191 253
148 191 253
148 191 253
148 191 253
148 191 253
149 191 253
149 191 253
149 192 253
149 192 253
149 192 253
149 192 253
150 192 253
150 192 253
150 192 253
150 192 253
150 192 253
150 192 253
151 193 253
151 193 253
151 193 253
151 193 253
151 193 253
152 193 253
152 193 253
152 193 253
152 194 253
152 194 253
153 194 253
153 194 253
153 194 253
153 194 253
154 194 253
154 194 253
154 195 253
154 195 253
154 195 253
155 195 253
155 195 253
155 195 253
155 195 253
156 196 253
156 196 253
156 196 253
156 196 253
156 196 253
157 196 253
157 196 253
157 196 253
157 197 253
157 197 253
158 197 253
158 197 253
158 197 253
158 197 253
159 197 253
159 197 253
159 198 253
159 198 253
159 198 253
160 198 253
160 198 253
160 198 253
160 198 253
160 198 253
161 199 253
161 199 253
161 199 253
161 199 253
161 199 253
162 199 253
162 199 253
162 199 253
162 199 253
162 200 253
162 200 253
163 200 253
163 200 253
163 200 253
163 200 253
163 200 253
164 200 253
164 200 253
164 201 253
164 201 253
164 201 253
164 201 253
164 200 253
164 200 253
163 200 253
163 200 253
163 200 253
163 200 253
163 200 253
163 200 253
162 200 253
162 200 253
162 199 253
162 199 253
162 199 253
161 199 253
161 199 253
161 199 253
161 199 253
161 199 253
160 198 253
160 198 253
160 198 253
160 198 253
160 198 253
159 198 253
159 198 253
159 198 253
159 197 253
159 197 253
158 197 253
158 197 253
158 197 253
158 197 253
158 197 253
157 197 253
157 196 253
157 196 253
157 196 253
156 196 253
156 196 253
156 196 253
156 196 253
156 196 253
155 195 253
155 195 253
155 195 253
155 195 253
154 195 253
154 195 253
154 195 253
154 194 253
154 194 253
153 194 253
153 194 253
153 194 253
153 194 253
153 194 253
152 194 253
152 193 253
152 193 253
152 193 253
151 193 253
151 193 253
151 193 253
151 193 253
151 193 253
151 193 253
150 192 253
150 192 253
150 192 253
150 192 253
150 192 253
150 192 253
149 192 253
149 192 253
149 192 253
149 192 253
149 191 253
149 191 253
148 191 253
148 191 253
148 191 253
148 191 253
148 191 253
148 191 253
148 191 253
148 191 253
148 191 253
148 191 253
148 191 253
147 191 253
147 191 253
147 191 253
147 191 253
147 191 253
147 191 253
147 191 253
147 191 253
147 191 253
147 191 253
147 191 253
147 191 253
147 191 253
147 191 253
147 191 253
147 191 253
148 191 253
148 191 253
148 191 253
148 191 253
148 191 253
148 191 253
148 191 253
148 191 253
148 191 253
148 191 253
148 191 253
149 191 253
149 191 253
149 192 253
149 192 253
149 192 253
149 192 253
150 192 253
150 192 253
150 192 253
150 192 253
150 192 253
150 192 253
151 193 253
151 193 253
151 193 253
151 193 253
151 193 253
152 193 253
152 193 253
152 193 253
152 193 253
152 194 253
153 194 253
153 194 253
153 194 253
153 194 253
153 194 253
154 194 253
154 194 253
154 195 253
154 195 253
154 195 253
155 195 253
155 195 253
155 195 253
155 195 253
156 196 253
156 196 253
156 196 253
156 196 253
156 196 253
157 196 253
157 196 253
157 196 253
157 197 253
158 197 253
158 197 253
158 197 253
158 197 253
158 197 253
159 197 253
159 197 253
159 198 253
159 198 253
159 198 253
160 198 253
160 198 253
160 198 253
160 198 253
160 198 253
161 199 253
161 199 253
161 199 253
161 199 253
161 199 253
162 199 253
162 199 253
162 199 253
162 200 253
162 200 253
163 200 253
163 200 253
163 200 253
163 200 253
163 200 253
163 200 253
164 200 253
164 201 253
164 201 253
164 201 253
164 201 253
165 201 253
165 201 253
164 201 253
164 201 253
164 201 253
164 201 253
164 200 253
164 200 253
163 200 253
163 200 253
163 200 253
163 200 253
163 200 253
162 200 253
162 200 253
162 199 253
162 199 253
162 199 253
161 199 253
161 199 253
161 199 253
161 199 253
161 199 253
161 199 253
160 198 253
160 198 253
160 198 253
160 198 253
159 198 253
159 198 253
159 198 253
159 197 253
159 197 253
158 197 253
158 197 253
158 197 253
158 197 253
158 197 253
157 197 253
157 196 253
157 196 253
157 196 253
156 196 253
156 196 253
156 196 253
156 196 253
156 196 253
155 195 253
155 195 253
155 195 253
155 195 253
154 195 253
154 195 253
154 195 253
154 194 253
154 194 253
153 194 253
153 194 253
153 194 253
153 194 253
153 194 253
152 194 253
152 193 253
152 193 253
152 193 253
152 193 253
151 193 253
151 193 253
151 193 253
151 193 253
151 193 253
150 192 253
150 192 253
150 192 253
150 192 253
150 192 253
150 192 253
149 192 253
149 192 253
149 192 253
149 192 253
149 192 253
149 191 253
149 191 253
149 191 253
149 191 253
148 191 253
148 191 253
148 191 253
148 191 253
148 191 253
148 191 253
148 191 253
148 191 253
148 191 253
148 191 253
148 191 253
148 191 253
148 191 253
148 191 253
148 191 253
148 191 253
148 191 253
148 191 253
148 191 253
148 191 253
148 191 253
148 191 253
148 191 253
148 191 253
148 191 253
148 191 253
148 191 253
148 191 253
148 191 253
149 191 253
149 191 253
149 191 253
149 192 253
149 192 253
149 192 253
149 192 253
149 192 253
150 192 253
150 192 253
150 192 253
150 192 253
150 192 253
150 192 253
151 193 253
151 193 253
151 193 253
151 193 253
151 193 253
152 193 253
152 193 253
152 193 253
152 193 253
152 194 253
153 194 253
153 194 253
153 194 253
153 194 253
153 194 253
154 194 253
154 195 253
154 195 253
154 195 253
154 195 253
155 195 253
155 195 253
155 195 253
155 195 253
156 196 253
156 196 253
156 196 253
156 196 253
156 196 253
157 196 253
157 196 253
157 196 253
157 197 253
158 197 253
158 197 253
158 197 253
158 197 253
158 197 253
159 197 253
159 198 253
159 198 253
159 198 253
159 198 253
160 198 253
160 198 253
160 198 253
160 198 253
160 198 253
161 199 253
161 199 253
161 199 253
161 199 253
161 199 253
162 199 253
162 199 253
162 199 253
162 200 253
162 200 253
163 200 253
163 200 253
163 200 253
163 200 253
163 200 253
164 200 253
164 200 253
164 201 253
164 201 253
164 201 253
164 201 253
165 201 253
165 201 253
165 201 253
165 201 253
165 201 253
165 201 253
164 201 253
164 201 253
164 201 253
164 201 253
164 200 253
164 200 253
163 200 253
163 200 253
163 200 253
163 200 253
163 200 253
163 200 253
162 200 253
162 199 253
162 199 253
162 199 253
162 199 253
161 199 253
161 199 253
161 199 253
161 199 253
161 199 253
160 198 253
160 198 253
160 198 253
160 198 253
160 198 253
159 198 253
159 198 253
159 198 253
159 197 253
158 197 253
158 197 253
158 197 253
158 197 253
158 197 253
157 197 253
157 196 253
157 196 253
157 196 253
157 196 253
156 196 253
156 196 253
156 196 253
156 196 253
155 195 253
155 195 253
155 195 253
155 195 253
155 195 253
154 195 253
154 195 253
154 195 253
154 194 253
153 194 253
153 194 253
153 194 253
153 194 253
153 194 253
152 194 253
152 194 253
152 193 253
152 193 253
152 193 253
152 193 253
151 193 253
151 193 253
151 193 253
151 193 253
151 193 253
150 192 253
150 192 253
150 192 253
150 192 253
150 192 253
150 192 253
150 192 253
149 192 253
149 192 253
149 192 253
149 192 253
149 192 253
149 192 253
149 191 253
149 191 253
149 191 253
149 191 253
148 191 253
148 191 253
148 191 253
148 191 253
148 191 253
148 191 253
148 191 253
148 191 253
148 191 253
148 191 253
148 191 253
148 191 253
148 191 253
148 191 253
148 191 253
148 191 253
148 191 253
148 191 253
149 191 253
149 191 253
149 191 253
149 191 253
149 192 253
149 192 253
149 192 253
149 192 253
149 192 253
149 192 253
150 192 253
150 192 253
150 192 253
150 192 253
150 192 253
150 192 253
150 192 253
151 193 253
151 193 253
151 193 253
151 193 253
151 193 253
151 193 253
152 193 253
152 193 253
152 193 253
152 194 253
152 194 253
153 194 253
153 194 253
153 194 253
153 194 253
153 194 253
154 194 253
154 195 253
154 195 253
154 195 253
155 195 253
155 195 253
155 195 253
155 195 253
155 195 253
156 196 253
156 196 253
156 196 253
156 196 253
156 196 253
157 196 253
157 196 253
157 196 253
157 197 253
158 197 253
158 197 253
158 197 253
158 197 253
158 197 253
159 197 253
159 198 253
159 198 253
159 198 253
159 198 253
160 198 253
160 198 253
160 198 253
160 198 253
161 199 253
161 199 253
161 199 253
161 199 253
161 199 253
162 199 253
162 199 253
162 199 253
162 199 253
162 200 253
162 200 253
163 200 253
163 200 253
163 200 253
163 200 253
163 200 253
164 200 253
164 200 253
164 201 253
164 201 253
164 201 253
165 201 253
165 201 253
165 201 253
165 201 253
165 201 253
166 202 253
165 201 253
165 201 253
165 201 253
165 201 253
165 201 253
165 201 253
164 201 253
164 201 253
164 201 253
164 201 253
164 200 253
164 200 253
163 200 253
163 200 253
163 200 253
163 200 253
163 200 253
162 200 253
162 200 253
162 199 253
162 199 253
162 199 253
161 199 253
161 199 253
161 199 253
161 199 253
161 199 253
160 198 253
160 198 253
160 198 253
160 198 253
160 198 253
159 198 253
159 198 253
159 198 253
159 197 253
158 197 253
158 197 253
158 197 253
158 197 253
158 197 253
157 197 253
157 197 253
157 196 253
157 196 253
157 196 253
156 196 253
156 196 253
156 196 253
156 196 253
155 195 253
155 195 253
155 195 253
155 195 253
155 195 253
154 195 253
154 195 253
154 195 253
154 194 253
154 194 253
153 194 253
153 194 253
153 194 253
153 194 253
153 194 253
152 194 253
152 193 253
152 193 253
152 193 253
152 193 253
151 193 253
151 193 253
151 193 253
151 193 253
151 193 253
151 193 253
150 192 253
150 192 253
150 192 253
150 192 253
150 192 253
150 192 253
150 192 253
150 192 253
149 192 253
149 192 253
149 192 253
149 192 253
149 192 253
149 192 253
149 192 253
149 192 253
149 191 253
149 191 253
149 191 253
149 191 253
149 191 253
149 191 253
149 191 253
149 191 253
149 191 253
149 191 253
149 191 253
149 191 253
149 191 253
149 191 253
149 192 253
149 192 253
149 192 253
149 192 253
149 192 253
149 192 253
149 192 253
149 192 253
150 192 253
150 192 253
150 192 253
150 192 253
150 192 253
150 192 253
150 192 253
150 192 253
151 193 253
151 193 253
151 193 253
151 193 253
151 193 253
151 193 253
152 193 253
152 193 253
152 193 253
152 193 253
152 194 253
153 194 253
153 194 253
153 194 253
153 194 253
153 194 253
154 194 253
154 194 253
154 195 253
154 195 253
154 195 253
155 195 253
155 195 253
155 195 253
155 195 253
155 195 253
156 196 253
156 196 253
156 196 253
156 196 253
157 196 253
157 196 253
157 196 253
157 197 253
157 197 253
158 197 253
158 197 253
158 197 253
158 197 253
158 197 253
159 197 253
159 198 253
159 198 253
159 198 253
160 198 253
160 198 253
160 198 253
160 198 253
160 198 253
161 199 253
161 199 253
161 199 253
161 199 253
161 199 253
162 199 253
162 199 253
162 199 253
162 200 253
162 200 253
163 200 253
163 200 253
163 200 253
163 200 253
163 200 253
164 200 253
164 200 253
164 201 253
164 201 253
164 201 253
164 201 253
165 201 253
165 201 253
165 201 253
165 201 253
165 201 253
165 201 253
166 202 253
166 202 253
166 202 253
166 202 253
166 202 253
165 201 253
165 201 253
165 201 253
165 201 253
165 201 253
165 201 253
164 201 253
164 201 253
164 201 253
164 200 253
164 200 253
163 200 253
163 200 253
163 200 253
163 200 253
163 200 253
162 200 253
162 200 253
162 199 253
162 199 253
162 199 253
161 199 253
161 199 253
161 199 253
161 199 253
161 199 253
160 198 253
160 198 253
160 198 253
160 198 253
160 198 253
159 198 253
159 198 253
159 198 253
159 197 253
159 197 253
158 197 253
158 197 253
158 197 253
158 197 253
157 197 253
157 197 253
157 196 253
157 196 253
157 196 253
156 196 253
156 196 253
156 196 253
156 196 253
155 195 253
155 195 253
155 195 253
155 195 253
155 195 253
154 195 253
154 195 253
154 195 253
154 195 253
154 194 253
153 194 253
153 194 253
153 194 253
153 194 253
153 194 253
152 194 253
152 194 253
152 193 253
152 193 253
152 193 253
152 193 253
151 193 253
151 193 253
151 193 253
151 193 253
151 193 253
151 193 253
150 192 253
150 192 253
150 192 253
150 192 253
150 192 253
150 192 253
150 192 253
150 192 253
150 192 253
150 192 253
149 192 253
149 192 253
149 192 253
149 192 253
149 192 253
149 192 253
149 192 253
149 192 253
149 192 253
149 192 253
149 192 253
149 192 253
149 192 253
149 192 253
149 192 253
149 192 253
149 192 253
149 192 253
149 192 253
149 192 253
150 192 253
150 192 253
150 192 253
150 192 253
150 192 253
150 192 253
150 192 253
150 192 253
150 192 253
150 192 253
151 193 253
151 193 253
151 193 253
151 193 253
151 193 253
151 193 253
152 193 253
152 193 253
152 193 253
152 193 253
152 194 253
152 194 253
153 194 253
153 194 253
153 194 253
153 194 253
153 194 253
154 194 253
154 194 253
154 195 253
154 195 253
154 195 253
155 195 253
155 195 253
155 195 253
155 195 253
156 196 253
156 196 253
156 196 253
156 196 253
156 196 253
157 196 253
157 196 253
157 196 253
157 197 253
157 197 253
158 197 253
158 197 253
158 197 253
158 197 253
159 197 253
159 197 253
159 198 253
159 198 253
159 198 253
160 198 253
160 198 253
160 198 253
160 198 253
160 198 253
161 199 253
161 199 253
161 199 253
161 199 253
161 199 253
162 199 253
162 199 253
162 199 253
162 200 253
162 200 253
163 200 253
163 200 253
163 200 253
163 200 253
163 200 253
164 200 253
164 200 253
164 201 253
164 201 253
164 201 253
165 201 253
165 201 253
165 201 253
165 201 253
165 201 253
165 201 253
166 202 253
166 202 253
166 202 253
166 202 253
166 202 253
166 202 253
166 202 253
166 202 253
166 202 253
166 202 253
165 201 253
165 201 253
165 201 253
165 201 253
165 201 253
165 201 253
164 201 253
164 201 253
164 201 253
164 201 253
164 200 253
163 200 253
163 200 253
163 200 253
163 200 253
163 200 253
163 200 253
162 200 253
162 199 253
162 199 253
162 199 253
162 199 253
161 199 253
161 199 253
161 199 253
161 199 253
161 199 253
160 198 253
160 198 253
160 198 253
160 198 253
159 198 253
159 198 253
159 198 253
159 197 253
159 197 253
158 197 253
158 197 253
158 197 253
158 197 253
158 197 253
157 197 253
157 196 253
157 196 253
157 196 253
156 196 253
156 196 253
156 196 253
156 196 253
156 196 253
155 195 253
155 195 253
155 195 253
155 195 253
154 195 253
154 195 253
154 195 253
154 195 253
154 194 253
154 194 253
153 194 253
153 194 253
153 194 253
153 194 253
153 194 253
152 194 253
152 194 253
152 193 253
152 193 253
152 193 253
152 193 253
151 193 253
151 193 253
151 193 253
151 193 253
151 193 253
151 193 253
151 193 253
150 192 253
150 192 253
150 192 253
150 192 253
150 192 253
150 192 253
150 192 253
150 192 253
150 192 253
150 192 253
150 192 253
150 192 253
150 192 253
150 192 253
150 192 253
150 192 253
150 192 253
150 192 253
150 192 253
150 192 253
150 192 253
150 192 253
150 192 253
150 192 253
150 192 253
150 192 253
150 192 253
150 192 253
150 192 253
150 192 253
150 192 253
150 192 253
151 193 253
151 193 253
151 193 253
151 193 253
151 193 253
151 193 253
151 193 253
152 193 253
152 193 253
152 193 253
152 193 253
152 194 253
152 194 253
153 194 253
153 194 253
153 194 253
153 194 253
153 194 253
154 194 253
154 194 253
154 195 253
154 195 253
154 195 253
155 195 253
155 195 253
155 195 253
155 195 253
155 195 253
156 196 253
156 196 253
156 196 253
156 196 253
156 196 253
157 196 253
157 196 253
157 196 253
157 197 253
158 197 253
158 197 253
158 197 253
158 197 253
158 197 253
159 197 253
159 197 253
159 198 253
159 198 253
159 198 253
160 198 253
160 198 253
160 198 253
160 198 253
161 199 253
161 199 253
161 199 253
161 199 253
161 199 253
162 199 253
162 199 253
162 199 253
162 199 253
162 200 253
163 200 253
163 200 253
163 200 253
163 200 253
163 200 253
164 200 253
164 200 253
164 201 253
164 201 253
164 201 253
164 201 253
165 201 253
165 201 253
165 201 253
165 201 253
165 201 253
165 201 253
166 202 253
166 202 253
166 202 253
166 202 253
166 202 253
166 202 253
167 202 253
167 202 253
167 202 253
166 202 253
166 202 253
166 202 253
166 202 253
166 202 253
166 202 253
165 201 253
165 201 253
165 201 253
165 201 253
165 201 253
165 201 253
164 201 253
164 201 253
164 201 253
164 200 253
164 200 253
163 200 253
163 200 253
163 200 253
163 200 253
163 200 253
162 200 253
162 200 253
162 199 253
162 199 253
162 199 253
161 199 253
161 199 253
161 199 253
161 199 253
161 199 253
160 198 253
160 198 253
160 198 253
160 198 253
160 198 253
159 198 253
159 198 253
159 198 253
159 197 253
158 197 253
158 197 253
158 197 253
158 197 253
158 197 253
157 197 253
157 196 253
157 196 253
157 196 253
157 196 253
156 196 253
156 196 253
156 196 253
156 196 253
155 195 253
155 195 253
155 195 253
155 195 253
155 195 253
154 195 253
154 195 253
154 195 253
154 195 253
154 194 253
153 194 253
153 194 253
153 194 253
153 194 253
153 194 253
153 194 253
152 194 253
152 194 253
152 193 253
152 193 253
152 193 253
152 193 253
151 193 253
151 193 253
151 193 253
151 193 253
151 193 253
151 193 253
151 193 253
151 193 253
151 193 253
151 193 253
150 192 253
150 192 253
150 192 253
150 192 253
150 192 253
150 192 253
150 192 253
150 192 253
150 192 253
150 192 253
150 192 253
150 192 253
150 192 253
150 192 253
150 192 253
150 192 253
150 192 253
150 192 253
150 192 253
150 192 253
151 193 253
151 193 253
151 193 253
151 193 253
151 193 253
151 193 253
151 193 253
151 193 253
151 193 253
151 193 253
152 193 253
152 193 253
152 193 253
152 193 253
152 194 253
152 194 253
153 194 253
153 194 253
153 194 253
153 194 253
153 194 253
153 194 253
154 194 253
154 195 253
154 195 253
154 195 253
154 195 253
155 195 253
155 195 253
155 195 253
155 195 253
155 195 253
156 196 253
156 196 253
156 196 253
156 196 253
157 196 253
157 196 253
157 196 253
157 196 253
157 197 253
158 197 253
158 197 253
158 197 253
158 197 253
158 197 253
159 197 253
159 198 253
159 198 253
159 198 253
160 198 253
160 198 253
160 198 253
160 198 253
160 198 253
161 199 253
161 199 253
161 199 253
161 199 253
161 199 253
162 199 253
162 199 253
162 199 253
162 200 253
162 200 253
163 200 253
163 200 253
163 200 253
163 200 253
163 200 253
164 200 253
164 200 253
164 201 253
164 201 253
164 201 253
165 201 253
165 201 253
165 201 253
165 201 253
165 201 253
165 201 253
166 202 253
166 202 253
166 202 253
166 202 253
166 202 253
166 202 253
167 202 253
167 202 253
167 202 253
167 203 253
167 203 253
167 202 253
167 202 253
167 202 253
167 202 253
166 202 253
166 202 253
166 202 253
166 202 253
166 202 253
166 202 253
165 201 253
165 201 253
165 201 253
165 201 253
165 201 253
164 201 253
164 201 253
164 201 253
164 201 253
164 200 253
164 200 253
163 200 253
163 200 253
163 200 253
163 200 253
163 200 253
162 200 253
162 199 253
162 199 253
162 199 253
162 199 253
161 199 253
161 199 253
161 199 253
161 199 253
160 198 253
160 198 253
160 198 253
160 198 253
160 198 253
159 198 253
159 198 253
159 198 253
159 197 253
159 197 253
158 197 253
158 197 253
158 197 253
158 197 253
157 197 253
157 197 253
157 196 253
157 196 253
157 196 253
156 196 253
156 196 253
156 196 253
156 196 253
156 196 253
155 195 253
155 195 253
155 195 253
155 195 253
155 195 253
154 195 253
154 195 253
154 195 253
154 194 253
154 194 253
153 194 253
153 194 253
153 194 253
153 194 253
153 194 253
153 194 253
152 194 253
152 194 253
152 193 253
152 193 253
152 193 253
152 193 253
152 193 253
152 193 253
151 193 253
151 193 253
151 193 253
151 193 253
151 193 253
151 193 253
151 193 253
151 193 253
151 193 253
151 193 253
151 193 253
151 193 253
151 193 253
151 193 253
151 193 253
151 193 253
151 193 253
151 193 253
151 193 253
151 193 253
151 193 253
151 193 253
151 193 253
151 193 253
151 193 253
151 193 253
151 193 253
151 193 253
151 193 253
151 193 253
152 193 253
152 193 253
152 193 253
152 193 253
152 193 253
152 193 253
152 194 253
152 194 253
153 194 253
153 194 253
153 194 253
153 194 253
153 194 253
153 194 253
154 194 253
154 194 253
154 195 253
154 195 253
154 195 253
155 195 253
155 195 253
155 195 253
155 195 253
155 195 253
156 196 253
156 196 253
156 196 253
156 196 253
156 196 253
157 196 253
157 196 253
157 196 253
157 197 253
157 197 253
158 197 253
158 197 253
158 197 253
158 197 253
159 197 253
159 197 253
159 198 253
159 198 253
159 198 253
160 198 253
160 198 253
160 198 253
160 198 253
160 198 253
161 199 253
161 199 253
161 199 253
161 199 253
162 199 253
162 199 253
162 199 253
162 199 253
162 200 253
163 200 253
163 200 253
163 200 253
163 200 253
163 200 253
164 200 253
164 200 253
164 201 253
164 201 253
164 201 253
164 201 253
165 201 253
165 201 253
165 201 253
165 201 253
165 201 253
166 202 253
166 202 253
166 202 253
166 202 253
166 202 253
166 202 253
167 202 253
167 202 253
167 202 253
167 202 253
167 203 253
167 203 253
168 203 253
168 203 253
168 203 253
167 203 253
167 203 253
167 202 253
167 202 253
167 202 253
167 202 253
166 202 253
166 202 253
166 202 253
166 202 253
166 202 253
165 201 253
165 201 253
165 201 253
165 201 253
165 201 253
165 201 253
164 201 253
164 201 253
164 201 253
164 200 253
164 200 253
163 200 253
163 200 253
163 200 253
163 200 253
163 200 253
162 200 253
162 200 253
162 199 253
162 199 253
162 199 253
161 199 253
161 199 253
161 199 253
161 199 253
161 199 253
160 198 253
160 198 253
160 198 253
160 198 253
160 198 253
159 198 253
159 198 253
159 198 253
159 197 253
158 197 253
158 197 253
158 197 253
158 197 253
158 197 253
157 197 253
157 196 253
157 196 253
157 196 253
157 196 253
156 196 253
156 196 253
156 196 253
156 196 253
155 195 253
155 195 253
155 195 253
155 195 253
155 195 253
155 195 253
154 195 253
154 195 253
154 195 253
154 194 253
154 194 253
153 194 253
153 194 253
153 194 253
153 194 253
153 194 253
153 194 253
153 194 253
152 194 253
152 194 253
152 193 253
152 193 253
152 193 253
152 193 253
152 193 253
152 193 253
152 193 253
151 193 253
151 193 253
151 193 253
151 193 253
151 193 253
151 193 253
151 193 253
151 193 253
151 193 253
151 193 253
151 193 253
151 193 253
151 193 253
151 193 253
151 193 253
151 193 253
151 193 253
151 193 253
151 193 253
152 193 253
152 193 253
152 193 253
152 193 253
152 193 253
152 193 253
152 193 253
152 193 253
152 194 253
152 194 253
153 194 253
153 194 253
153 194 253
153 194 253
153 194 253
153 194 253
153 194 253
154 194 253
154 194 253
154 195 253
154 195 253
154 195 253
155 195 253
155 195 253
155 195 253
155 195 253
155 195 253
155 195 253
156 196 253
156 196 253
156 196 253
156 196 253
157 196 253
157 196 253
157 196 253
157 196 253
157 197 253
158 197 253
158 197 253
158 197 253
158 197 253
158 197 253
159 197 253
159 198 253
159 198 253
159 198 253
159 198 253
160 198 253
160 198 253
160 198 253
160 198 253
161 199 253
161 199 253
161 199 253
161 199 253
161 199 253
162 199 253
162 199 253
162 199 253
162 200 253
162 200 253
163 200 253
163 200 253
163 200 253
163 200 253
163 200 253
164 200 253
164 200 253
164 201 253
164 201 253
164 201 253
165 201 253
165 201 253
165 201 253
165 201 253
165 201 253
165 201 253
166 202 253
166 202 253
166 202 253
166 202 253
166 202 253
167 202 253
167 202 253
167 202 253
167 202 253
167 202 253
167 203 253
167 203 253
168 203 253
168 203 253
168 203 253
168 203 253
168 203 253
168 203 253
168 203 253
167 203 253
167 203 253
167 202 253
167 202 253
167 202 253
167 202 253
166 202 253
166 202 253
166 202 253
166 202 253
166 202 253
166 202 253
165 201 253
165 201 253
165 201 253
165 201 253
165 201 253
164 201 253
164 201 253
164 201 253
164 201 253
164 200 253
164 200 253
163 200 253
163 200 253
163 200 253
163 200 253
163 200 253
162 200 253
162 199 253
162 199 253
162 199 253
162 199 253
161 199 253
161 199 253
161 199 253
161 199 253
160 198 253
160 198 253
160 198 253
160 198 253
160 198 253
159 198 253
159 198 253
159 198 253
159 197 253
159 197 253
158 197 253
158 197 253
158 197 253
158 197 253
157 197 253
157 197 253
157 196 253
157 196 253
157 196 253
156 196 253
156 196 253
156 196 253
156 196 253
156 196 253
155 195 253
155 195 253
155 195 253
155 195 253
155 195 253
155 195 253
154 195 253
154 195 253
154 195 253
154 194 253
154 194 253
154 194 253
153 194 253
153 194 253
153 194 253
153 194 253
153 194 253
153 194 253
153 194 253
152 194 253
152 194 253
152 194 253
152 194 253
152 193 253
152 193 253
152 193 253
152 193 253
152 193 253
152 193 253
152 193 253
152 193 253
152 193 253
152 193 253
152 193 253
152 193 253
152 193 253
152 193 253
152 193 253
152 193 253
152 193 253
152 193 253
152 193 253
152 193 253
152 193 253
152 193 253
152 194 253
152 194 253
152 194 253
152 194 253
153 194 253
153 194 253
153 194 253
153 194 253
153 194 253
153 194 253
153 194 253
154 194 253
154 194 253
154 194 253
154 195 253
154 195 253
154 195 253
155 195 253
155 195 253
155 195 253
155 195 253
155 195 253
155 195 253
156 196 253
156 196 253
156 196 253
156 196 253
156 196 253
157 196 253
157 196 253
157 196 253
157 197 253
157 197 253
158 197 253
158 197 253
158 197 253
158 197 253
159 197 253
159 197 253
159 198 253
159 198 253
159 198 253
160 198 253
160 198 253
160 198 253
160 198 253
160 198 253
161 199 253
161 199 253
161 199 253
161 199 253
162 199 253
162 199 253
162 199 253
162 199 253
162 200 253
163 200 253
163 200 253
163 200 253
163 200 253
163 200 253
164 200 253
164 200 253
164 201 253
164 201 253
164 201 253
165 201 253
165 201 253
165 201 253
165 201 253
165 201 253
165 201 253
166 202 253
166 202 253
166 202 253
166 202 253
166 202 253
166 202 253
167 202 253
167 202 253
167 202 253
167 202 253
167 203 253
167 203 253
168 203 253
168 203 253
168 203 253
168 203 253
168 203 253
169 203 253
169 203 253
168 203 253
168 203 253
168 203 253
168 203 253
168 203 253
168 203 253
167 203 253
167 203 253
167 202 253
167 202 253
167 202 253
167 202 253
166 202 253
166 202 253
166 202 253
166 202 253
166 202 253
166 202 253
165 201 253
165 201 253
165 201 253
165 201 253
165 201 253
164 201 253
164 201 253
164 201 253
164 201 253
164 200 253
163 200 253
163 200 253
163 200 253
163 200 253
163 200 253
162 200 253
162 200 253
162 199 253
162 199 253
162 199 253
161 199 253
161 199 253
161 199 253
161 199 253
161 199 253
160 198 253
160 198 253
160 198 253
160 198 253
160 198 253
159 198 253
159 198 253
159 198 253
159 197 253
158 197 253
158 197 253
158 197 253
158 197 253
158 197 253
157 197 253
157 197 253
157 196 253
157 196 253
157 196 253
156 196 253
156 196 253
156 196 253
156 196 253
156 196 253
155 195 253
155 195 253
155 195 253
155 195 253
155 195 253
155 195 253
154 195 253
154 195 253
154 195 253
154 195 253
154 194 253
154 194 253
153 194 253
153 194 253
153 194 253
153 194 253
153 194 253
153 194 253
153 194 253
153 194 253
153 194 253
153 194 253
153 194 253
152 194 253
152 194 253
152 194 253
152 194 253
152 194 253
152 194 253
152 194 253
152 194 253
152 194 253
152 194 253
152 194 253
152 194 253
152 194 253
152 194 253
152 194 253
152 194 253
153 194 253
153 194 253
153 194 253
153 194 253
153 194 253
153 194 253
153 194 253
153 194 253
153 194 253
153 194 253
153 194 253
154 194 253
154 194 253
154 195 253
154 195 253
154 195 253
154 195 253
155 195 253
155 195 253
155 195 253
155 195 253
155 195 253
155 195 253
156 196 253
156 196 253
156 196 253
156 196 253
156 196 253
157 196 253
157 196 253
157 196 253
157 197 253
157 197 253
158 197 253
158 197 253
158 197 253
158 197 253
158 197 253
159 197 253
159 198 253
159 198 253
159 198 253
160 198 253
160 198 253
160 198 253
160 198 253
160 198 253
161 199 253
161 199 253
161 199 253
161 199 253
161 199 253
162 199 253
162 199 253
162 199 253
162 200 253
162 200 253
163 200 253
163 200 253
163 200 253
163 200 253
163 200 253
164 200 253
164 201 253
164 201 253
164 201 253
164 201 253
165 201 253
165 201 253
165 201 253
165 201 253
165 201 253
166 202 253
166 202 253
166 202 253
166 202 253
166 202 253
166 202 253
167 202 253
167 202 253
167 202 253
167 202 253
167 203 253
167 203 253
168 203 253
168 203 253
168 203 253
168 203 253
168 203 253
168 203 253
169 203 253
169 203 253
169 204 253
169 204 253
169 204 253
169 203 253
169 203 253
168 203 253
168 203 253
168 203 253
168 203 253
168 203 253
168 203 253
167 203 253
167 203 253
167 202 253
167 202 253
167 202 253
167 202 253
166 202 253
166 202 253
166 202 253
166 202 253
166 202 253
165 201 253
165 201 253
165 201 253
165 201 253
165 201 253
165 201 253
164 201 253
164 201 253
164 201 253
164 200 253
164 200 253
163 200 253
163 200 253
163 200 253
163 200 253
163 200 253
162 200 253
162 199 253
162 199 253
162 199 253
162 199 253
161 199 253
161 199 253
161 199 253
161 199 253
160 198 253
160 198 253
160 198 253
160 198 253
160 198 253
159 198 253
159 198 253
159 198 253
159 197 253
159 197 253
158 197 253
158 197 253
158 197 253
158 197 253
158 197 253
157 197 253
157 196 253
157 196 253
157 196 253
157 196 253
156 196 253
156 196 253
156 196 253
156 196 253
156 196 253
155 195 253
155 195 253
155 195 253
155 195 253
155 195 253
155 195 253
155 195 253
154 195 253
154 195 253
154 195 253
154 195 253
154 195 253
154 194 253
154 194 253
153 194 253
153 194 253
153 194 253
153 194 253
153 194 253
153 194 253
153 194 253
153 194 253
153 194 253
153 194 253
153 194 253
153 194 253
153 194 253
153 194 253
153 194 253
153 194 253
153 194 253
153 194 253
153 194 253
153 194 253
153 194 253
153 194 253
153 194 253
153 194 253
153 194 253
153 194 253
153 194 253
153 194 253
154 194 253
154 194 253
154 194 253
154 195 253
154 195 253
154 195 253
154 195 253
154 195 253
155 195 253
155 195 253
155 195 253
155 195 253
155 195 253
155 195 253
156 196 253
156 196 253
156 196 253
156 196 253
156 196 253
157 196 253
157 196 253
157 196 253
157 196 253
157 197 253
158 197 253
158 197 253
158 197 253
158 197 253
158 197 253
159 197 253
159 197 253
159 198 253
159 198 253
159 198 253
160 198 253
160 198 253
160 198 253
160 198 253
161 199 253
161 199 253
161 199 253
161 199 253
161 199 253
162 199 253
162 199 253
162 199 253
162 200 253
162 200 253
163 200 253
163 200 253
163 200 253
163 200 253
163 200 253
164 200 253
164 200 253
164 201 253
164 201 253
164 201 253
165 201 253
165 201 253
165 201 253
165 201 253
165 201 253
166 202 253
166 202 253
166 202 253
166 202 253
166 202 253
166 202 253
167 202 253
167 202 253
167 202 253
167 202 253
167 203 253
167 203 253
168 203 253
168 203 253
168 203 253
168 203 253
168 203 253
168 203 253
169 203 253
169 203 253
169 204 253
169 204 253
169 204 253
170 204 253
169 204 253
169 204 253
169 204 253
169 204 253
169 204 253
169 203 253
169 203 253
168 203 253
168 203 253
168 203 253
168 203 253
168 203 253
168 203 253
167 203 253
167 203 253
167 202 253
167 202 253
167 202 253
167 202 253
166 202 253
166 202 253
166 202 253
166 202 253
166 202 253
165 201 253
165 201 253
165 201 253
165 201 253
165 201 253
165 201 253
164 201 253
164 201 253
164 201 253
164 200 253
164 200 253
163 200 253
163 200 253
163 200 253
163 200 253
162 200 253
162 200 253
162 199 253
162 199 253
162 199 253
161 199 253
161 199 253
161 199 253
161 199 253
161 199 253
160 198 253
160 198 253
160 198 253
160 198 253
160 198 253
159 198 253
159 198 253
159 198 253
159 197 253
159 197 253
158 197 253
158 197 253
158 197 253
158 197 253
158 197 253
157 197 253
157 196 253
157 196 253
157 196 253
157 196 253
156 196 253
156 196 253
156 196 253
156 196 253
156 196 253
156 196 253
155 195 253
155 195 253
155 195 253
155 195 253
155 195 253
155 195 253
155 195 253
154 195 253
154 195 253
154 195 253
154 195 253
154 195 253
154 195 253
154 195 253
154 194 253
154 194 253
154 194 253
154 194 253
154 194 253
153 194 253
153 194 253
153 194 253
153 194 253
153 194 253
153 194 253
153 194 253
153 194 253
153 194 253
153 194 253
154 194 253
154 194 253
154 194 253
154 194 253
154 194 253
154 194 253
154 195 253
154 195 253
154 195 253
154 195 253
154 195 253
154 195 253
155 195 253
155 195 253
155 195 253
155 195 253
155 195 253
155 195 253
155 195 253
156 196 253
156 196 253
156 196 253
156 196 253
156 196 253
156 196 253
157 196 253
157 196 253
157 196 253
157 196 253
157 197 253
158 197 253
158 197 253
158 197 253
158 197 253
158 197 253
159 197 253
159 197 253
159 198 253
159 198 253
159 198 253
160 198 253
160 198 253
160 198 253
160 198 253
160 198 253
161 199 253
161 199 253
161 199 253
161 199 253
161 199 253
162 199 253
162 199 253
162 199 253
162 200 253
163 200 253
163 200 253
163 200 253
163 200 253
163 200 253
164 200 253
164 200 253
164 201 253
164 201 253
164 201 253
165 201 253
165 201 253
165 201 253
165 201 253
165 201 253
165 201 253
166 202 253
166 202 253
166 202 253
166 202 253
166 202 253
167 202 253
167 202 253
167 202 253
167 202 253
167 203 253
167 203 253
168 203 253
168 203 253
168 203 253
168 203 253
168 203 253
168 203 253
169 203 253
169 203 253
169 204 253
169 204 253
169 204 253
169 204 253
170 204 253
170 204 253
170 204 253
170 204 253
170 204 253
170 204 253
170 204 253
169 204 253
169 204 253
169 204 253
169 204 253
169 203 253
169 203 253
168 203 253
168 203 253
168 203 253
168 203 253
168 203 253
168 203 253
167 203 253
167 203 253
167 202 253
167 202 253
167 202 253
167 202 253
166 202 253
166 202 253
166 202 253
166 202 253
166 202 253
165 201 253
165 201 253
165 201 253
165 201 253
165 201 253
164 201 253
164 201 253
164 201 253
164 201 253
164 200 253
163 200 253
163 200 253
163 200 253
163 200 253
163 200 253
163 200 253
162 200 253
162 199 253
162 199 253
162 199 253
161 199 253
161 199 253
161 199 253
161 199 253
161 199 253
160 198 253
160 198 253
160 198 253
160 198 253
160 198 253
159 198 253
159 198 253
159 198 253
159 197 253
159 197 253
158 197 253
158 197 253
158 197 253
158 197 253
158 197 253
157 197 253
157 197 253
157 196 253
157 196 253
157 196 253
156 196 253
156 196 253
156 196 253
156 196 253
156 196 253
156 196 253
156 196 253
155 195 253
155 195 253
155 195 253
155 195 253
155 195 253
155 195 253
155 195 253
155 195 253
154 195 253
154 195 253
154 195 253
154 195 253
154 195 253
154 195 253
154 195 253
154 195 253
154 195 253
154 195 253
154 195 253
154 195 253
154 195 253
154 195 253
154 195 253
154 195 253
154 195 253
154 195 253
154 195 253
154 195 253
154 195 253
154 195 253
154 195 253
154 195 253
155 195 253
155 195 253
155 195 253
155 195 253
155 195 253
155 195 253
155 195 253
155 195 253
156 196 253
156 196 253
156 196 253
156 196 253
156 196 253
156 196 253
156 196 253
157 196 253
157 196 253
157 196 253
157 196 253
157 197 253
158 197 253
158 197 253
158 197 253
158 197 253
158 197 253
159 197 253
159 197 253
159 198 253
159 198 253
159 198 253
160 198 253
160 198 253
160 198 253
160 198 253
160 198 253
161 199 253
161 199 253
161 199 253
161 199 253
161 199 253
162 199 253
162 199 253
162 199 253
162 200 253
162 200 253
163 200 253
163 200 253
163 200 253
163 200 253
163 200 253
164 200 253
164 201 253
164 201 253
164 201 253
164 201 253
165 201 253
165 201 253
165 201 253
165 201 253
165 201 253
166 202 253
166 202 253
166 202 253
166 202 253
166 202 253
167 202 253
167 202 253
167 202 253
167 202 253
167 203 253
167 203 253
168 203 253
168 203 253
168 203 253
168 203 253
168 203 253
168 203 253
169 203 253
169 203 253
169 204 253
169 204 253
169 204 253
169 204 253
170 204 253
170 204 253
170 204 253
170 204 253
170 204 253
171 205 253
170 204 253
170 204 253
170 204 253
170 204 253
170 204 253
170 204 253
170 204 253
169 204 253
169 204 253
169 204 253
169 204 253
169 203 253
169 203 253
168 203 253
168 203 253
168 203 253
168 203 253
168 203 253
168 203 253
167 203 253
167 203 253
167 202 253
167 202 253
167 202 253
167 202 253
166 202 253
166 202 253
166 202 253
166 202 253
166 202 253
165 201 253
165 201 253
165 201 253
165 201 253
165 201 253
164 201 253
164 201 253
164 201 253
164 201 253
164 200 253
163 200 253
163 200 253
163 200 253
163 200 253
163 200 253
162 200 253
162 200 253
162 199 253
162 199 253
162 199 253
161 199 253
161 199 253
161 199 253
161 199 253
161 199 253
160 198 253
160 198 253
160 198 253
160 198 253
160 198 253
159 198 253
159 198 253
159 198 253
159 197 253
159 197 253
158 197 253
158 197 253
158 197 253
158 197 253
158 197 253
157 197 253
157 197 253
157 196 253
157 196 253
157 196 253
157 196 253
156 196 253
156 196 253
156 196 253
156 196 253
156 196 253
156 196 253
156 196 253
156 196 253
155 195 253
155 195 253
155 195 253
155 195 253
155 195 253
155 195 253
155 195 253
155 195 253
155 195 253
155 195 253
155 195 253
155 195 253
155 195 253
155 195 253
155 195 253
155 195 253
155 195 253
155 195 253
155 195 253
155 195 253
155 195 253
155 195 253
155 195 253
155 195 253
155 195 253
155 195 253
155 195 253
155 195 253
155 195 253
155 195 253
156 196 253
156 196 253
156 196 253
156 196 253
156 196 253
156 196 253
156 196 253
156 196 253
157 196 253
157 196 253
157 196 253
157 196 253
157 197 253
157 197 253
158 197 253
158 197 253
158 197 253
158 197 253
158 197 253
159 197 253
159 197 253
159 198 253
159 198 253
159 198 253
160 198 253
160 198 253
160 198 253
160 198 253
160 198 253
161 199 253
161 199 253
161 199 253
161 199 253
161 199 253
162 199 253
162 199 253
162 199 253
162 200 253
162 200 253
163 200 253
163 200 253
163 200 253
163 200 253
163 200 253
164 200 253
164 200 253
164 201 253
164 201 253
164 201 253
165 201 253
165 201 253
165 201 253
165 201 253
165 201 253
166 202 253
166 202 253
166 202 253
166 202 253
166 202 253
167 202 253
167 202 253
167 202 253
167 202 253
167 203 253
167 203 253
168 203 253
168 203 253
168 203 253
168 203 253
168 203 253
168 203 253
169 203 253
169 203 253
169 204 253
169 204 253
169 204 253
169 204 253
170 204 253
170 204 253
170 204 253
170 204 253
170 204 253
170 204 253
170 204 253
171 205 253
171 205 253
171 205 253
171 205 253
171 205 253
170 204 253
170 204 253
170 204 253
170 204 253
170 204 253
170 204 253
170 204 253
169 204 253
169 204 253
169 204 253
169 204 253
169 203 253
169 203 253
168 203 253
168 203 253
168 203 253
168 203 253
168 203 253
168 203 253
167 203 253
167 203 253
167 202 253
167 202 253
167 202 253
166 202 253
166 202 253
166 202 253
166 202 253
166 202 253
166 202 253
165 201 253
165 201 253
165 201 253
165 201 253
165 201 253
164 201 253
164 201 253
164 201 253
164 201 253
164 200 253
163 200 253
163 200 253
163 200 253
163 200 253
163 200 253
162 200 253
162 200 253
162 199 253
162 199 253
162 199 253
161 199 253
161 199 253
161 199 253
161 199 253
161 199 253
160 198 253
160 198 253
160 198 253
160 198 253
160 198 253
159 198 253
159 198 253
159 198 253
159 197 253
159 197 253
158 197 253
158 197 253
158 197 253
158 197 253
158 197 253
158 197 253
157 197 253
157 197 253
157 196 253
157 196 253
157 196 253
157 196 253
157 196 253
156 196 253
156 196 253
156 196 253
156 196 253
156 196 253
156 196 253
156 196 253
156 196 253
156 196 253
156 196 253
155 195 253
155 195 253
155 195 253
155 195 253
155 195 253
155 195 253
155 195 253
155 195 253
155 195 253
155 195 253
155 195 253
155 195 253
155 195 253
155 195 253
155 195 253
155 195 253
156 196 253
156 196 253
156 196 253
156 196 253
156 196 253
156 196 253
156 196 253
156 196 253
156 196 253
156 196 253
157 196 253
157 196 253
157 196 253
157 196 253
157 196 253
157 197 253
157 197 253
158 197 253
158 197 253
158 197 253
158 197 253
158 197 253
158 197 253
159 197 253
159 197 253
159 198 253
159 198 253
159 198 253
160 198 253
160 198 253
160 198 253
160 198 253
160 198 253
161 199 253
161 199 253
161 199 253
161 199 253
161 199 253
162 199 253
162 199 253
162 199 253
162 200 253
162 200 253
163 200 253
163 200 253
163 200 253
163 200 253
163 200 253
164 200 253
164 200 253
164 201 253
164 201 253
164 201 253
165 201 253
165 201 253
165 201 253
165 201 253
165 201 253
166 202 253
166 202 253
166 202 253
166 202 253
166 202 253
167 202 253
167 202 253
167 202 253
167 202 253
167 203 253
167 203 253
168 203 253
168 203 253
168 203 253
168 203 253
168 203 253
168 203 253
169 203 253
169 203 253
169 204 253
169 204 253
169 204 253
169 204 253
170 204 253
170 204 253
170 204 253
170 204 253
170 204 253
170 204 253
170 204 253
171 205 253
171 205 253
171 205 253
171 205 253
172 205 253
171 205 253
171 205 253
171 205 253
171 205 253
171 205 253
171 205 253
171 205 253
170 204 253
170 204 253
170 204 253
170 204 253
170 204 253
170 204 253
169 204 253
169 204 253
169 204 253
169 204 253
169 203 253
169 203 253
168 203 253
168 203 253
168 203 253
168 203 253
168 203 253
168 203 253
167 203 253
167 203 253
167 202 253
167 202 253
167 202 253
167 202 253
166 202 253
166 202 253
166 202 253
166 202 253
166 202 253
165 201 253
165 201 253
165 201 253
165 201 253
165 201 253
164 201 253
164 201 253
164 201 253
164 201 253
164 200 253
163 200 253
163 200 253
163 200 253
163 200 253
163 200 253
162 200 253
162 200 253
162 199 253
162 199 253
162 199 253
161 199 253
161 199 253
161 199 253
161 199 253
161 199 253
160 198 253
160 198 253
160 198 253
160 198 253
160 198 253
159 198 253
159 198 253
159 198 253
159 198 253
159 197 253
159 197 253
158 197 253
158 197 253
158 197 253
158 197 253
158 197 253
158 197 253
157 197 253
157 197 253
157 197 253
157 196 253
157 196 253
157 196 253
157 196 253
157 196 253
156 196 253
156 196 253
156 196 253
156 196 253
156 196 253
156 196 253
156 196 253
156 196 253
156 196 253
156 196 253
156 196 253
156 196 253
156 196 253
156 196 253
156 196 253
156 196 253
156 196 253
156 196 253
156 196 253
156 196 253
156 196 253
156 196 253
156 196 253
156 196 253
156 196 253
156 196 253
157 196 253
157 196 253
157 196 253
157 196 253
157 196 253
157 196 253
157 197 253
157 197 253
158 197 253
158 197 253
158 197 253
158 197 253
158 197 253
158 197 253
159 197 253
159 197 253
159 198 253
159 198 253
159 198 253
159 198 253
160 198 253
160 198 253
160 198 253
160 198 253
160 198 253
161 199 253
161 199 253
161 199 253
161 199 253
161 199 253
162 199 253
162 199 253
162 199 253
162 200 253
162 200 253
163 200 253
163 200 253
163 200 253
163 200 253
163 200 253
164 200 253
164 200 253
164 201 253
164 201 253
164 201 253
165 201 253
165 201 253
165 201 253
165 201 253
165 201 253
166 202 253
166 202 253
166 202 253
166 202 253
166 202 253
167 202 253
167 202 253
167 202 253
167 202 253
167 203 253
167 203 253
168 203 253
168 203 253
168 203 253
168 203 253
168 203 253
168 203 253
169 203 253
169 203 253
169 204 253
169 204 253
169 204 253
169 204 253
170 204 253
170 204 253
170 204 253
170 204 253
170 204 253
170 204 253
171 205 253
171 205 253
171 205 253
171 205 253
171 205 253
171 205 253
171 205 253
172 205 253
172 205 253
172 205 253
172 205 253
172 205 253
171 205 253
171 205 253
171 205 253
171 205 253
171 205 253
171 205 253
171 205 253
170 204 253
170 204 253
170 204 253
170 204 253
170 204 253
170 204 253
170 204 253
169 204 253
169 204 253
169 204 253
169 204 253
169 203 253
169 203 253
168 203 253
168 203 253
168 203 253
168 203 253
168 203 253
167 203 253
167 203 253
167 202 253
167 202 253
167 202 253
167 202 253
166 202 253
166 202 253
166 202 253
166 202 253
166 202 253
165 201 253
165 201 253
165 201 253
165 201 253
165 201 253
164 201 253
164 201 253
164 201 253
164 200 253
164 200 253
163 200 253
163 200 253
163 200 253
163 200 253
163 200 253
162 200 253
162 200 253
162 199 253
162 199 253
162 199 253
161 199 253
161 199 253
161 199 253
161 199 253
161 199 253
160 198 253
160 198 253
160 198 253
160 198 253
160 198 253
160 198 253
159 198 253
159 198 253
159 198 253
159 198 253
159 197 253
159 197 253
158 197 253
158 197 253
158 197 253
158 197 253
158 197 253
158 197 253
158 197 253
157 197 253
157 197 253
157 197 253
157 196 253
157 196 253
157 196 253
157 196 253
157 196 253
157 196 253
157 196 253
157 196 253
157 196 253
157 196 253
157 196 253
157 196 253
157 196 253
157 196 253
157 196 253
157 196 253
157 196 253
157 196 253
157 196 253
157 196 253
157 196 253
157 196 253
157 196 253
157 196 253
157 196 253
157 196 253
157 197 253
157 197 253
157 197 253
158 197 253
158 197 253
158 197 253
158 197 253
158 197 253
158 197 253
158 197 253
159 197 253
159 197 253
159 198 253
159 198 253
159 198 253
159 198 253
160 198 253
160 198 253
160 198 253
160 198 253
160 198 253
160 198 253
161 199 253
161 199 253
161 199 253
161 199 253
161 199 253
162 199 253
162 199 253
162 199 253
162 200 253
162 200 253
163 200 253
163 200 253
163 200 253
163 200 253
163 200 253
164 200 253
164 200 253
164 201 253
164 201 253
164 201 253
165 201 253
165 201 253
165 201 253
165 201 253
165 201 253
166 202 253
166 202 253
166 202 253
166 202 253
166 202 253
167 202 253
167 202 253
167 202 253
167 202 253
167 203 253
167 203 253
168 203 253
168 203 253
168 203 253
168 203 253
168 203 253
168 203 253
169 203 253
169 203 253
169 204 253
169 204 253
169 204 253
170 204 253
170 204 253
170 204 253
170 204 253
170 204 253
170 204 253
170 204 253
171 205 253
171 205 253
171 205 253
171 205 253
171 205 253
171 205 253
171 205 253
172 205 253
172 205 253
172 205 253
172 205 253
173 206 253
172 206 253
172 206 253
172 205 253
172 205 253
172 205 253
172 205 253
172 205 253
171 205 253
171 205 253
171 205 253
171 205 253
171 205 253
171 205 253
171 205 253
170 204 253
170 204 253
170 204 253
170 204 253
170 204 253
170 204 253
169 204 253
169 204 253
169 204 253
169 204 253
169 203 253
169 203 253
168 203 253
168 203 253
168 203 253
168 203 253
168 203 253
167 203 253
167 203 253
167 202 253
167 202 253
167 202 253
167 202 253
166 202 253
166 202 253
166 202 253
166 202 253
166 202 253
165 201 253
165 201 253
165 201 253
165 201 253
165 201 253
164 201 253
164 201 253
164 201 253
164 200 253
164 200 253
163 200 253
163 200 253
163 200 253
163 200 253
163 200 253
162 200 253
162 200 253
162 199 253
162 199 253
162 199 253
161 199 253
161 199 253
161 199 253
161 199 253
161 199 253
161 199 253
160 198 253
160 198 253
160 198 253
160 198 253
160 198 253
160 198 253
159 198 253
159 198 253
159 198 253
159 198 253
159 197 253
159 197 253
159 197 253
158 197 253
158 197 253
158 197 253
158 197 253
158 197 253
158 197 253
158 197 253
158 197 253
158 197 253
157 197 253
157 197 253
157 197 253
157 197 253
157 197 253
157 197 253
157 197 253
157 197 253
157 197 253
157 197 253
157 197 253
157 197 253
157 197 253
157 197 253
157 197 253
157 197 253
157 197 253
158 197 253
158 197 253
158 197 253
158 197 253
158 197 253
158 197 253
158 197 253
158 197 253
158 197 253
158 197 253
159 197 253
159 197 253
159 197 253
159 198 253
159 198 253
159 198 253
159 198 253
159 198 253
160 198 253
160 198 253
160 198 253
160 198 253
160 198 253
161 199 253
161 199 253
161 199 253
161 199 253
161 199 253
161 199 253
162 199 253
162 199 253
162 199 253
162 200 253
162 200 253
163 200 253
163 200 253
163 200 253
163 200 253
163 200 253
164 200 253
164 200 253
164 201 253
164 201 253
164 201 253
165 201 253
165 201 253
165 201 253
165 201 253
165 201 253
166 202 253
166 202 253
166 202 253
166 202 253
166 202 253
167 202 253
167 202 253
167 202 253
167 202 253
167 203 253
167 203 253
168 203 253
168 203 253
168 203 253
168 203 253
168 203 253
169 203 253
169 203 253
169 204 253
169 204 253
169 204 253
169 204 253
170 204 253
170 204 253
170 204 253
170 204 253
170 204 253
170 204 253
170 204 253
171 205 253
171 205 253
171 205 253
171 205 253
171 205 253
171 205 253
172 205 253
172 205 253
172 205 253
172 205 253
172 205 253
172 206 253
172 206 253
172 206 253
173 206 253
173 206 253
173 206 253
173 206 253
172 206 253
172 206 253
172 206 253
172 205 253
172 205 253
172 205 253
172 205 253
171 205 253
171 205 253
171 205 253
171 205 253
171 205 253
171 205 253
171 205 253
170 204 253
170 204 253
170 204 253
170 204 253
170 204 253
170 204 253
169 204 253
169 204 253
169 204 253
169 204 253
169 203 253
169 203 253
168 203 253
168 203 253
168 203 253
168 203 253
168 203 253
168 203 253
167 203 253
167 203 253
167 202 253
167 202 253
167 202 253
166 202 253
166 202 253
166 202 253
166 202 253
166 202 253
165 201 253
165 201 253
165 201 253
165 201 253
165 201 253
164 201 253
164 201 253
164 201 253
164 201 253
164 200 253
163 200 253
163 200 253
163 200 253
163 200 253
163 200 253
163 200 253
162 200 253
162 199 253
162 199 253
162 199 253
162 199 253
161 199 253
161 199 253
161 199 253
161 199 253
161 199 253
161 199 253
160 198 253
160 198 253
160 198 253
160 198 253
160 198 253
160 198 253
159 198 253
159 198 253
159 198 253
159 198 253
159 198 253
159 197 253
159 197 253
159 197 253
159 197 253
158 197 253
158 197 253
158 197 253
158 197 253
158 197 253
158 197 253
158 197 253
158 197 253
158 197 253
158 197 253
158 197 253
158 197 253
158 197 253
158 197 253
158 197 253
158 197 253
158 197 253
158 197 253
158 197 253
158 197 253
158 197 253
158 197 253
158 197 253
158 197 253
159 197 253
159 197 253
159 197 253
159 198 253
159 198 253
159 198 253
159 198 253
159 198 253
159 198 253
160 198 253
160 198 253
160 198 253
160 198 253
160 198 253
160 198 253
161 199 253
161 199 253
161 199 253
161 199 253
161 199 253
161 199 253
162 199 253
162 199 253
162 199 253
162 199 253
162 200 253
163 200 253
163 200 253
163 200 253
163 200 253
163 200 253
164 200 253
164 200 253
164 201 253
164 201 253
164 201 253
164 201 253
165 201 253
165 201 253
165 201 253
165 201 253
165 201 253
166 202 253
166 202 253
166 202 253
166 202 253
166 202 253
167 202 253
167 202 253
167 202 253
167 203 253
167 203 253
168 203 253
168 203 253
168 203 253
168 203 253
168 203 253
168 203 253
169 203 253
169 203 253
169 204 253
169 204 253
169 204 253
169 204 253
170 204 253
170 204 253
170 204 253
170 204 253
170 204 253
170 204 253
171 205 253
171 205 253
171 205 253
171 205 253
171 205 253
171 205 253
171 205 253
172 205 253
172 205 253
172 205 253
172 205 253
172 206 253
172 206 253
172 206 253
173 206 253
173 206 253
173 206 253
173 206 253
173 206 253
173 206 253
173 206 253
173 206 253
173 206 253
173 206 253
173 206 253
173 206 253
172 206 253
172 206 253
172 205 253
172 205 253
172 205 253
172 205 253
172 205 253
171 205 253
171 205 253
171 205 253
171 205 253
171 205 253
171 205 253
171 205 253
170 204 253
170 204 253
170 204 253
170 204 253
170 204 253
170 204 253
169 204 253
169 204 253
169 204 253
169 204 253
169 203 253
169 203 253
168 203 253
168 203 253
168 203 253
168 203 253
168 203 253
167 203 253
167 203 253
167 202 253
167 202 253
167 202 253
166 202 253
166 202 253
166 202 253
166 202 253
166 202 253
166 202 253
165 201 253
165 201 253
165 201 253
165 201 253
165 201 253
164 201 253
164 201 253
164 201 253
164 200 253
164 200 253
163 200 253
163 200 253
163 200 253
163 200 253
163 200 253
162 200 253
162 200 253
162 199 253
162 199 253
162 199 253
162 199 253
161 199 253
161 199 253
161 199 253
161 199 253
161 199 253
161 199 253
160 198 253
160 198 253
160 198 253
160 198 253
160 198 253
160 198 253
160 198 253
160 198 253
159 198 253
159 198 253
159 198 253
159 198 253
159 198 253
159 198 253
159 198 253
159 198 253
159 197 253
159 197 253
159 197 253
159 197 253
159 197 253
159 197 253
159 197 253
159 197 253
159 197 253
159 197 253
159 197 253
159 197 253
159 197 253
159 198 253
159 198 253
159 198 253
159 198 253
159 198 253
159 198 253
159 198 253
159 198 253
159 198 253
160 198 253
160 198 253
160 198 253
160 198 253
160 198 253
160 198 253
160 198 253
160 198 253
161 199 253
161 199 253
161 199 253
161 199 253
161 199 253
161 199 253
162 199 253
162 199 253
162 199 253
162 199 253
162 200 253
162 200 253
163 200 253
163 200 253
163 200 253
163 200 253
163 200 253
164 200 253
164 200 253
164 201 253
164 201 253
164 201 253
165 201 253
165 201 253
165 201 253
165 201 253
165 201 253
166 202 253
166 202 253
166 202 253
166 202 253
166 202 253
166 202 253
167 202 253
167 202 253
167 202 253
167 203 253
167 203 253
168 203 253
168 203 253
168 203 253
168 203 253
168 203 253
168 203 253
169 203 253
169 204 253
169 204 253
169 204 253
169 204 253
170 204 253
170 204 253
170 204 253
170 204 253
170 204 253
170 204 253
170 204 253
171 205 253
171 205 253
171 205 253
171 205 253
171 205 253
171 205 253
172 205 253
172 205 253
172 205 253
172 205 253
172 205 253
172 206 253
172 206 253
173 206 253
173 206 253
173 206 253
173 206 253
173 206 253
173 206 253
173 206 253
173 206 253
174 207 253
174 207 253
174 206 253
174 206 253
173 206 253
173 206 253
173 206 253
173 206 253
173 206 253
173 206 253
173 206 253
173 206 253
172 206 253
172 206 253
172 205 253
172 205 253
172 205 253
172 205 253
172 205 253
171 205 253
171 205 253
171 205 253
171 205 253
171 205 253
171 205 253
170 204 253
170 204 253
170 204 253
170 204 253
170 204 253
170 204 253
169 204 253
169 204 253
169 204 253
169 204 253
169 203 253
169 203 253
168 203 253
168 203 253
168 203 253
168 203 253
168 203 253
167 203 253
167 203 253
167 202 253
167 202 253
167 202 253
167 202 253
166 202 253
166 202 253
166 202 253
166 202 253
166 202 253
165 201 253
165 201 253
165 201 253
165 201 253
165 201 253
164 201 253
164 201 253
164 201 253
164 201 253
164 200 253
164 200 253
163 200 253
163 200 253
163 200 253
163 200 253
163 200 253
162 200 253
162 200 253
162 199 253
162 199 253
162 199 253
162 199 253
161 199 253
161 199 253
161 199 253
161 199 253
161 199 253
161 199 253
161 199 253
160 198 253
160 198 253
160 198 253
160 198 253
160 198 253
160 198 253
160 198 253
160 198 253
160 198 253
160 198 253
160 198 253
160 198 253
159 198 253
158 199 253
155 202 249
152 205 245
148 209 238
147 211 235
151 208 239
150 210 237
153 207 240
157 202 249
159 199 253
160 198 253
160 198 253
160 198 253
160 198 253
160 198 253
160 198 253
160 198 253
160 198 253
160 198 253
160 198 253
160 198 253
160 198 253
161 199 253
161 199 253
161 199 253
161 199 253
161 199 253
161 199 253
161 199 253
161 199 253
162 199 253
162 199 253
162 199 253
162 199 253
162 200 253
162 200 253
163 200 253
163 200 253
163 200 253
163 200 253
163 200 253
164 200 253
164 200 253
164 201 253
164 201 253
164 201 253
164 201 253
165 201 253
165 201 253
165 201 253
165 201 253
165 201 253
166 202 253
166 202 253
166 202 253
166 202 253
166 202 253
167 202 253
167 202 253
167 202 253
167 202 253
167 203 253
167 203 253
168 203 253
168 203 253
168 203 253
168 203 253
168 203 253
169 203 253
169 203 253
169 204 253
169 204 253
169 204 253
169 204 253
170 204 253
170 204 253
170 204 253
170 204 253
170 204 253
170 204 253
171 205 253
171 205 253
171 205 253
171 205 253
171 205 253
171 205 253
172 205 253
172 205 253
172 205 253
172 205 253
172 205 253
172 206 253
172 206 253
173 206 253
173 206 253
173 206 253
173 206 253
173 206 253
173 206 253
173 206 253
173 206 253
174 206 253
174 206 253
174 207 253
174 207 253
174 207 253
174 207 253
174 207 253
174 207 253
174 207 253
174 207 253
174 206 253
174 206 253
173 206 253
173 206 253
173 206 253
173 206 253
173 206 253
173 206 253
173 206 253
173 206 253
172 206 253
172 206 253
172 205 253
172 205 253
172 205 253
172 205 253
171 205 253
171 205 253
171 205 253
171 205 253
171 205 253
171 205 253
171 205 253
170 204 253
170 204 253
170 204 253
170 204 253
170 204 253
170 204 253
169 204 253
169 204 253
169 204 253
169 204 253
169 203 253
168 203 253
168 203 253
168 203 253
168 203 253
168 203 253
168 203 253
167 203 253
167 203 253
167 202 253
167 202 253
167 202 253
166 202 253
166 202 253
166 202 253
166 202 253
166 202 253
166 202 253
165 201 253
165 201 253
165 201 253
165 201 253
165 201 253
164 201 253
164 201 253
164 201 253
164 201 253
164 200 253
164 200 253
163 200 253
163 200 253
163 200 253
163 200 253
163 200 253
162 200 253
162 200 253
162 199 253
162 199 253
162 199 253
162 199 253
162 199 253
162 199 253
161 199 253
161 199 253
161 199 253
161 199 253
161 199 253
161 199 253
161 199 253
161 199 253
161 199 253
160 199 253
147 205 243
131 214 227
126 217 223
119 223 214
114 228 206
117 226 208
120 226 209
123 225 210
126 225 210
129 225 211
132 225 210
135 225 210
139 226 208
142 227 206
147 224 212
152 220 218
156 213 230
159 206 241
160 199 253
161 199 253
161 199 253
161 199 253
161 199 253
161 199 253
161 199 253
161 199 253
161 199 253
161 199 253
161 199 253
162 199 253
162 199 253
162 199 253
162 199 253
162 200 253
162 200 253
163 200 253
163 200 253
163 200 253
163 200 253
163 200 253
163 200 253
164 200 253
164 200 253
164 201 253
164 201 253
164 201 253
164 201 253
165 201 253
165 201 253
165 201 253
165 201 253
165 201 253
166 202 253
166 202 253
166 202 253
166 202 253
166 202 253
166 202 253
167 202 253
167 202 253
167 202 253
167 203 253
167 203 253
168 203 253
168 203 253
168 203 253
168 203 253
168 203 253
168 203 253
169 203 253
169 204 253
169 204 253
169 204 253
169 204 253
169 204 253
170 204 253
170 204 253
170 204 253
170 204 253
170 204 253
171 205 253
171 205 253
171 205 253
171 205 253
171 205 253
171 205 253
171 205 253
172 205 253
172 205 253
172 205 253
172 205 253
172 206 253
172 206 253
173 206 253
173 206 253
173 206 253
173 206 253
173 206 253
173 206 253
173 206 253
173 206 253
174 206 253
174 206 253
174 207 253
174 207 253
174 207 253
174 207 253
174 207 253
174 207 253
175 207 253
175 207 253
175 207 253
175 207 253
175 207 253
174 207 253
174 207 253
174 207 253
174 207 253
174 207 253
174 206 253
174 206 253
173 206 253
173 206 253
173 206 253
173 206 253
173 206 253
173 206 253
173 206 253
173 206 253
172 206 253
172 206 253
172 205 253
172 205 253
172 205 253
172 205 253
171 205 253
171 205 253
171 205 253
171 205 253
171 205 253
171 205 253
170 204 253
170 204 253
170 204 253
170 204 253
170 204 253
170 204 253
169 204 253
169 204 253
169 204 253
169 204 253
169 203 253
169 203 253
168 203 253
168 203 253
168 203 253
168 203 253
168 203 253
167 203 253
167 203 253
167 203 253
167 202 253
167 202 253
167 202 253
166 202 253
166 202 253
166 202 253
166 202 253
166 202 253
165 201 253
165 201 253
165 201 253
165 201 253
165 201 253
165 201 253
164 201 253
164 201 253
164 201 253
164 201 253
164 200 253
164 200 253
163 200 253
163 200 253
163 200 253
163 200 253
163 200 253
163 200 253
163 200 253
162 200 253
162 200 253
162 199 253
162 199 253
162 199 253
162 199 253
162 199 253
162 199 253
161 199 253
143 206 241
118 216 222
102 222 209
101 223 209
105 222 211
108 220 214
111 219 215
114 218 217
117 218 217
120 218 218
123 218 218
126 217 219
129 217 219
132 218 218
135 218 218
138 218 217
141 218 217
144 219 215
147 220 214
151 221 212
154 223 208
158 222 211
161 214 226
162 205 243
161 199 253
162 199 253
162 199 253
162 199 253
162 199 253
162 199 253
162 199 253
162 200 253
162 200 253
163 200 253
163 200 253
163 200 253
163 200 253
163 200 253
163 200 253
163 200 253
164 200 253
164 200 253
164 201 253
164 201 253
164 201 253
164 201 253
165 201 253
165 201 253
165 201 253
165 201 253
165 201 253
165 201 253
166 202 253
166 202 253
166 202 253
166 202 253
166 202 253
167 202 253
167 202 253
167 202 253
167 202 253
167 203 253
168 203 253
168 203 253
168 203 253
168 203 253
168 203 253
168 203 253
169 203 253
169 203 253
169 204 253
169 204 253
169 204 253
169 204 253
170 204 253
170 204 253
170 204 253
170 204 253
170 204 253
170 204 253
171 205 253
171 205 253
171 205 253
171 205 253
171 205 253
171 205 253
172 205 253
172 205 253
172 205 253
172 205 253
172 206 253
172 206 253
173 206 253
173 206 253
173 206 253
173 206 253
173 206 253
173 206 253
173 206 253
173 206 253
174 206 253
174 206 253
174 207 253
174 207 253
174 207 253
174 207 253
174 207 253
174 207 253
175 207 253
175 207 253
175 207 253
175 207 253
175 207 253
175 207 253
175 207 253
175 207 253
175 207 253
175 207 253
175 207 253
175 207 253
175 207 253
174 207 253
174 207 253
174 207 253
174 207 253
174 207 253
174 206 253
174 206 253
173 206 253
173 206 253
173 206 253
173 206 253
173 206 253
173 206 253
173 206 253
172 206 253
172 206 253
172 205 253
172 205 253
172 205 253
172 205 253
172 205 253
171 205 253
171 205 253
171 205 253
171 205 253
171 205 253
171 205 253
170 204 253
170 204 253
170 204 253
170 204 253
170 204 253
170 204 253
169 204 253
169 204 253
169 204 253
169 204 253
169 203 253
169 203 253
168 203 253
168 203 253
168 203 253
168 203 253
168 203 253
167 203 253
167 203 253
167 202 253
167 202 253
167 202 253
167 202 253
166 202 253
166 202 253
166 202 253
166 202 253
166 202 253
165 201 253
165 201 253
165 201 253
165 201 253
165 201 253
165 201 253
164 201 253
164 201 253
164 201 253
164 201 253
164 200 253
164 200 253
163 200 253
163 200 253
163 200 253
163 200 253
163 200 253
163 200 253
163 200 253
163 200 253
163 200 253
159 201 253
127 210 231
104 217 215
92 220 209
95 217 213
99 216 215
102 215 217
105 214 219
109 213 220
112 213 222
115 212 223
117 212 223
120 211 224
123 212 224
126 212 224
129 212 224
132 212 224
135 212 224
138 212 223
141 212 222
144 213 221
146 213 220
149 214 219
153 215 217
156 216 215
160 217 213
163 219 209
166 216 218
166 210 231
163 200 253
163 200 253
163 200 253
163 200 253
163 200 253
163 200 253
163 200 253
163 200 253
163 200 253
164 200 253
164 200 253
164 201 253
164 201 253
164 201 253
164 201 253
164 201 253
165 201 253
165 201 253
165 201 253
165 201 253
165 201 253
165 201 253
166 202 253
166 202 253
166 202 253
166 202 253
166 202 253
167 202 253
167 202 253
167 202 253
167 202 253
167 203 253
167 203 253
168 203 253
168 203 253
168 203 253
168 203 253
168 203 253
169 203 253
169 203 253
169 204 253
169 204 253
169 204 253
169 204 253
170 204 253
170 204 253
170 204 253
170 204 253
170 204 253
170 204 253
171 205 253
171 205 253
171 205 253
171 205 253
171 205 253
171 205 253
172 205 253
172 205 253
172 205 253
172 205 253
172 206 253
172 206 253
172 206 253
173 206 253
173 206 253
173 206 253
173 206 253
173 206 253
173 206 253
173 206 253
174 206 253
174 206 253
174 207 253
174 207 253
174 207 253
174 207 253
174 207 253
175 207 253
175 207 253
175 207 253
175 207 253
175 207 253
175 207 253
175 207 253
175 207 253
175 207 253
176 208 253
176 208 253
176 208 253
176 208 253
176 208 253
175 207 253
175 207 253
175 207 253
175 207 253
175 207 253
175 207 253
175 207 253
175 207 253
174 207 253
174 207 253
174 207 253
174 207 253
174 207 253
174 206 253
174 206 253
174 206 253
173 206 253
173 206 253
173 206 253
173 206 253
173 206 253
173 206 253
172 206 253
172 206 253
172 206 253
172 205 253
172 205 253
172 205 253
172 205 253
171 205 253
171 205 253
171 205 253
171 205 253
171 205 253
171 205 253
170 204 253
170 204 253
170 204 253
170 204 253
170 204 253
170 204 253
169 204 253
169 204 253
169 204 253
169 204 253
169 203 253
169 203 253
168 203 253
168 203 253
168 203 253
168 203 253
168 203 253
167 203 253
167 203 253
167 202 253
167 202 253
167 202 253
167 202 253
166 202 253
166 202 253
166 202 253
166 202 253
166 202 253
166 202 253
165 201 253
165 201 253
165 201 253
165 201 253
165 201 253
165 201 253
164 201 253
164 201 253
164 201 253
164 201 253
164 201 253
164 200 253
164 200 253
164 200 253
161 201 253
137 206 239
91 216 211
86 216 210
90 214 214
93 212 217
97 211 219
100 210 221
103 209 223
106 209 224
109 208 225
112 207 226
115 207 227
118 207 227
121 207 228
123 207 228
126 207 228
129 207 228
132 207 228
134 207 228
137 207 227
140 207 227
143 208 226
146 208 225
149 209 224
152 209 223
155 210 222
158 211 219
162 212 217
165 213 215
169 216 210
173 217 209
168 207 236
164 200 253
164 200 253
164 200 253
164 200 253
164 201 253
164 201 253
164 201 253
164 201 253
164 201 253
165 201 253
165 201 253
165 201 253
165 201 253
165 201 253
165 201 253
166 202 253
166 202 253
166 202 253
166 202 253
166 202 253
166 202 253
167 202 253
167 202 253
167 202 253
167 202 253
167 203 253
167 203 253
168 203 253
168 203 253
168 203 253
168 203 253
168 203 253
169 203 253
169 203 253
169 204 253
169 204 253
169 204 253
169 204 253
170 204 253
170 204 253
170 204 253
170 204 253
170 204 253
170 204 253
171 205 253
171 205 253
171 205 253
171 205 253
171 205 253
171 205 253
172 205 253
172 205 253
172 205 253
172 205 253
172 206 253
172 206 253
172 206 253
173 206 253
173 206 253
173 206 253
173 206 253
173 206 253
173 206 253
174 206 253
174 206 253
174 206 253
174 207 253
174 207 253
174 207 253
174 207 253
174 207 253
175 207 253
175 207 253
175 207 253
175 207 253
175 207 253
175 207 253
175 207 253
175 207 253
176 208 253
176 208 253
176 208 253
176 208 253
176 208 253
177 208 253
176 208 253
176 208 253
176 208 253
176 208 253
176 208 253
176 208 253
176 208 253
176 208 253
175 207 253
175 207 253
175 207 253
175 207 253
175 207 253
175 207 253
175 207 253
175 207 253
175 207 253
174 207 253
174 207 253
174 207 253
174 207 253
174 206 253
174 206 253
174 206 253
173 206 253
173 206 253
173 206 253
173 206 253
173 206 253
173 206 253
172 206 253
172 206 253
172 206 253
172 205 253
172 205 253
172 205 253
172 205 253
171 205 253
171 205 253
171 205 253
171 205 253
171 205 253
171 205 253
170 204 253
170 204 253
170 204 253
170 204 253
170 204 253
170 204 253
169 204 253
169 204 253
169 204 253
169 204 253
169 203 253
169 203 253
168 203 253
168 203 253
168 203 253
168 203 253
168 203 253
167 203 253
167 203 253
167 202 253
167 202 253
167 202 253
167 202 253
166 202 253
166 202 253
166 202 253
166 202 253
166 202 253
166 202 253
166 202 253
165 201 253
165 201 253
165 201 253
165 201 253
165 201 253
165 201 253
165 201 253
164 201 253
139 205 240
92 212 214
79 213 210
84 210 215
87 209 218
91 208 220
94 207 223
98 206 224
101 205 226
104 204 227
107 204 228
110 203 229
113 203 230
115 203 230
118 203 231
121 202 231
123 202 231
126 202 231
129 202 231
132 202 231
134 203 231
137 202 231
140 203 230
143 203 230
145 203 229
148 204 228
151 204 227
154 205 226
157 206 224
161 207 222
164 207 221
168 209 218
171 210 215
175 213 210
177 213 213
169 204 244
164 201 253
165 201 253
165 201 253
165 201 253
165 201 253
165 201 253
165 201 253
165 201 253
166 202 253
166 202 253
166 202 253
166 202 253
166 202 253
166 202 253
166 202 253
167 202 253
167 202 253
167 202 253
167 202 253
167 203 253
167 203 253
168 203 253
168 203 253
168 203 253
168 203 253
168 203 253
169 203 253
169 203 253
169 204 253
169 204 253
169 204 253
169 204 253
170 204 253
170 204 253
170 204 253
170 204 253
170 204 253
170 204 253
171 205 253
171 205 253
171 205 253
171 205 253
171 205 253
171 205 253
172 205 253
172 205 253
172 205 253
172 205 253
172 206 253
172 206 253
173 206 253
173 206 253
173 206 253
173 206 253
173 206 253
173 206 253
173 206 253
174 206 253
174 206 253
174 206 253
174 207 253
174 207 253
174 207 253
174 207 253
174 207 253
175 207 253
175 207 253
175 207 253
175 207 253
175 207 253
175 207 253
175 207 253
175 207 253
176 208 253
176 208 253
176 208 253
176 208 253
176 208 253
176 208 253
176 208 253
176 208 253
177 208 253
177 208 253
177 208 253
177 208 253
177 208 253
177 208 253
176 208 253
176 208 253
176 208 253
176 208 253
176 208 253
176 208 253
176 208 253
176 208 253
176 208 253
175 207 253
175 207 253
175 207 253
175 207 253
175 207 253
175 207 253
175 207 253
175 207 253
174 207 253
174 207 253
174 207 253
174 207 253
174 207 253
174 206 253
174 206 253
173 206 253
173 206 253
173 206 253
173 206 253
173 206 253
173 206 253
173 206 253
172 206 253
172 206 253
172 205 253
172 205 253
172 205 253
172 205 253
171 205 253
171 205 253
171 205 253
171 205 253
171 205 253
171 205 253
170 204 253
170 204 253
170 204 253
170 204 253
170 204 253
170 204 253
169 204 253
169 204 253
169 204 253
169 204 253
169 203 253
169 203 253
168 203 253
168 203 253
168 203 253
168 203 253
168 203 253
168 203 253
167 203 253
167 203 253
167 202 253
167 202 253
167 202 253
167 202 253
166 202 253
166 202 253
166 202 253
166 202 253
166 202 253
166 202 253
166 202 253
166 202 253
162 202 253
114 207 227
75 210 209
78 208 214
82 206 218
85 205 221
89 203 223
92 203 225
95 202 227
98 201 228
101 200 229
104 200 230
107 199 231
110 199 232
113 199 233
115 199 233
118 198 234
121 198 234
124 198 234
126 198 234
129 198 234
132 198 234
134 198 234
137 199 234
140 199 233
142 199 233
145 199 232
148 200 231
151 200 230
154 200 229
157 201 228
160 202 227
163 203 225
166 204 223
170 205 220
173 206 218
178 208 213
182 211 208
175 206 231
166 202 253
165 201 253
166 202 253
166 202 253
166 202 253
166 202 253
166 202 253
166 202 253
166 202 253
167 202 253
167 202 253
167 202 253
167 202 253
167 203 253
167 203 253
168 203 253
168 203 253
168 203 253
168 203 253
168 203 253
168 203 253
169 203 253
169 203 253
169 204 253
169 204 253
169 204 253
169 204 253
170 204 253
170 204 253
170 204 253
170 204 253
170 204 253
170 204 253
171 205 253
171 205 253
171 205 253
171 205 253
171 205 253
171 205 253
172 205 253
172 205 253
172 205 253
172 205 253
172 206 253
172 206 253
173 206 253
173 206 253
173 206 253
173 206 253
173 206 253
173 206 253
173 206 253
174 206 253
174 206 253
174 207 253
174 207 253
174 207 253
174 207 253
174 207 253
175 207 253
175 207 253
175 207 253
175 207 253
175 207 253
175 207 253
175 207 253
175 207 253
176 208 253
176 208 253
176 208 253
176 208 253
176 208 253
176 208 253
176 208 253
176 208 253
176 208 253
177 208 253
177 208 253
177 208 253
177 208 253
177 208 253
178 209 253
177 209 253
177 209 253
177 209 253
177 208 253
177 208 253
177 208 253
177 208 253
177 208 253
177 208 253
176 208 253
176 208 253
176 208 253
176 208 253
176 208 253
176 208 253
176 208 253
176 208 253
176 208 253
175 207 253
175 207 253
175 207 253
175 207 253
175 207 253
175 207 253
175 207 253
174 207 253
174 207 253
174 207 253
174 207 253
174 207 253
174 206 253
174 206 253
173 206 253
173 206 253
173 206 253
173 206 253
173 206 253
173 206 253
173 206 253
172 206 253
172 206 253
172 205 253
172 205 253
172 205 253
172 205 253
171 205 253
171 205 253
171 205 253
171 205 253
171 205 253
171 205 253
171 205 253
170 204 253
170 204 253
170 204 253
170 204 253
170 204 253
170 204 253
169 204 253
169 204 253
169 204 253
169 203 253
169 203 253
169 203 253
168 203 253
168 203 253
168 203 253
168 203 253
168 203 253
168 203 253
167 203 253
167 203 253
167 202 253
167 202 253
167 202 253
167 202 253
167 202 253
166 202 253
155 203 249
91 207 217
70 206 211
75 204 216
79 202 220
83 201 222
86 200 225
90 199 227
93 198 228
96 197 230
99 197 231
102 196 232
105 196 233
108 195 234
110 195 235
113 195 235
116 195 236
118 195 236
121 194 236
124 194 236
126 194 237
129 194 237
132 194 237
134 195 236
137 195 236
139 195 236
142 195 235
145 195 235
147 195 234
150 196 233
153 197 232
156 197 231
159 197 230
162 198 229
165 199 227
169 200 225
172 201 222
176 202 219
180 204 216
185 207 210
185 207 215
169 203 251
166 202 253
167 202 253
167 202 253
167 202 253
167 202 253
167 202 253
167 203 253
167 203 253
168 203 253
168 203 253
168 203 253
168 203 253
168 203 253
168 203 253
169 203 253
169 203 253
169 203 253
169 204 253
169 204 253
169 204 253
170 204 253
170 204 253
170 204 253
170 204 253
170 204 253
170 204 253
170 204 253
171 205 253
171 205 253
171 205 253
171 205 253
171 205 253
171 205 253
172 205 253
172 205 253
172 205 253
172 205 253
172 206 253
172 206 253
173 206 253
173 206 253
173 206 253
173 206 253
173 206 253
173 206 253
173 206 253
174 206 253
174 206 253
174 207 253
174 207 253
174 207 253
174 207 253
174 207 253
175 207 253
175 207 253
175 207 253
175 207 253
175 207 253
175 207 253
175 207 253
176 208 253
176 208 253
176 208 253
176 208 253
176 208 253
176 208 253
176 208 253
176 208 253
176 208 253
177 208 253
177 208 253
177 208 253
177 208 253
177 208 253
177 208 253
177 209 253
177 209 253
177 209 253
178 209 253
178 209 253
178 209 253
178 209 253
178 209 253
178 209 253
178 209 253
177 209 253
177 209 253
177 209 253
177 209 253
177 208 253
177 208 253
177 208 253
177 208 253
177 208 253
176 208 253
176 208 253
176 208 253
176 208 253
176 208 253
176 208 253
176 208 253
176 208 253
175 207 253
175 207 253
175 207 253
175 207 253
175 207 253
175 207 253
175 207 253
175 207 253
174 207 253
174 207 253
174 207 253
174 207 253
174 207 253
174 206 253
174 206 253
173 206 253
173 206 253
173 206 253
173 206 253
173 206 253
173 206 253
172 206 253
172 206 253
172 206 253
172 205 253
172 205 253
172 205 253
172 205 253
171 205 253
171 205 253
171 205 253
171 205 253
171 205 253
171 205 253
170 204 253
170 204 253
170 204 253
170 204 253
170 204 253
170 204 253
169 204 253
169 204 253
169 204 253
169 204 253
169 204 253
169 203 253
169 203 253
168 203 253
168 203 253
168 203 253
168 203 253
168 203 253
168 203 253
167 203 253
167 203 253
147 203 245
68 206 207
68 202 212
73 200 218
77 199 221
80 197 224
84 196 226
87 196 228
90 195 230
94 194 232
97 193 233
100 193 234
102 192 235
105 192 236
108 192 236
110 192 237
113 191 237
116 191 238
118 191 238
121 191 238
124 191 239
126 191 239
129 191 239
131 191 239
134 191 238
137 191 238
139 191 238
142 191 237
145 192 237
147 192 236
150 192 236
153 193 235
156 193 234
159 194 233
161 194 231
165 195 230
168 195 228
171 196 226
175 198 224
178 198 221
182 200 218
187 202 213
189 205 213
171 203 248
167 203 253
168 203 253
168 203 253
168 203 253
168 203 253
168 203 253
168 203 253
168 203 253
169 203 253
169 203 253
169 204 253
169 204 253
169 204 253
169 204 253
169 204 253
170 204 253
170 204 253
170 204 253
170 204 253
170 204 253
170 204 253
171 205 253
171 205 253
171 205 253
171 205 253
171 205 253
171 205 253
172 205 253
172 205 253
172 205 253
172 205 253
172 206 253
172 206 253
173 206 253
173 206 253
173 206 253
173 206 253
173 206 253
173 206 253
173 206 253
174 206 253
174 206 253
174 207 253
174 207 253
174 207 253
174 207 253
174 207 253
175 207 253
175 207 253
175 207 253
175 207 253
175 207 253
175 207 253
175 207 253
176 208 253
176 208 253
176 208 253
176 208 253
176 208 253
176 208 253
176 208 253
176 208 253
176 208 253
177 208 253
177 208 253
177 208 253
177 208 253
177 208 253
177 208 253
177 209 253
177 209 253
177 209 253
178 209 253
178 209 253
178 209 253
178 209 253
178 209 253
178 209 253
179 209 253
178 209 253
178 209 253
178 209 253
178 209 253
178 209 253
178 209 253
178 209 253
178 209 253
178 209 253
178 209 253
177 209 253
177 209 253
177 209 253
177 208 253
177 208 253
177 208 253
177 208 253
177 208 253
177 208 253
176 208 253
176 208 253
176 208 253
176 208 253
176 208 253
176 208 253
176 208 253
176 208 253
175 207 253
175 207 253
175 207 253
175 207 253
175 207 253
175 207 253
175 207 253
175 207 253
174 207 253
174 207 253
174 207 253
174 207 253
174 206 253
174 206 253
174 206 253
173 206 253
173 206 253
173 206 253
173 206 253
173 206 253
173 206 253
172 206 253
172 206 253
172 205 253
172 205 253
172 205 253
172 205 253
172 205 253
171 205 253
171 205 253
171 205 253
171 205 253
171 205 253
171 205 253
170 204 253
170 204 253
170 204 253
170 204 253
170 204 253
170 204 253
169 204 253
169 204 253
169 204 253
169 204 253
169 204 253
169 203 253
169 203 253
169 203 253
168 203 253
147 203 245
66 202 209
65 199 214
70 197 218
74 195 222
78 194 225
82 193 227
85 192 229
88 191 231
91 191 233
94 190 234
97 190 235
100 189 236
103 189 237
105 189 238
108 189 238
111 188 239
113 188 239
116 188 240
119 188 240
121 188 240
124 188 240
126 187 241
129 188 240
131 187 241
134 187 240
137 188 240
139 188 240
142 188 239
144 188 239
147 189 238
150 189 238
152 189 237
155 189 236
158 190 235
161 190 234
164 191 233
167 191 231
170 192 229
173 193 228
177 194 225
181 195 222
185 197 218
190 199 214
194 202 210
177 203 240
168 203 253
169 203 253
169 203 253
169 203 253
169 204 253
169 204 253
169 204 253
169 204 253
170 204 253
170 204 253
170 204 253
170 204 253
170 204 253
170 204 253
170 204 253
171 205 253
171 205 253
171 205 253
171 205 253
171 205 253
171 205 253
171 205 253
172 205 253
172 205 253
172 205 253
172 205 253
172 206 253
172 206 253
173 206 253
173 206 253
173 206 253
173 206 253
173 206 253
173 206 253
174 206 253
174 206 253
174 206 253
174 207 253
174 207 253
174 207 253
174 207 253
175 207 253
175 207 253
175 207 253
175 207 253
175 207 253
175 207 253
175 207 253
175 207 253
176 208 253
176 208 253
176 208 253
176 208 253
176 208 253
176 208 253
176 208 253
176 208 253
177 208 253
177 208 253
177 208 253
177 208 253
177 208 253
177 208 253
177 209 253
177 209 253
178 209 253
178 209 253
178 209 253
178 209 253
178 209 253
178 209 253
178 209 253
178 209 253
178 209 253
178 209 253
179 209 253
179 209 253
179 210 253
179 210 253
179 210 253
179 210 253
179 209 253
179 209 253
179 209 253
178 209 253
178 209 253
178 209 253
178 209 253
178 209 253
178 209 253
178 209 253
178 209 253
178 209 253
177 209 253
177 209 253
177 209 253
177 209 253
177 208 253
177 208 253
177 208 253
177 208 253
177 208 253
176 208 253
176 208 253
176 208 253
176 208 253
176 208 253
176 208 253
176 208 253
176 208 253
175 207 253
175 207 253
175 207 253
175 207 253
175 207 253
175 207 253
175 207 253
175 207 253
174 207 253
174 207 253
174 207 253
174 207 253
174 206 253
174 206 253
173 206 253
173 206 253
173 206 253
173 206 253
173 206 253
173 206 253
173 206 253
172 206 253
172 206 253
172 205 253
172 205 253
172 205 253
172 205 253
172 205 253
171 205 253
171 205 253
171 205 253
171 205 253
171 205 253
171 205 253
171 205 253
170 204 253
170 204 253
170 204 253
170 204 253
170 204 253
170 204 253
170 204 253
169 204 253
123 202 234
60 198 209
63 195 214
67 194 219
71 192 222
75 191 226
79 190 228
82 189 230
86 188 232
89 188 233
92 187 235
95 187 236
97 186 237
100 186 238
103 185 239
106 185 240
108 185 240
111 185 241
114 185 241
116 185 242
119 184 242
121 184 242
124 184 242
126 184 242
129 184 242
131 184 242
134 184 242
136 184 242
139 185 242
141 185 241
144 185 241
147 185 240
149 185 240
152 186 239
155 186 238
158 186 237
161 187 236
163 187 235
166 188 233
169 188 232
173 189 230
176 190 228
180 191 226
183 192 223
188 194 219
193 196 214
197 198 210
178 203 241
169 204 253
170 204 253
170 204 253
170 204 253
170 204 253
170 204 253
170 204 253
170 204 253
170 204 253
171 205 253
171 205 253
171 205 253
171 205 253
171 205 253
171 205 253
172 205 253
172 205 253
172 205 253
172 205 253
172 205 253
172 206 253
172 206 253
173 206 253
173 206 253
173 206 253
173 206 253
173 206 253
173 206 253
173 206 253
174 206 253
174 206 253
174 207 253
174 207 253
174 207 253
174 207 253
175 207 253
175 207 253
175 207 253
175 207 253
175 207 253
175 207 253
175 207 253
175 207 253
176 208 253
176 208 253
176 208 253
176 208 253
176 208 253
176 208 253
176 208 253
176 208 253
177 208 253
177 208 253
177 208 253
177 208 253
177 208 253
177 209 253
177 209 253
177 209 253
178 209 253
178 209 253
178 209 253
178 209 253
178 209 253
178 209 253
178 209 253
178 209 253
178 209 253
178 209 253
179 209 253
179 209 253
179 209 253
179 210 253
179 210 253
179 210 253
179 210 253
180 210 253
180 210 253
179 210 253
179 210 253
179 210 253
179 210 253
179 210 253
179 210 253
179 210 253
179 209 253
179 209 253
179 209 253
179 209 253
178 209 253
178 209 253
178 209 253
178 209 253
178 209 253
178 209 253
178 209 253
178 209 253
178 209 253
177 209 253
177 209 253
177 209 253
177 208 253
177 208 253
177 208 253
177 208 253
177 208 253
177 208 253
176 208 253
176 208 253
176 208 253
176 208 253
176 208 253
176 208 253
176 208 253
175 207 253
175 207 253
175 207 253
175 207 253
175 207 253
175 207 253
175 207 253
174 207 253
174 207 253
174 207 253
174 207 253
174 207 253
174 206 253
174 206 253
174 206 253
173 206 253
173 206 253
173 206 253
173 206 253
173 206 253
173 206 253
172 206 253
172 206 253
172 206 253
172 205 253
172 205 253
172 205 253
172 205 253
171 205 253
171 205 253
171 205 253
171 205 253
171 205 253
171 205 253
171 205 253
171 205 253
170 204 253
153 203 248
60 196 209
60 192 214
65 190 220
69 189 223
73 188 226
76 187 229
80 186 231
83 186 233
86 185 234
89 184 236
92 184 237
95 184 238
98 183 239
100 183 240
103 182 241
106 182 241
109 182 242
111 182 242
114 182 243
116 181 243
119 181 243
121 181 244
124 181 244
126 181 244
129 181 244
131 181 244
134 181 243
136 181 243
139 182 243
141 182 243
144 182 242
147 182 242
149 182 241
152 182 241
154 183 240
157 183 239
160 183 238
163 184 237
166 184 236
169 185 234
172 186 232
175 186 231
179 187 228
182 188 226
186 189 223
191 190 219
196 192 214
201 196 208
178 203 244
170 204 253
171 205 253
171 205 253
171 205 253
171 205 253
171 205 253
171 205 253
171 205 253
171 205 253
172 205 253
172 205 253
172 205 253
172 205 253
172 206 253
172 206 253
173 206 253
173 206 253
173 206 253
173 206 253
173 206 253
173 206 253
173 206 253
174 206 253
174 206 253
174 206 253
174 207 253
174 207 253
174 207 253
174 207 253
175 207 253
175 207 253
175 207 253
175 207 253
175 207 253
175 207 253
175 207 253
175 207 253
176 208 253
176 208 253
176 208 253
176 208 253
176 208 253
176 208 253
176 208 253
177 208 253
177 208 253
177 208 253
177 208 253
177 208 253
177 208 253
177 209 253
177 209 253
177 209 253
178 209 253
178 209 253
178 209 253
178 209 253
178 209 253
178 209 253
178 209 253
178 209 253
178 209 253
179 209 253
179 209 253
179 209 253
179 209 253
179 210 253
179 210 253
179 210 253
179 210 253
179 210 253
179 210 253
179 210 253
180 210 253
180 210 253
180 210 253
180 210 253
180 210 253
180 210 253
180 210 253
180 210 253
180 210 253
180 210 253
179 210 253
179 210 253
179 210 253
179 210 253
179 210 253
179 210 253
179 210 253
179 209 253
179 209 253
179 209 253
178 209 253
178 209 253
178 209 253
178 209 253
178 209 253
178 209 253
178 209 253
178 209 253
178 209 253
178 209 253
177 209 253
177 209 253
177 209 253
177 208 253
177 208 253
177 208 253
177 208 253
177 208 253
176 208 253
176 208 253
176 208 253
176 208 253
176 208 253
176 208 253
176 208 253
176 208 253
175 207 253
175 207 253
175 207 253
175 207 253
175 207 253
175 207 253
175 207 253
174 207 253
174 207 253
174 207 253
174 207 253
174 207 253
174 206 253
174 206 253
173 206 253
173 206 253
173 206 253
173 206 253
173 206 253
173 206 253
173 206 253
172 206 253
172 206 253
172 205 253
172 205 253
172 205 253
172 205 253
172 205 253
172 205 253
171 205 253
157 204 249
64 194 211
56 190 213
61 188 219
66 186 223
70 185 226
73 184 229
77 183 231
80 183 233
84 182 235
87 181 236
90 181 237
93 181 239
95 180 240
98 180 240
101 180 241
104 179 242
106 179 243
109 179 243
111 179 244
114 178 244
116 178 244
119 178 245
121 178 245
124 178 245
126 178 245
129 178 245
131 178 245
134 178 245
136 178 245
139 179 244
141 178 244
144 179 244
146 179 243
149 179 243
152 179 242
154 180 241
157 180 241
160 180 240
162 181 239
165 181 237
168 181 236
171 182 235
174 182 233
178 183 231
181 184 229
185 185 226
189 187 223
194 188 219
199 190 214
203 194 208
175 204 250
171 205 253
171 205 253
172 205 253
172 205 253
172 205 253
172 205 253
172 206 253
172 206 253
172 206 253
173 206 253
173 206 253
173 206 253
173 206 253
173 206 253
173 206 253
173 206 253
174 206 253
174 206 253
174 207 253
174 207 253
174 207 253
174 207 253
174 207 253
175 207 253
175 207 253
175 207 253
175 207 253
175 207 253
175 207 253
175 207 253
176 208 253
176 208 253
176 208 253
176 208 253
176 208 253
176 208 253
176 208 253
176 208 253
177 208 253
177 208 253
177 208 253
177 208 253
177 208 253
177 209 253
177 209 253
177 209 253
178 209 253
178 209 253
178 209 253
178 209 253
178 209 253
178 209 253
178 209 253
178 209 253
178 209 253
179 209 253
179 209 253
179 209 253
179 209 253
179 210 253
179 210 253
179 210 253
179 210 253
179 210 253
179 210 253
179 210 253
180 210 253
180 210 253
180 210 253
180 210 253
180 210 253
180 210 253
180 210 253
180 210 253
181 211 253
181 211 253
181 211 253
180 210 253
180 210 253
180 210 253
180 210 253
180 210 253
180 210 253
180 210 253
180 210 253
180 210 253
180 210 253
180 210 253
180 210 253
179 210 253
179 210 253
179 210 253
179 210 253
179 210 253
179 210 253
179 209 253
179 209 253
179 209 253
179 209 253
178 209 253
178 209 253
178 209 253
178 209 253
178 209 253
178 209 253
178 209 253
178 209 253
178 209 253
177 209 253
177 209 253
177 208 253
177 208 253
177 208 253
177 208 253
177 208 253
176 208 253
176 208 253
176 208 253
176 208 253
176 208 253
176 208 253
176 208 253
176 208 253
175 207 253
175 207 253
175 207 253
175 207 253
175 207 253
175 207 253
175 207 253
174 207 253
174 207 253
174 207 253
174 207 253
174 207 253
174 206 253
174 206 253
174 206 253
173 206 253
173 206 253
173 206 253
173 206 253
173 206 253
173 206 253
173 206 253
173 206 253
172 206 253
171 205 253
73 193 215
52 187 212
58 185 219
63 184 222
67 183 226
71 181 229
75 180 231
78 180 233
81 179 235
84 179 237
87 178 238
90 178 239
93 177 240
96 177 241
98 177 242
101 177 243
104 176 243
106 176 244
109 176 245
111 176 245
114 176 245
116 176 246
119 175 246
121 175 246
124 175 246
126 175 246
129 175 246
131 175 246
134 175 246
136 175 246
139 175 246
141 176 245
144 176 245
146 176 244
149 176 244
151 176 243
154 177 243
157 177 242
159 177 241
162 178 240
165 178 239
168 178 238
171 179 237
174 179 235
177 180 233
181 181 231
184 181 229
188 182 226
192 183 223
197 185 218
202 187 212
201 194 215
173 205 253
172 206 253
173 206 253
173 206 253
173 206 253
173 206 253
173 206 253
173 206 253
173 206 253
173 206 253
174 206 253
174 206 253
174 207 253
174 207 253
174 207 253
174 207 253
174 207 253
175 207 253
175 207 253
175 207 253
175 207 253
175 207 253
175 207 253
175 207 253
176 208 253
176 208 253
176 208 253
176 208 253
176 208 253
176 208 253
176 208 253
176 208 253
177 208 253
177 208 253
177 208 253
177 208 253
177 208 253
177 208 253
177 209 253
177 209 253
178 209 253
178 209 253
178 209 253
178 209 253
178 209 253
178 209 253
178 209 253
178 209 253
178 209 253
178 209 253
179 209 253
179 209 253
179 209 253
179 210 253
179 210 253
179 210 253
179 210 253
179 210 253
179 210 253
180 210 253
180 210 253
180 210 253
180 210 253
180 210 253
180 210 253
180 210 253
180 210 253
180 210 253
180 210 253
180 210 253
181 211 253
181 211 253
181 211 253
181 211 253
181 211 253
181 211 253
181 211 253
181 211 253
181 211 253
181 211 253
181 211 253
181 211 253
181 211 253
180 210 253
180 210 253
180 210 253
180 210 253
180 210 253
180 210 253
180 210 253
180 210 253
180 210 253
180 210 253
180 210 253
180 210 253
179 210 253
179 210 253
179 210 253
179 210 253
179 210 253
179 210 253
179 210 253
179 209 253
179 209 253
178 209 253
178 209 253
178 209 253
178 209 253
178 209 253
178 209 253
178 209 253
178 209 253
178 209 253
178 209 253
177 209 253
177 209 253
177 208 253
177 208 253
177 208 253
177 208 253
177 208 253
177 208 253
176 208 253
176 208 253
176 208 253
176 208 253
176 208 253
176 208 253
176 208 253
175 207 253
175 207 253
175 207 253
175 207 253
175 207 253
175 207 253
175 207 253
175 207 253
174 207 253
174 207 253
174 207 253
174 207 253
174 207 253
174 206 253
174 206 253
174 206 253
173 206 253
173 206 253
101 196 226
49 184 211
55 182 217
60 181 222
64 180 226
68 178 229
72 178 231
75 177 233
78 177 235
81 176 237
85 175 238
88 175 239
90 175 241
93 174 242
96 174 242
99 174 243
101 174 244
104 173 245
107 173 245
109 173 246
112 173 246
114 173 247
116 173 247
119 173 247
122 172 247
124 173 247
126 173 247
129 172 247
131 173 247
134 173 247
136 173 247
138 173 247
141 173 246
144 173 246
146 173 246
148 173 245
151 173 245
154 174 244
156 174 243
159 174 243
162 174 242
165 175 241
167 175 239
170 176 238
173 176 237
177 177 235
180 177 233
183 178 231
187 179 229
191 180 226
195 181 222
200 182 217
206 185 211
197 195 223
173 206 253
173 206 253
174 206 253
174 206 253
174 206 253
174 207 253
174 207 253
174 207 253
174 207 253
174 207 253
175 207 253
175 207 253
175 207 253
175 207 253
175 207 253
175 207 253
175 207 253
175 207 253
176 208 253
176 208 253
176 208 253
176 208 253
176 208 253
176 208 253
176 208 253
176 208 253
177 208 253
177 208 253
177 208 253
177 208 253
177 208 253
177 209 253
177 209 253
178 209 253
178 209 253
178 209 253
178 209 253
178 209 253
178 209 253
178 209 253
178 209 253
178 209 253
179 209 253
179 209 253
179 209 253
179 210 253
179 210 253
179 210 253
179 210 253
179 210 253
179 210 253
179 210 253
180 210 253
180 210 253
180 210 253
180 210 253
180 210 253
180 210 253
180 210 253
180 210 253
180 210 253
180 210 253
180 210 253
181 211 253
181 211 253
181 211 253
181 211 253
181 211 253
181 211 253
181 211 253
181 211 253
181 211 253
181 211 253
182 211 253
182 211 253
182 211 253
182 211 253
182 211 253
181 211 253
181 211 253
181 211 253
181 211 253
181 211 253
181 211 253
181 211 253
181 211 253
181 211 253
181 211 253
181 211 253
181 211 253
180 210 253
180 210 253
180 210 253
180 210 253
180 210 253
180 210 253
180 210 253
180 210 253
180 210 253
180 210 253
179 210 253
179 210 253
179 210 253
179 210 253
179 210 253
179 210 253
179 210 253
179 209 253
179 209 253
179 209 253
178 209 253
178 209 253
178 209 253
178 209 253
178 209 253
178 209 253
178 209 253
178 209 253
178 209 253
177 209 253
177 209 253
177 209 253
177 208 253
177 208 253
177 208 253
177 208 253
177 208 253
176 208 253
176 208 253
176 208 253
176 208 253
176 208 253
176 208 253
176 208 253
176 208 253
175 207 253
175 207 253
175 207 253
175 207 253
175 207 253
175 207 253
175 207 253
175 207 253
174 207 253
174 207 253
154 203 247
47 183 208
51 180 216
56 178 221
61 177 225
65 176 228
69 175 231
72 174 233
76 174 235
79 173 237
82 173 238
85 172 240
88 172 241
91 172 242
94 172 243
96 171 244
99 171 244
102 171 245
104 171 246
107 171 246
109 170 247
112 170 247
114 170 247
117 170 248
119 170 248
122 170 248
124 170 248
126 170 248
129 170 248
131 170 248
134 170 248
136 170 248
138 170 248
141 170 247
143 170 247
146 170 247
148 170 246
151 170 246
153 171 245
156 171 244
159 171 244
161 171 243
164 172 242
167 172 241
170 172 240
173 173 238
176 173 237
179 174 235
183 175 233
186 175 231
190 176 228
194 177 225
199 178 221
204 180 216
211 183 207
183 202 244
174 207 253
175 207 253
175 207 253
175 207 253
175 207 253
175 207 253
175 207 253
175 207 253
175 207 253
175 207 253
176 208 253
176 208 253
176 208 253
176 208 253
176 208 253
176 208 253
176 208 253
176 208 253
177 208 253
177 208 253
177 208 253
177 208 253
177 208 253
177 208 253
177 209 253
177 209 253
178 209 253
178 209 253
178 209 253
178 209 253
178 209 253
178 209 253
178 209 253
178 209 253
178 209 253
179 209 253
179 209 253
179 209 253
179 210 253
179 210 253
179 210 253
179 210 253
179 210 253
179 210 253
180 210 253
180 210 253
180 210 253
180 210 253
180 210 253
180 210 253
180 210 253
180 210 253
180 210 253
180 210 253
180 210 253
181 211 253
181 211 253
181 211 253
181 211 253
181 211 253
181 211 253
181 211 253
181 211 253
181 211 253
181 211 253
181 211 253
181 211 253
182 211 253
182 211 253
182 211 253
182 211 253
182 211 253
182 212 253
182 212 253
182 212 253
182 212 253
182 211 253
182 211 253
182 211 253
182 211 253
182 211 253
182 211 253
182 211 253
182 211 253
181 211 253
181 211 253
181 211 253
181 211 253
181 211 253
181 211 253
181 211 253
181 211 253
181 211 253
181 211 253
181 211 253
181 211 253
180 210 253
180 210 253
180 210 253
180 210 253
180 210 253
180 210 253
180 210 253
180 210 253
180 210 253
180 210 253
179 210 253
179 210 253
179 210 253
179 210 253
179 210 253
179 210 253
179 210 253
179 209 253
179 209 253
179 209 253
178 209 253
178 209 253
178 209 253
178 209 253
178 209 253
178 209 253
178 209 253
178 209 253
177 209 253
177 209 253
177 209 253
177 208 253
177 208 253
177 208 253
177 208 253
177 208 253
177 208 253
176 208 253
176 208 253
176 208 253
176 208 253
176 208 253
176 208 253
176 208 253
176 208 253
175 207 253
175 207 253
172 207 253
70 186 216
47 178 214
53 176 219
58 175 224
62 174 227
66 173 230
69 172 233
73 171 235
76 171 237
79 170 238
83 170 240
86 170 241
88 169 242
91 169 243
94 169 244
97 168 245
99 168 246
102 168 246
104 168 247
107 168 247
109 168 248
112 167 248
114 167 248
117 167 249
119 167 249
121 167 249
124 167 249
126 167 249
129 167 249
131 167 249
134 167 249
136 167 249
138 167 249
141 167 248
143 167 248
146 167 248
148 168 247
151 168 247
153 168 246
156 168 246
159 168 245
161 169 244
164 169 243
167 169 242
170 170 241
172 170 240
175 170 238
179 171 237
182 171 235
186 172 233
189 173 230
193 174 227
197 175 224
202 176 220
208 178 213
205 187 217
176 207 253
175 207 253
175 207 253
176 208 253
176 208 253
176 208 253
176 208 253
176 208 253
176 208 253
176 208 253
176 208 253
177 208 253
177 208 253
177 208 253
177 208 253
177 208 253
177 208 253
177 209 253
177 209 253
177 209 253
178 209 253
178 209 253
178 209 253
178 209 253
178 209 253
178 209 253
178 209 253
178 209 253
178 209 253
179 209 253
179 209 253
179 209 253
179 210 253
179 210 253
179 210 253
179 210 253
179 210 253
179 210 253
180 210 253
180 210 253
180 210 253
180 210 253
180 210 253
180 210 253
180 210 253
180 210 253
180 210 253
180 210 253
181 211 253
181 211 253
181 211 253
181 211 253
181 211 253
181 211 253
181 211 253
181 211 253
181 211 253
181 211 253
181 211 253
181 211 253
182 211 253
182 211 253
182 211 253
182 211 253
182 211 253
182 211 253
182 211 253
182 211 253
182 211 253
182 212 253
182 212 253
182 212 253
183 212 253
183 212 253
183 212 253
183 212 253
183 212 253
183 212 253
182 212 253
182 212 253
182 212 253
182 212 253
182 212 253
182 211 253
182 211 253
182 211 253
182 211 253
182 211 253
182 211 253
182 211 253
182 211 253
182 211 253
181 211 253
181 211 253
181 211 253
181 211 253
181 211 253
181 211 253
181 211 253
181 211 253
181 211 253
181 211 253
181 211 253
180 210 253
180 210 253
180 210 253
180 210 253
180 210 253
180 210 253
180 210 253
180 210 253
180 210 253
180 210 253
179 210 253
179 210 253
179 210 253
179 210 253
179 210 253
179 210 253
179 209 253
179 209 253
179 209 253
179 209 253
178 209 253
178 209 253
178 209 253
178 209 253
178 209 253
178 209 253
178 209 253
178 209 253
177 209 253
177 209 253
177 209 253
177 209 253
177 208 253
177 208 253
177 208 253
177 208 253
177 208 253
177 208 253
176 208 253
176 208 253
127 197 237
42 175 210
49 174 217
54 172 222
59 171 226
63 170 229
67 169 232
70 169 234
74 168 236
77 168 238
80 167 239
83 167 241
86 167 242
89 166 243
92 166 244
94 166 245
97 166 246
99 165 247
102 165 247
104 165 248
107 165 248
109 165 249
112 165 249
114 165 249
117 165 250
119 165 250
121 164 250
124 164 250
126 164 250
129 164 250
131 164 250
134 165 250
136 164 250
138 165 250
141 165 249
143 165 249
146 165 249
148 165 248
151 165 248
153 165 247
156 166 246
158 166 246
161 166 245
164 166 244
167 166 243
169 167 242
172 167 241
175 168 239
178 168 238
181 168 236
185 169 234
189 169 232
192 170 230
196 171 226
201 172 222
206 173 217
213 175 210
192 197 235
176 208 253
176 208 253
176 208 253
177 208 253
177 208 253
177 208 253
177 208 253
177 208 253
177 208 253
177 209 253
177 209 253
177 209 253
178 209 253
178 209 253
178 209 253
178 209 253
178 209 253
178 209 253
178 209 253
178 209 253
179 209 253
179 209 253
179 209 253
179 210 253
179 210 253
179 210 253
179 210 253
179 210 253
179 210 253
180 210 253
180 210 253
180 210 253
180 210 253
180 210 253
180 210 253
180 210 253
180 210 253
180 210 253
180 210 253
180 210 253
181 211 253
181 211 253
181 211 253
181 211 253
181 211 253
181 211 253
181 211 253
181 211 253
181 211 253
181 211 253
181 211 253
181 211 253
182 211 253
182 211 253
182 211 253
182 211 253
182 211 253
182 211 253
182 211 253
182 211 253
182 212 253
182 212 253
182 212 253
182 212 253
182 212 253
183 212 253
183 212 253
183 212 253
183 212 253
183 212 253
183 212 253
183 212 253
183 212 253
183 212 253
183 212 253
183 212 253
183 212 253
183 212 253
183 212 253
183 212 253
183 212 253
183 212 253
183 212 253
183 212 253
183 212 253
183 212 253
182 212 253
182 212 253
182 212 253
182 212 253
182 211 253
182 211 253
182 211 253
182 211 253
182 211 253
182 211 253
182 211 253
182 211 253
181 211 253
181 211 253
181 211 253
181 211 253
181 211 253
181 211 253
181 211 253
181 211 253
181 211 253
181 211 253
181 211 253
181 211 253
180 210 253
180 210 253
180 210 253
180 210 253
180 210 253
180 210 253
180 210 253
180 210 253
180 210 253
179 210 253
179 210 253
179 210 253
179 210 253
179 210 253
179 210 253
179 210 253
179 209 253
179 209 253
179 209 253
178 209 253
178 209 253
178 209 253
178 209 253
178 209 253
178 209 253
178 209 253
178 209 253
178 209 253
178 209 253
177 209 253
177 209 253
171 207 253
56 178 212
45 171 215
50 170 220
55 168 225
60 168 228
63 167 231
67 166 234
71 166 236
74 165 237
77 165 239
80 164 241
83 164 242
86 164 243
89 164 244
92 163 245
94 163 246
97 163 247
100 163 247
102 163 248
105 162 249
107 162 249
109 162 249
112 162 250
114 162 250
117 162 250
119 162 250
122 162 251
124 162 251
126 162 251
129 162 251
131 162 251
133 162 251
136 162 250
138 162 250
141 162 250
143 162 250
145 162 249
148 162 249
150 162 249
153 163 248
155 163 247
158 163 247
161 163 246
163 163 245
166 164 244
169 164 243
172 164 242
175 164 241
178 165 239
181 165 238
184 166 236
188 166 234
192 167 231
195 168 228
200 169 225
205 170 220
211 171 214
214 177 210
178 208 253
177 209 253
177 209 253
178 209 253
178 209 253
178 209 253
178 209 253
178 209 253
178 209 253
178 209 253
178 209 253
178 209 253
178 209 253
179 209 253
179 209 253
179 209 253
179 210 253
179 210 253
179 210 253
179 210 253
179 210 253
179 210 253
180 210 253
180 210 253
180 210 253
180 210 253
180 210 253
180 210 253
180 210 253
180 210 253
180 210 253
180 210 253
181 211 253
181 211 253
181 211 253
181 211 253
181 211 253
181 211 253
181 211 253
181 211 253
181 211 253
181 211 253
181 211 253
182 211 253
182 211 253
182 211 253
182 211 253
182 211 253
182 211 253
182 211 253
182 211 253
182 212 253
182 212 253
182 212 253
182 212 253
182 212 253
183 212 253
183 212 253
183 212 253
183 212 253
183 212 253
183 212 253
183 212 253
183 212 253
183 212 253
183 212 253
183 212 253
183 212 253
183 212 253
183 212 253
183 212 253
184 213 253
184 213 253
184 213 253
184 212 253
184 212 253
184 212 253
184 212 253
184 212 253
184 212 253
183 212 253
183 212 253
183 212 253
183 212 253
183 212 253
183 212 253
183 212 253
183 212 253
183 212 253
183 212 253
183 212 253
183 212 253
183 212 253
183 212 253
182 212 253
182 212 253
182 212 253
182 212 253
182 212 253
182 211 253
182 211 253
182 211 253
182 211 253
182 211 253
182 211 253
182 211 253
182 211 253
181 211 253
181 211 253
181 211 253
181 211 253
181 211 253
181 211 253
181 211 253
181 211 253
181 211 253
181 211 253
181 211 253
180 210 253
180 210 253
180 210 253
180 210 253
180 210 253
180 210 253
180 210 253
180 210 253
180 210 253
180 210 253
179 210 253
179 210 253
179 210 253
179 210 253
179 210 253
179 210 253
179 210 253
179 209 253
179 209 253
179 209 253
178 209 253
178 209 253
178 209 253
127 196 236
39 169 210
46 167 218
52 166 223
56 165 227
60 164 230
64 164 233
68 164 235
71 163 237
74 163 238
78 162 240
81 162 242
84 161 243
87 161 244
89 161 245
92 161 246
95 160 247
97 160 247
100 160 248
102 160 249
105 160 249
107 160 250
110 160 250
112 160 250
114 159 251
117 159 251
119 159 251
122 159 251
124 159 251
126 159 251
129 159 251
131 159 251
134 159 251
136 159 251
138 160 251
141 159 251
143 160 250
145 160 250
148 160 250
150 160 249
153 160 249
155 160 248
158 160 247
160 160 247
163 161 246
166 161 245
169 161 244
172 161 243
174 162 242
177 162 240
181 163 239
184 163 237
187 163 235
191 164 233
195 164 230
199 165 227
203 166 223
209 167 218
216 169 210
198 192 231
178 209 253
178 209 253
179 209 253
179 209 253
179 209 253
179 209 253
179 210 253
179 210 253
179 210 253
179 210 253
179 210 253
179 210 253
179 210 253
180 210 253
180 210 253
180 210 253
180 210 253
180 210 253
180 210 253
180 210 253
180 210 253
180 210 253
180 210 253
180 210 253
181 211 253
181 211 253
181 211 253
181 211 253
181 211 253
181 211 253
181 211 253
181 211 253
181 211 253
181 211 253
182 211 253
182 211 253
182 211 253
182 211 253
182 211 253
182 211 253
182 211 253
182 211 253
182 211 253
182 212 253
182 212 253
182 212 253
182 212 253
183 212 253
183 212 253
183 212 253
183 212 253
183 212 253
183 212 253
183 212 253
183 212 253
183 212 253
183 212 253
183 212 253
183 212 253
183 212 253
183 212 253
183 212 253
184 212 253
184 212 253
184 212 253
184 212 253
184 212 253
184 213 253
184 213 253
184 213 253
185 213 253
184 213 253
184 213 253
184 213 253
184 213 253
184 213 253
184 213 253
184 213 253
184 213 253
184 213 253
184 213 253
184 213 253
184 213 253
184 212 253
184 212 253
184 212 253
184 212 253
184 212 253
183 212 253
183 212 253
183 212 253
183 212 253
183 212 253
183 212 253
183 212 253
183 212 253
183 212 253
183 212 253
183 212 253
183 212 253
183 212 253
183 212 253
182 212 253
182 212 253
182 212 253
182 212 253
182 211 253
182 211 253
182 211 253
182 211 253
182 211 253
182 211 253
182 211 253
182 211 253
181 211 253
181 211 253
181 211 253
181 211 253
181 211 253
181 211 253
181 211 253
181 211 253
181 211 253
181 211 253
181 211 253
180 210 253
180 210 253
180 210 253
180 210 253
180 210 253
180 210 253
180 210 253
180 210 253
180 210 253
180 210 253
180 210 253
179 210 253
179 210 253
179 210 253
179 210 253
63 176 215
41 165 214
48 164 221
52 163 225
57 162 228
61 161 231
65 161 234
68 161 236
71 160 238
75 160 240
78 159 241
81 159 242
84 159 244
87 158 245
89 158 246
92 158 247
95 158 247
97 158 248
100 157 249
102 157 249
105 157 250
107 157 250
110 157 251
112 157 251
115 157 251
117 157 252
119 157 252
122 157 252
124 157 252
126 157 252
129 157 252
131 157 252
133 157 252
136 157 252
138 157 252
140 157 251
143 157 251
145 157 251
148 157 250
150 157 250
153 157 249
155 158 249
158 158 248
160 158 247
163 158 247
166 158 246
168 159 245
171 159 244
174 159 243
177 159 241
180 160 240
183 160 238
187 160 236
190 161 234
194 162 231
198 162 228
203 163 225
208 164 220
213 165 214
212 177 217
179 210 253
179 210 253
179 210 253
179 210 253
180 210 253
180 210 253
180 210 253
180 210 253
180 210 253
180 210 253
180 210 253
180 210 253
180 210 253
180 210 253
180 210 253
181 211 253
181 211 253
181 211 253
181 211 253
181 211 253
181 211 253
181 211 253
181 211 253
181 211 253
181 211 253
181 211 253
182 211 253
182 211 253
182 211 253
182 211 253
182 211 253
182 211 253
182 211 253
182 211 253
182 212 253
182 212 253
182 212 253
182 212 253
183 212 253
183 212 253
183 212 253
183 212 253
183 212 253
183 212 253
183 212 253
183 212 253
183 212 253
183 212 253
183 212 253
183 212 253
183 212 253
183 212 253
184 212 253
184 212 253
184 212 253
184 212 253
184 212 253
184 213 253
184 213 253
184 213 253
184 213 253
184 213 253
184 213 253
184 213 253
184 213 253
184 213 253
184 213 253
184 213 253
184 213 253
185 213 253
185 213 253
185 213 253
185 213 253
185 213 253
185 213 253
185 213 253
185 213 253
185 213 253
185 213 253
185 213 253
185 213 253
184 213 253
184 213 253
184 213 253
184 213 253
184 213 253
184 213 253
184 213 253
184 213 253
184 213 253
184 213 253
184 213 253
184 213 253
184 212 253
184 212 253
184 212 253
184 212 253
184 212 253
183 212 253
183 212 253
183 212 253
183 212 253
183 212 253
183 212 253
183 212 253
183 212 253
183 212 253
183 212 253
183 212 253
183 212 253
183 212 253
183 212 253
182 212 253
182 212 253
182 212 253
182 212 253
182 211 253
182 211 253
182 211 253
182 211 253
182 211 253
182 211 253
182 211 253
182 211 253
181 211 253
181 211 253
181 211 253
181 211 253
181 211 253
181 211 253
181 211 253
181 211 253
181 211 253
181 211 253
181 211 253
180 210 253
180 210 253
180 210 253
180 210 253
153 202 246
34 164 207
43 162 217
49 161 223
53 160 227
58 159 230
61 159 233
65 158 235
69 158 237
72 157 239
75 157 241
78 156 242
81 156 243
84 156 244
87 156 246
90 156 246
92 155 247
95 155 248
98 155 249
100 155 249
102 155 250
105 155 251
107 155 251
110 155 251
112 155 252
115 154 252
117 154 252
119 155 252
122 154 253
124 154 253
126 154 253
129 154 253
131 154 253
133 154 252
136 154 252
138 154 252
140 155 252
143 154 252
145 155 251
148 155 251
150 155 251
152 155 250
155 155 249
157 155 249
160 155 248
163 155 247
166 156 246
168 156 246
171 156 244
174 156 243
177 157 242
180 157 241
183 157 239
186 157 237
190 158 235
193 158 233
197 159 230
202 160 227
207 161 223
212 162 217
220 163 209
190 201 244
180 210 253
180 210 253
180 210 253
181 211 253
181 211 253
181 211 253
181 211 253
181 211 253
181 211 253
181 211 253
181 211 253
181 211 253
181 211 253
181 211 253
181 211 253
181 211 253
182 211 253
182 211 253
182 211 253
182 211 253
182 211 253
182 211 253
182 211 253
182 212 253
182 212 253
182 212 253
182 212 253
182 212 253
183 212 253
183 212 253
183 212 253
183 212 253
183 212 253
183 212 253
183 212 253
183 212 253
183 212 253
183 212 253
183 212 253
183 212 253
183 212 253
184 212 253
184 212 253
184 212 253
184 212 253
184 212 253
184 213 253
184 213 253
184 213 253
184 213 253
184 213 253
184 213 253
184 213 253
184 213 253
184 213 253
184 213 253
184 213 253
185 213 253
185 213 253
185 213 253
185 213 253
185 213 253
185 213 253
185 213 253
185 213 253
185 213 253
185 213 253
185 213 253
185 213 253
186 214 253
186 214 253
186 214 253
186 214 253
185 213 253
185 213 253
185 213 253
185 213 253
185 213 253
185 213 253
185 213 253
185 213 253
185 213 253
185 213 253
185 213 253
185 213 253
185 213 253
185 213 253
185 213 253
185 213 253
185 213 253
185 213 253
184 213 253
184 213 253
184 213 253
184 213 253
184 213 253
184 213 253
184 213 253
184 213 253
184 213 253
184 213 253
184 213 253
184 212 253
184 212 253
184 212 253
184 212 253
184 212 253
183 212 253
183 212 253
183 212 253
183 212 253
183 212 253
183 212 253
183 212 253
183 212 253
183 212 253
183 212 253
183 212 253
183 212 253
183 212 253
183 212 253
182 212 253
182 212 253
182 212 253
182 212 253
182 211 253
182 211 253
182 211 253
182 211 253
182 211 253
182 211 253
182 211 253
182 211 253
182 211 253
181 211 253
181 211 253
181 211 253
181 211 253
79 178 220
38 160 213
44 158 220
49 157 224
54 157 228
58 156 231
62 155 234
66 155 236
69 155 238
72 154 240
76 154 241
78 154 243
81 154 244
84 154 245
87 153 246
90 153 247
92 153 248
95 153 249
98 153 249
100 153 250
102 152 251
105 152 251
107 152 251
110 152 252
112 152 252
115 152 252
117 152 253
119 152 253
122 152 253
124 152 253
126 152 253
129 152 253
131 152 253
133 152 253
136 152 253
138 152 253
140 152 252
143 152 252
145 152 252
148 152 251
150 152 251
152 152 251
155 153 250
157 153 249
160 153 249
163 153 248
165 153 247
168 153 246
171 153 245
174 154 244
176 154 243
180 154 241
183 154 240
186 155 238
189 155 236
193 156 234
197 156 231
201 156 228
206 157 224
211 158 219
218 159 213
202 187 230
181 211 253
181 211 253
181 211 253
181 211 253
182 211 253
182 211 253
182 211 253
182 211 253
182 211 253
182 211 253
182 211 253
182 211 253
182 211 253
182 212 253
182 212 253
182 212 253
182 212 253
182 212 253
183 212 253
183 212 253
183 212 253
183 212 253
183 212 253
183 212 253
183 212 253
183 212 253
183 212 253
183 212 253
183 212 253
183 212 253
184 212 253
184 212 253
184 212 253
184 212 253
184 212 253
184 212 253
184 213 253
184 213 253
184 213 253
184 213 253
184 213 253
184 213 253
184 213 253
184 213 253
184 213 253
184 213 253
185 213 253
185 213 253
185 213 253
185 213 253
185 213 253
185 213 253
185 213 253
185 213 253
185 213 253
185 213 253
185 213 253
185 213 253
185 213 253
185 213 253
185 213 253
185 213 253
185 213 253
185 213 253
185 213 253
186 214 253
186 214 253
186 214 253
186 214 253
186 214 253
186 214 253
186 214 253
186 214 253
186 214 253
186 214 253
186 214 253
186 214 253
186 214 253
186 214 253
186 214 253
186 214 253
186 214 253
186 214 253
186 214 253
186 214 253
185 213 253
185 213 253
185 213 253
185 213 253
185 213 253
185 213 253
185 213 253
185 213 253
185 213 253
185 213 253
185 213 253
185 213 253
185 213 253
185 213 253
185 213 253
185 213 253
185 213 253
185 213 253
185 213 253
184 213 253
184 213 253
184 213 253
184 213 253
184 213 253
184 213 253
184 213 253
184 213 253
184 213 253
184 212 253
184 212 253
184 212 253
184 212 253
184 212 253
183 212 253
183 212 253
183 212 253
183 212 253
183 212 253
183 212 253
183 212 253
183 212 253
183 212 253
183 212 253
183 212 253
183 212 253
183 212 253
183 212 253
183 212 253
182 212 253
182 212 253
182 212 253
182 212 253
181 211 253
46 163 210
39 156 215
45 155 221
50 154 226
55 153 229
59 153 232
62 153 235
66 152 237
69 152 239
73 152 241
76 152 242
79 151 243
82 151 245
85 151 246
87 151 247
90 151 248
93 150 248
95 150 249
98 150 250
100 150 251
103 150 251
105 150 252
107 150 252
110 150 252
112 150 253
115 150 253
117 150 253
119 150 253
122 150 253
124 150 253
126 150 253
129 150 253
131 149 253
133 150 253
136 150 253
138 150 253
140 150 253
143 150 253
145 150 252
147 150 252
150 150 252
152 150 251
155 150 251
157 150 250
160 150 249
162 150 248
165 150 248
168 151 247
171 151 246
173 151 245
176 151 243
179 152 242
182 152 241
186 152 239
189 152 237
192 153 235
196 153 232
200 154 230
205 154 226
210 155 221
216 156 215
219 165 212
182 211 253
182 212 253
182 212 253
182 212 253
182 212 253
183 212 253
183 212 253
183 212 253
183 212 253
183 212 253
183 212 253
183 212 253
183 212 253
183 212 253
183 212 253
183 212 253
183 212 253
183 212 253
183 212 253
184 212 253
184 212 253
184 212 253
184 212 253
184 212 253
184 213 253
184 213 253
184 213 253
184 213 253
184 213 253
184 213 253
184 213 253
184 213 253
184 213 253
184 213 253
184 213 253
185 213 253
185 213 253
185 213 253
185 213 253
185 213 253
185 213 253
185 213 253
185 213 253
185 213 253
185 213 253
185 213 253
185 213 253
185 213 253
185 213 253
185 213 253
185 213 253
185 213 253
186 214 253
186 214 253
186 214 253
186 214 253
186 214 253
186 214 253
186 214 253
186 214 253
186 214 253
186 214 253
186 214 253
186 214 253
186 214 253
186 214 253
186 214 253
186 214 253
186 214 253
187 214 253
187 214 253
187 214 253
187 214 253
187 214 253
187 214 253
187 214 253
187 214 253
186 214 253
186 214 253
186 214 253
186 214 253
186 214 253
186 214 253
186 214 253
186 214 253
186 214 253
186 214 253
186 214 253
186 214 253
186 214 253
186 214 253
186 214 253
186 214 253
186 214 253
186 214 253
186 214 253
186 214 253
186 214 253
185 213 253
185 213 253
185 213 253
185 213 253
185 213 253
185 213 253
185 213 253
185 213 253
185 213 253
185 213 253
185 213 253
185 213 253
185 213 253
185 213 253
185 213 253
185 213 253
185 213 253
184 213 253
184 213 253
184 213 253
184 213 253
184 213 253
184 213 253
184 213 253
184 213 253
184 213 253
184 213 253
184 213 253
184 212 253
184 212 253
184 212 253
184 212 253
184 212 253
183 212 253
183 212 253
183 212 253
183 212 253
183 212 253
183 212 253
148 200 243
33 154 209
40 153 217
46 152 223
50 151 227
55 151 230
59 150 233
63 150 236
66 149 238
70 149 239
73 149 241
76 149 243
79 149 244
82 149 245
85 148 246
87 148 247
90 148 248
93 148 249
95 148 250
98 148 250
100 148 251
103 147 251
105 148 252
108 147 252
110 147 253
112 147 253
115 147 253
117 147 253
119 147 253
122 147 253
124 147 253
126 147 253
129 147 253
131 147 253
133 147 253
136 147 253
138 147 253
140 147 253
143 147 253
145 147 253
147 147 252
150 147 252
152 148 251
155 148 251
157 148 250
160 148 250
162 148 249
165 148 248
168 148 247
170 148 246
173 148 245
176 149 244
179 149 243
182 149 241
185 149 240
189 149 238
192 150 236
196 150 233
200 151 230
204 151 227
209 152 223
215 153 217
223 154 209
191 203 246
183 212 253
183 212 253
183 212 253
183 212 253
183 212 253
183 212 253
184 212 253
184 212 253
184 212 253
184 212 253
184 212 253
184 213 253
184 213 253
184 213 253
184 213 253
184 213 253
184 213 253
184 213 253
184 213 253
184 213 253
184 213 253
185 213 253
185 213 253
185 213 253
185 213 253
185 213 253
185 213 253
185 213 253
185 213 253
185 213 253
185 213 253
185 213 253
185 213 253
185 213 253
185 213 253
185 213 253
185 213 253
185 213 253
185 213 253
186 214 253
186 214 253
186 214 253
186 214 253
186 214 253
186 214 253
186 214 253
186 214 253
186 214 253
186 214 253
186 214 253
186 214 253
186 214 253
186 214 253
186 214 253
186 214 253
186 214 253
186 214 253
186 214 253
186 214 253
186 214 253
186 214 253
187 214 253
187 214 253
187 214 253
187 214 253
187 214 253
187 214 253
187 214 253
187 215 253
187 215 253
187 215 253
187 215 253
187 214 253
187 214 253
187 214 253
187 214 253
187 214 253
187 214 253
187 214 253
187 214 253
187 214 253
187 214 253
187 214 253
187 214 253
187 214 253
187 214 253
187 214 253
187 214 253
187 214 253
187 214 253
187 214 253
186 214 253
186 214 253
186 214 253
186 214 253
186 214 253
186 214 253
186 214 253
186 214 253
186 214 253
186 214 253
186 214 253
186 214 253
186 214 253
186 214 253
186 214 253
186 214 253
186 214 253
186 214 253
186 214 253
186 214 253
185 213 253
185 213 253
185 213 253
185 213 253
185 213 253
185 213 253
185 213 253
185 213 253
185 213 253
185 213 253
185 213 253
185 213 253
185 213 253
185 213 253
185 213 253
185 213 253
185 213 253
185 213 253
184 213 253
184 213 253
184 213 253
184 213 253
184 213 253
184 213 253
184 213 253
105 182 228
34 151 212
41 150 219
46 149 224
51 148 228
55 148 231
59 147 234
63 147 236
67 147 238
70 147 240
73 146 242
76 146 243
79 146 244
82 146 246
85 146 247
87 146 248
90 146 249
93 145 249
95 145 250
98 145 251
100 145 251
103 145 252
105 145 252
108 145 253
110 145 253
112 145 253
115 145 253
117 145 253
119 145 253
122 145 253
124 145 253
126 145 253
129 145 253
131 145 253
133 145 253
136 145 253
138 145 253
140 145 253
143 145 253
145 145 253
147 145 253
150 145 252
152 145 252
155 145 251
157 145 251
160 145 250
162 145 249
165 146 249
168 146 248
170 146 247
173 146 246
176 146 245
179 146 243
182 146 242
185 147 240
189 147 238
192 147 236
196 148 234
200 148 231
204 148 228
209 149 224
214 149 219
221 151 211
202 188 234
184 213 253
184 213 253
184 213 253
184 213 253
184 213 253
184 213 253
185 213 253
185 213 253
185 213 253
185 213 253
185 213 253
185 213 253
185 213 253
185 213 253
185 213 253
185 213 253
185 213 253
185 213 253
185 213 253
185 213 253
185 213 253
185 213 253
185 213 253
185 213 253
185 213 253
186 214 253
186 214 253
186 214 253
186 214 253
186 214 253
186 214 253
186 214 253
186 214 253
186 214 253
186 214 253
186 214 253
186 214 253
186 214 253
186 214 253
186 214 253
186 214 253
186 214 253
186 214 253
186 214 253
186 214 253
186 214 253
187 214 253
187 214 253
187 214 253
187 214 253
187 214 253
187 214 253
187 214 253
187 214 253
187 214 253
187 214 253
187 214 253
187 214 253
187 214 253
187 214 253
187 214 253
187 214 253
187 214 253
187 214 253
187 215 253
187 215 253
187 215 253
187 215 253
188 215 253
188 215 253
188 215 253
188 215 253
188 215 253
188 215 253
188 215 253
188 215 253
188 215 253
188 215 253
188 215 253
188 215 253
188 215 253
187 215 253
187 215 253
187 215 253
187 215 253
187 215 253
187 215 253
187 215 253
187 215 253
187 215 253
187 214 253
187 214 253
187 214 253
187 214 253
187 214 253
187 214 253
187 214 253
187 214 253
187 214 253
187 214 253
187 214 253
187 214 253
187 214 253
187 214 253
187 214 253
187 214 253
187 214 253
186 214 253
186 214 253
186 214 253
186 214 253
186 214 253
186 214 253
186 214 253
186 214 253
186 214 253
186 214 253
186 214 253
186 214 253
186 214 253
186 214 253
186 214 253
186 214 253
186 214 253
186 214 253
186 214 253
186 214 253
186 214 253
185 213 253
185 213 253
185 213 253
185 213 253
185 213 253
185 213 253
185 213 253
185 213 253
79 170 221
35 147 214
41 146 220
47 146 225
52 146 229
56 145 232
60 145 235
64 144 237
67 144 239
70 144 241
73 144 242
76 144 244
79 144 245
82 143 246
85 143 247
88 143 248
90 143 249
93 143 250
95 143 250
98 143 251
100 143 252
103 143 252
105 143 253
108 143 253
110 143 253
112 143 253
115 143 253
117 143 253
119 143 253
122 143 253
124 143 253
126 142 253
129 143 253
131 143 253
133 142 253
136 142 253
138 142 253
140 143 253
143 143 253
145 143 253
147 143 253
150 143 253
152 143 252
155 143 252
157 143 251
160 143 250
162 143 250
165 143 249
167 143 248
170 143 247
173 143 246
176 144 245
179 144 244
182 144 242
185 144 241
188 144 239
192 144 237
195 145 235
199 145 232
203 145 229
208 146 225
214 146 220
220 147 214
217 166 217
185 213 253
185 213 253
185 213 253
185 213 253
185 213 253
185 213 253
185 213 253
185 213 253
186 214 253
186 214 253
186 214 253
186 214 253
186 214 253
186 214 253
186 214 253
186 214 253
186 214 253
186 214 253
186 214 253
186 214 253
186 214 253
186 214 253
186 214 253
186 214 253
186 214 253
186 214 253
186 214 253
186 214 253
186 214 253
187 214 253
187 214 253
187 214 253
187 214 253
187 214 253
187 214 253
187 214 253
187 214 253
187 214 253
187 214 253
187 214 253
187 214 253
187 214 253
187 214 253
187 214 253
187 214 253
187 215 253
187 215 253
187 215 253
187 215 253
187 215 253
187 215 253
187 215 253
187 215 253
187 215 253
187 215 253
187 215 253
188 215 253
188 215 253
188 215 253
188 215 253
188 215 253
188 215 253
188 215 253
188 215 253
188 215 253
188 215 253
188 215 253
188 215 253
188 215 253
188 215 253
188 215 253
188 215 253
188 215 253
188 215 253
188 215 253
188 215 253
188 215 253
188 215 253
188 215 253
188 215 253
188 215 253
188 215 253
188 215 253
188 215 253
188 215 253
188 215 253
188 215 253
188 215 253
188 215 253
188 215 253
188 215 253
188 215 253
188 215 253
188 215 253
188 215 253
188 215 253
188 215 253
188 215 253
188 215 253
187 215 253
188 215 253
187 215 253
187 215 253
187 215 253
187 215 253
187 215 253
187 215 253
187 215 253
187 215 253
187 214 253
187 214 253
187 214 253
187 214 253
187 214 253
187 214 253
187 214 253
187 214 253
187 214 253
187 214 253
187 214 253
187 214 253
187 214 253
187 214 253
187 214 253
187 214 253
187 214 253
186 214 253
186 214 253
186 214 253
186 214 253
186 214 253
186 214 253
186 214 253
186 214 253
186 214 253
186 214 253
50 155 212
36 144 215
42 143 222
47 143 226
52 143 230
56 142 233
60 142 235
64 142 238
67 142 239
70 141 241
73 141 243
77 141 244
79 141 245
82 141 246
85 141 247
88 141 248
90 141 249
93 141 250
96 141 251
98 140 251
101 140 252
103 140 252
105 140 253
108 140 253
110 140 253
112 140 253
115 140 253
117 140 253
119 140 253
122 140 253
124 140 253
126 140 253
129 140 253
131 140 253
133 140 253
136 140 253
138 140 253
140 140 253
143 140 253
145 140 253
147 140 253
150 140 253
152 140 252
154 140 252
157 141 251
159 141 251
162 141 250
165 141 249
167 141 248
170 141 247
173 141 246
176 141 245
179 141 244
182 141 243
185 142 241
188 142 239
191 142 237
195 142 235
199 142 233
203 143 230
208 143 226
213 143 221
219 144 215
223 153 211
186 214 253
186 214 253
186 214 253
186 214 253
186 214 253
186 214 253
186 214 253
186 214 253
186 214 253
186 214 253
187 214 253
187 214 253
187 214 253
187 214 253
187 214 253
187 214 253
187 214 253
187 214 253
187 214 253
187 214 253
187 214 253
187 214 253
187 214 253
187 214 253
187 214 253
187 214 253
187 214 253
187 215 253
187 215 253
187 215 253
187 215 253
187 215 253
187 215 253
187 215 253
187 215 253
188 215 253
188 215 253
188 215 253
188 215 253
188 215 253
188 215 253
188 215 253
188 215 253
188 215 253
188 215 253
188 215 253
188 215 253
188 215 253
188 215 253
188 215 253
188 215 253
188 215 253
188 215 253
188 215 253
188 215 253
188 215 253
188 215 253
188 215 253
188 215 253
188 215 253
188 215 253
188 215 253
188 215 253
188 215 253
188 215 253
188 215 253
188 215 253
188 215 253
189 216 253
189 216 253
189 216 253
189 216 253
189 216 253
189 216 253
189 216 253
189 216 253
189 215 253
189 215 253
189 215 253
189 215 253
189 215 253
189 215 253
189 215 253
189 215 253
189 215 253
189 215 253
189 215 253
189 215 253
189 215 253
189 215 253
189 215 253
188 215 253
188 215 253
188 215 253
188 215 253
188 215 253
188 215 253
188 215 253
188 215 253
188 215 253
188 215 253
188 215 253
188 215 253
188 215 253
188 215 253
188 215 253
188 215 253
188 215 253
188 215 253
188 215 253
188 215 253
188 215 253
188 215 253
188 215 253
188 215 253
188 215 253
188 215 253
188 215 253
188 215 253
188 215 253
188 215 253
188 215 253
188 215 253
187 215 253
187 215 253
187 215 253
187 215 253
187 215 253
187 215 253
187 215 253
187 215 253
187 215 253
187 214 253
187 215 253
187 214 253
182 212 253
33 144 208
37 141 217
43 141 222
48 140 227
52 140 230
56 140 233
60 139 236
64 139 238
67 139 240
71 139 242
74 139 243
77 139 244
80 139 246
82 138 247
85 138 248
88 138 249
90 138 250
93 138 250
96 138 251
98 138 252
100 138 252
103 138 253
105 138 253
108 138 253
110 138 253
112 138 253
115 138 253
117 138 253
119 138 253
122 138 253
124 138 253
126 138 253
129 138 253
131 138 253
133 138 253
135 138 253
138 138 253
140 138 253
143 138 253
145 138 253
147 138 253
150 138 253
152 138 253
154 138 252
157 138 252
159 138 251
162 138 250
165 138 250
167 138 249
170 138 248
173 139 247
176 139 246
179 139 244
181 139 243
185 139 241
188 139 240
191 139 238
195 139 236
199 140 233
203 140 230
207 140 227
212 140 222
218 141 217
227 142 206
188 214 253
187 214 253
187 215 253
187 214 253
187 215 253
187 215 253
187 215 253
187 215 253
187 215 253
187 215 253
187 215 253
187 215 253
187 215 253
188 215 253
188 215 253
188 215 253
188 215 253
188 215 253
188 215 253
188 215 253
188 215 253
188 215 253
188 215 253
188 215 253
188 215 253
188 215 253
188 215 253
188 215 253
188 215 253
188 215 253
188 215 253
188 215 253
188 215 253
188 215 253
188 215 253
188 215 253
188 215 253
188 215 253
188 215 253
188 215 253
188 215 253
188 215 253
188 215 253
188 215 253
188 215 253
188 215 253
189 215 253
189 215 253
189 215 253
189 215 253
189 215 253
189 215 253
189 215 253
189 215 253
189 215 253
189 215 253
189 215 253
189 215 253
189 215 253
189 215 253
189 216 253
189 216 253
189 216 253
189 216 253
189 216 253
189 216 253
189 216 253
189 216 253
190 216 253
190 216 253
190 216 253
189 216 253
189 216 253
189 216 253
189 216 253
189 216 253
189 216 253
189 216 253
189 216 253
189 216 253
189 216 253
189 216 253
189 216 253
189 216 253
189 216 253
189 216 253
189 216 253
189 216 253
189 216 253
189 216 253
189 216 253
189 216 253
189 216 253
189 216 253
189 216 253
189 216 253
189 216 253
189 216 253
189 216 253
189 216 253
189 216 253
189 216 253
189 216 253
189 216 253
189 216 253
189 215 253
189 215 253
189 215 253
189 215 253
189 215 253
189 215 253
189 215 253
189 215 253
189 215 253
189 215 253
189 215 253
189 215 253
189 215 253
189 215 253
189 215 253
188 215 253
188 215 253
188 215 253
188 215 253
188 215 253
188 215 253
188 215 253
188 215 253
188 215 253
188 215 253
188 215 253
188 215 253
188 215 253
188 215 253
188 215 253
156 201 245
29 138 208
37 138 217
43 137 223
48 137 227
52 137 231
57 137 234
60 137 236
64 136 238
67 136 240
71 136 242
74 136 243
77 136 245
80 136 246
82 136 247
85 136 248
88 136 249
90 136 250
93 136 250
96 136 251
98 136 252
101 136 252
103 136 253
105 136 253
108 136 253
110 136 253
112 136 253
115 136 253
117 136 253
120 136 253
122 136 253
124 136 253
126 136 253
129 136 253
131 136 253
133 135 253
136 136 253
138 136 253
140 135 253
142 136 253
145 136 253
147 136 253
150 136 253
152 136 253
155 136 252
157 136 252
159 136 251
162 136 250
165 136 250
167 136 249
170 136 248
173 136 247
176 136 246
178 136 245
181 136 243
184 136 242
188 136 240
191 137 238
195 137 236
199 137 234
203 137 231
207 137 227
212 138 223
218 138 218
226 138 208
197 200 244
188 215 253
188 215 253
188 215 253
188 215 253
188 215 253
188 215 253
188 215 253
188 215 253
188 215 253
188 215 253
188 215 253
188 215 253
188 215 253
188 215 253
188 215 253
188 215 253
189 215 253
189 215 253
189 215 253
189 215 253
189 215 253
189 215 253
189 215 253
189 215 253
189 215 253
189 215 253
189 215 253
189 215 253
189 215 253
189 215 253
189 216 253
189 216 253
189 216 253
189 216 253
189 216 253
189 216 253
189 216 253
189 216 253
189 216 253
189 216 253
189 216 253
189 216 253
189 216 253
189 216 253
189 216 253
189 216 253
189 216 253
189 216 253
189 216 253
189 216 253
189 216 253
189 216 253
189 216 253
189 216 253
189 216 253
189 216 253
189 216 253
189 216 253
189 216 253
189 216 253
189 216 253
189 216 253
189 216 253
189 216 253
189 216 253
190 216 253
190 216 253
190 216 253
190 216 253
190 216 253
190 216 253
190 216 253
190 216 253
190 216 253
190 216 253
190 216 253
190 216 253
190 216 253
190 216 253
190 216 253
190 216 253
190 216 253
190 216 253
190 216 253
190 216 253
190 216 253
190 216 253
190 216 253
190 216 253
190 216 253
190 216 253
190 216 253
190 216 253
190 216 253
190 216 253
190 216 253
190 216 253
190 216 253
190 216 253
190 216 253
190 216 253
190 216 253
190 216 253
190 216 253
190 216 253
190 216 253
190 216 253
190 216 253
190 216 253
190 216 253
189 216 253
189 216 253
189 216 253
189 216 253
189 216 253
189 216 253
189 216 253
189 216 253
189 216 253
189 216 253
189 216 253
189 216 253
189 216 253
189 216 253
189 216 253
189 216 253
189 216 253
189 216 253
189 216 253
189 216 253
189 216 253
189 216 253
189 216 253
189 216 253
164 204 247
29 135 209
37 135 218
43 135 223
48 134 228
53 134 231
57 134 234
61 134 236
64 134 238
67 134 240
71 134 242
74 134 244
77 134 245
80 134 246
82 134 247
85 133 248
88 134 249
90 133 250
93 133 251
96 133 251
98 133 252
101 133 253
103 133 253
105 133 253
108 133 253
110 133 253
112 133 253
115 133 253
117 133 253
119 133 253
122 133 253
124 133 253
126 133 253
129 133 253
131 133 253
133 133 253
136 133 253
138 133 253
140 133 253
142 133 253
145 133 253
147 133 253
150 133 253
152 133 253
154 133 252
157 133 252
159 133 251
162 133 251
165 133 250
167 133 249
170 134 248
173 133 247
175 134 246
178 134 245
181 134 243
185 134 242
188 134 240
191 134 238
194 134 237
198 134 234
203 134 231
207 134 228
212 135 224
218 135 218
225 135 210
202 193 240
189 216 253
189 216 253
189 216 253
189 216 253
189 216 253
189 216 253
189 216 253
189 216 253
189 216 253
189 216 253
189 216 253
189 216 253
189 216 253
189 216 253
189 216 253
189 216 253
189 216 253
189 216 253
189 216 253
189 216 253
189 216 253
189 216 253
189 216 253
189 216 253
189 216 253
189 216 253
190 216 253
190 216 253
190 216 253
190 216 253
190 216 253
190 216 253
190 216 253
190 216 253
190 216 253
190 216 253
190 216 253
190 216 253
190 216 253
190 216 253
190 216 253
190 216 253
190 216 253
190 216 253
190 216 253
190 216 253
190 216 253
190 216 253
190 216 253
190 216 253
190 216 253
190 216 253
190 216 253
190 216 253
190 216 253
190 216 253
190 216 253
190 216 253
190 216 253
190 216 253
190 216 253
190 216 253
190 216 253
190 216 253
190 216 253
190 216 253
190 216 253
191 217 253
191 217 253
191 217 253
191 217 253
191 217 253
191 217 253
191 217 253
191 217 253
191 217 253
191 217 253
191 217 253
191 217 253
191 217 253
191 217 253
191 217 253
191 217 253
191 217 253
191 217 253
191 217 253
191 217 253
191 217 253
191 217 253
191 217 253
191 217 253
190 216 253
191 216 253
190 216 253
190 216 253
190 216 253
190 216 253
190 216 253
190 216 253
190 216 253
190 216 253
190 216 253
190 216 253
190 216 253
190 216 253
190 216 253
190 216 253
190 216 253
190 216 253
190 216 253
190 216 253
190 216 253
190 216 253
190 216 253
190 216 253
190 216 253
190 216 253
190 216 253
190 216 253
190 216 253
190 216 253
190 216 253
190 216 253
190 216 253
190 216 253
190 216 253
190 216 253
190 216 253
190 216 253
190 216 253
190 216 253
190 216 253
190 216 253
190 216 253
158 200 245
30 132 210
38 132 219
43 132 224
48 132 228
53 132 231
57 132 234
60 132 236
64 131 239
67 131 240
71 131 242
74 131 244
77 131 245
80 131 246
83 131 247
85 131 248
88 131 249
90 131 250
93 131 251
96 131 251
98 131 252
101 131 253
103 131 253
105 131 253
108 131 253
110 131 253
113 131 253
115 131 253
117 131 253
120 131 253
122 131 253
124 131 253
126 131 253
129 131 253
131 131 253
133 131 253
136 131 253
138 131 253
140 131 253
143 131 253
145 131 253
147 131 253
150 131 253
152 131 253
155 131 253
157 131 252
159 131 251
162 131 251
165 131 250
167 131 249
170 131 248
172 131 247
175 131 246
178 131 245
181 131 244
184 131 242
187 131 241
191 131 239
194 131 237
198 132 234
202 132 231
206 132 228
212 132 224
218 132 218
225 132 210
203 190 238
190 216 253
190 216 253
190 216 253
190 216 253
190 216 253
190 216 253
190 216 253
190 216 253
190 216 253
190 216 253
190 216 253
190 216 253
190 216 253
190 216 253
190 216 253
190 216 253
190 216 253
190 216 253
190 216 253
190 216 253
190 216 253
190 216 253
190 216 253
190 216 253
190 216 253
190 216 253
190 216 253
190 216 253
190 216 253
190 216 253
190 216 253
190 216 253
190 216 253
190 216 253
190 216 253
190 216 253
190 216 253
190 216 253
190 216 253
190 216 253
190 216 253
190 216 253
190 216 253
190 216 253
190 216 253
191 217 253
190 216 253
191 217 253
191 217 253
191 217 253
191 217 253
191 217 253
191 217 253
191 217 253
191 217 253
191 217 253
191 217 253
191 217 253
191 217 253
191 217 253
191 217 253
191 217 253
191 217 253
191 217 253
191 217 253
191 217 253
191 217 253
191 217 253
191 217 253
191 217 253
191 217 253
191 217 253
191 217 253
191 217 253
191 217 253
191 217 253
191 217 253
191 217 253
191 217 253
191 217 253
191 217 253
191 217 253
191 217 253
191 217 253
191 217 253
191 217 253
191 217 253
191 217 253
191 217 253
191 217 253
191 217 253
191 217 253
191 217 253
191 217 253
191 217 253
191 217 253
191 217 253
191 217 253
191 217 253
191 217 253
191 217 253
191 217 253
191 217 253
191 217 253
191 217 253
191 217 253
191 217 253
191 217 253
191 217 253
191 217 253
191 217 253
191 217 253
191 217 253
191 217 253
191 217 253
191 217 253
191 217 253
191 217 253
191 217 253
191 217 253
191 217 253
191 217 253
191 217 253
191 217 253
191 217 253
191 217 253
191 217 253
191 217 253
191 217 253
191 217 253
191 217 253
191 217 253
191 217 253
191 217 253
132 186 236
30 129 210
38 129 219
43 129 224
48 129 228
53 129 231
57 129 234
61 129 237
64 129 239
67 129 241
71 129 242
74 129 244
77 129 245
80 129 246
82 129 247
85 129 248
88 129 249
90 129 250
93 129 251
96 129 251
98 129 252
101 129 253
103 129 253
105 129 253
108 129 253
110 129 253
112 129 253
115 129 253
117 129 253
120 129 253
122 129 253
124 129 253
126 129 253
129 129 253
131 129 253
133 129 253
136 129 253
138 129 253
140 129 253
142 129 253
145 129 253
147 129 253
149 129 253
152 129 253
154 129 253
157 129 252
159 129 251
162 129 251
164 129 250
167 129 249
170 129 248
173 129 247
175 129 246
178 129 245
181 129 244
184 129 242
187 129 241
191 129 239
194 129 237
198 129 234
202 129 231
207 129 228
212 129 224
217 129 219
225 129 210
206 186 236
191 217 253
191 217 253
191 217 253
191 217 253
191 217 253
191 217 253
191 217 253
191 217 253
191 217 253
191 217 253
191 217 253
191 217 253
191 217 253
191 217 253
191 217 253
191 217 253
191 217 253
191 217 253
191 217 253
191 217 253
191 217 253
191 217 253
191 217 253
191 217 253
191 217 253
191 217 253
191 217 253
191 217 253
191 217 253
191 217 253
191 217 253
191 217 253
191 217 253
191 217 253
191 217 253
191 217 253
191 217 253
191 217 253
191 217 253
191 217 253
191 217 253
191 217 253
191 217 253
191 217 253
191 217 253
191 217 253
191 217 253
191 217 253
191 217 253
191 217 253
191 217 253
191 217 253
191 217 253
191 217 253
191 217 253
191 217 253
191 217 253
191 217 253
191 217 253
191 217 253
191 217 253
191 217 253
191 217 253
191 217 253
191 217 253
191 217 253
191 217 253
192 217 253
192 217 253
192 217 253
192 217 253
192 217 253
192 217 253
192 217 253
192 217 253
192 217 253
192 217 253
192 217 253
192 217 253
192 217 253
192 217 253
192 217 253
192 217 253
192 217 253
192 217 253
192 217 253
192 217 253
192 217 253
192 217 253
192 217 253
192 217 253
192 217 253
192 217 253
192 217 253
192 217 253
192 217 253
192 217 253
192 217 253
192 217 253
192 217 253
192 217 253
192 217 253
192 217 253
192 217 253
192 217 253
192 217 253
192 217 253
192 217 253
192 217 253
192 217 253
192 217 253
192 217 253
192 217 253
192 217 253
192 217 253
192 217 253
192 217 253
192 217 253
192 217 253
192 217 253
192 217 253
192 217 253
192 217 253
192 217 253
192 217 253
192 217 253
192 217 253
192 217 253
192 217 253
192 217 253
192 217 253
192 217 253
192 217 253
192 217 253
134 186 236
30 126 210
38 126 219
44 126 224
48 126 228
53 126 231
57 126 234
60 126 237
64 126 239
67 126 241
71 126 242
74 126 244
77 126 245
80 126 246
83 126 247
85 126 248
88 126 249
90 126 250
93 126 251
95 126 251
98 126 252
100 126 253
103 126 253
106 126 253
108 126 253
110 126 253
113 126 253
115 126 253
117 126 253
119 126 253
122 126 253
124 126 253
126 126 253
129 126 253
131 126 253
133 126 253
135 126 253
138 126 253
140 126 253
143 126 253
145 126 253
147 126 253
149 126 253
152 126 253
154 126 253
157 126 252
159 126 251
162 126 251
164 126 250
167 126 249
170 126 248
172 126 247
175 126 246
178 126 245
181 126 244
184 126 242
188 126 241
191 126 239
194 126 237
198 126 234
202 126 231
206 126 228
212 126 224
217 126 219
225 126 210
205 187 237
192 217 253
192 217 253
192 217 253
192 217 253
192 217 253
192 217 253
192 217 253
192 217 253
192 217 253
192 217 253
192 217 253
192 217 253
192 217 253
192 217 253
192 217 253
192 217 253
192 217 253
192 217 253
192 217 253
192 217 253
192 217 253
192 217 253
192 217 253
192 217 253
192 217 253
192 217 253
192 217 253
192 217 253
192 217 253
192 217 253
192 217 253
192 217 253
192 217 253
192 217 253
192 217 253
192 217 253
192 217 253
192 217 253
192 217 253
192 217 253
192 217 253
192 217 253
192 217 253
192 217 253
192 217 253
192 217 253
192 217 253
192 217 253
192 217 253
192 217 253
192 217 253
192 217 253
192 217 253
192 217 253
192 217 253
192 217 253
192 217 253
192 217 253
192 217 253
192 217 253
192 217 253
192 217 253
192 217 253
192 217 253
192 217 253
192 217 253
192 217 253
192 218 253
192 218 253
192 218 253
192 218 253
192 218 253
192 218 253
192 218 253
192 218 253
192 218 253
192 218 253
192 218 253
192 218 253
192 218 253
192 218 253
192 218 253
192 218 253
192 218 253
192 218 253
192 218 253
192 218 253
192 218 253
192 218 253
193 218 253
193 218 253
192 218 253
193 218 253
193 218 253
193 218 253
193 218 253
193 218 253
193 218 253
193 218 253
193 218 253
193 218 253
193 218 253
193 218 253
193 218 253
193 218 253
193 218 253
193 218 253
193 218 253
193 218 253
193 218 253
193 218 253
193 218 253
193 218 253
193 218 253
193 218 253
193 218 253
193 218 253
193 218 253
193 218 253
193 218 253
193 218 253
193 218 253
193 218 253
193 218 253
193 218 253
193 218 253
193 218 253
193 218 253
193 218 253
193 218 253
193 218 253
193 218 253
193 218 253
193 218 253
132 184 236
30 123 210
37 123 218
43 123 224
48 123 228
53 123 231
57 124 234
61 124 236
64 124 239
67 124 240
71 124 242
74 124 244
77 124 245
80 124 246
83 124 247
85 124 248
88 124 249
90 124 250
93 124 251
96 124 251
98 124 252
101 124 253
103 124 253
105 124 253
108 124 253
110 124 253
113 124 253
115 124 253
117 124 253
119 124 253
122 124 253
124 124 253
126 124 253
129 124 253
131 124 253
133 124 253
136 124 253
138 124 253
140 124 253
142 124 253
145 124 253
147 124 253
150 124 253
152 124 253
154 124 253
157 124 252
159 124 251
162 124 251
164 124 250
167 124 249
170 124 248
173 124 247
175 124 246
178 124 245
181 124 244
184 124 242
188 124 240
191 124 239
194 124 237
198 123 234
202 123 231
207 123 228
212 123 224
218 123 218
225 123 210
206 187 238
193 218 253
193 218 253
193 218 253
193 218 253
193 218 253
193 218 253
193 218 253
193 218 253
193 218 253
193 218 253
193 218 253
193 218 253
193 218 253
193 218 253
193 218 253
193 218 253
193 218 253
193 218 253
193 218 253
193 218 253
193 218 253
193 218 253
193 218 253
193 218 253
193 218 253
193 218 253
193 218 253
193 218 253
193 218 253
193 218 253
193 218 253
193 218 253
193 218 253
193 218 253
193 218 253
193 218 253
193 218 253
193 218 253
193 218 253
193 218 253
193 218 253
193 218 253
193 218 253
193 218 253
193 218 253
192 218 253
193 218 253
192 218 253
192 218 253
192 218 253
192 218 253
192 218 253
192 218 253
192 218 253
192 218 253
192 218 253
192 218 253
192 218 253
192 218 253
192 218 253
192 218 253
192 218 253
192 218 253
192 218 253
192 218 253
192 218 253
192 218 253
193 218 253
193 218 253
193 218 253
193 218 253
193 218 253
193 218 253
193 218 253
193 218 253
193 218 253
193 218 253
193 218 253
193 218 253
193 218 253
193 218 253
193 218 253
193 218 253
193 218 253
193 218 253
193 218 253
193 218 253
193 218 253
193 218 253
193 218 253
193 218 253
193 218 253
193 218 253
193 218 253
193 218 253
193 218 253
193 218 253
193 218 253
193 218 253
193 218 253
193 218 253
193 218 253
193 218 253
193 218 253
193 218 253
193 218 253
193 218 253
193 218 253
194 218 253
194 218 253
193 218 253
194 218 253
194 218 253
194 218 253
194 218 253
194 218 253
194 218 253
194 218 253
194 218 253
194 218 253
194 218 253
194 218 253
194 218 253
194 218 253
194 218 253
194 218 253
194 218 253
194 218 253
194 219 253
194 218 253
194 219 253
194 219 253
194 219 253
194 219 253
153 195 242
29 120 209
37 120 218
43 120 224
48 120 228
53 121 231
57 121 234
61 121 236
64 121 238
67 121 240
71 121 242
74 121 244
77 121 245
80 121 246
82 121 247
85 121 248
88 122 249
90 122 250
93 122 251
96 122 251
98 122 252
101 122 253
103 122 253
105 122 253
108 122 253
110 122 253
112 122 253
115 122 253
117 122 253
120 122 253
122 122 253
124 122 253
126 122 253
129 122 253
131 122 253
133 122 253
135 122 253
138 122 253
140 122 253
142 122 253
145 122 253
147 122 253
150 122 253
152 122 253
154 122 252
157 122 252
159 122 251
162 121 251
164 121 250
167 121 249
170 121 248
173 121 247
175 121 246
178 121 245
181 121 243
185 121 242
187 121 240
191 121 238
195 121 236
198 121 234
202 121 231
207 120 228
212 120 224
218 120 218
225 120 210
205 191 240
194 219 253
194 219 253
194 219 253
194 219 253
194 219 253
194 218 253
194 219 253
194 218 253
194 218 253
194 218 253
194 218 253
194 218 253
194 218 253
194 218 253
194 218 253
194 218 253
194 218 253
194 218 253
194 218 253
194 218 253
194 218 253
194 218 253
194 218 253
193 218 253
194 218 253
193 218 253
193 218 253
193 218 253
193 218 253
193 218 253
193 218 253
193 218 253
193 218 253
193 218 253
193 218 253
193 218 253
193 218 253
193 218 253
193 218 253
193 218 253
193 218 253
193 218 253
193 218 253
193 218 253
193 218 253
193 218 253
193 218 253
193 218 253
193 218 253
193 218 253
193 218 253
193 218 253
193 218 253
193 218 253
193 218 253
193 218 253
193 218 253
193 218 253
193 218 253
193 218 253
193 218 253
193 218 253
193 218 253
193 218 253
193 218 253
193 218 253
193 218 253
193 218 253
194 218 253
193 218 253
194 218 253
194 218 253
194 218 253
194 218 253
194 218 253
194 218 253
194 218 253
194 218 253
194 218 253
194 218 253
194 218 253
194 218 253
194 218 253
194 218 253
194 218 253
194 218 253
194 218 253
194 218 253
194 218 253
194 218 253
194 219 253
194 219 253
194 219 253
194 219 253
194 219 253
194 219 253
194 219 253
194 219 253
194 219 253
194 219 253
194 219 253
194 219 253
194 219 253
194 219 253
194 219 253
194 219 253
194 219 253
194 219 253
194 219 253
194 219 253
194 219 253
194 219 253
194 219 253
194 219 253
194 219 253
194 219 253
195 219 253
195 219 253
194 219 253
195 219 253
195 219 253
195 219 253
195 219 253
195 219 253
195 219 253
195 219 253
195 219 253
195 219 253
195 219 253
195 219 253
195 219 253
195 219 253
195 219 253
195 219 253
169 204 247
29 116 208
37 117 217
43 117 223
48 118 227
52 118 231
56 118 234
60 118 236
64 118 238
67 119 240
71 119 242
74 119 243
77 119 245
80 119 246
82 119 247
85 119 248
88 119 249
90 119 250
93 119 250
96 119 251
98 119 252
101 119 252
103 119 253
105 119 253
108 120 253
110 119 253
112 119 253
115 120 253
117 119 253
120 119 253
122 119 253
124 120 253
126 119 253
129 119 253
131 119 253
133 120 253
135 119 253
138 119 253
140 119 253
142 119 253
145 120 253
147 119 253
150 119 253
152 119 253
154 119 252
157 119 252
159 119 251
162 119 251
165 119 250
167 119 249
170 119 248
173 119 247
175 119 246
178 119 245
181 119 243
184 119 242
188 119 240
191 118 238
195 118 236
198 118 234
203 118 231
207 118 227
212 117 223
218 117 217
226 117 208
200 206 248
195 219 253
195 219 253
195 219 253
195 219 253
195 219 253
195 219 253
195 219 253
195 219 253
195 219 253
195 219 253
195 219 253
195 219 253
195 219 253
195 219 253
195 219 253
195 219 253
194 219 253
194 219 253
194 219 253
194 219 253
194 219 253
194 219 253
194 219 253
194 219 253
194 219 253
194 219 253
194 219 253
194 219 253
194 219 253
194 219 253
194 219 253
194 219 253
194 219 253
194 219 253
194 219 253
194 219 253
194 219 253
194 219 253
194 219 253
194 219 253
194 219 253
194 219 253
194 219 253
194 219 253
194 219 253
194 218 253
194 218 253
194 218 253
194 218 253
194 218 253
194 218 253
194 218 253
194 218 253
194 218 253
194 218 253
194 218 253
194 218 253
194 218 253
194 218 253
194 218 253
194 218 253
194 218 253
194 218 253
194 218 253
193 218 253
193 218 253
193 218 253
194 219 253
194 219 253
194 219 253
194 219 253
194 219 253
194 219 253
194 219 253
194 219 253
194 219 253
194 219 253
194 219 253
194 219 253
194 219 253
194 219 253
194 219 253
194 219 253
194 219 253
194 219 253
194 219 253
194 219 253
194 219 253
194 219 253
194 219 253
194 219 253
195 219 253
195 219 253
195 219 253
195 219 253
195 219 253
195 219 253
195 219 253
195 219 253
195 219 253
195 219 253
195 219 253
195 219 253
195 219 253
195 219 253
195 219 253
195 219 253
195 219 253
195 219 253
195 219 253
195 219 253
195 219 253
195 219 253
195 219 253
195 219 253
195 219 253
195 219 253
195 219 253
195 219 253
195 219 253
195 219 253
195 219 253
196 220 253
196 220 253
196 220 253
196 220 253
196 220 253
196 220 253
196 220 253
196 220 253
196 220 253
196 220 253
196 220 253
196 220 253
194 219 253
30 114 207
37 114 217
43 115 223
48 115 227
52 115 230
57 115 233
60 116 236
64 116 238
67 116 240
70 116 242
74 116 243
77 116 244
80 116 246
82 117 247
85 116 248
88 117 249
90 117 250
93 117 250
95 117 251
98 117 252
101 117 252
103 117 253
105 117 253
108 117 253
110 117 253
112 117 253
115 117 253
117 117 253
119 117 253
122 117 253
124 117 253
126 117 253
129 117 253
131 117 253
133 117 253
136 117 253
138 117 253
140 117 253
143 117 253
145 117 253
147 117 253
149 117 253
152 117 253
154 117 252
157 117 252
159 117 251
162 117 250
164 117 250
167 117 249
170 117 248
173 117 247
176 116 246
178 116 244
181 116 243
185 116 241
188 116 240
191 116 238
195 116 236
199 116 233
203 115 230
207 115 227
212 115 223
219 114 216
227 114 207
198 214 252
196 220 253
196 220 253
196 220 253
196 220 253
196 220 253
196 220 253
196 220 253
196 220 253
196 220 253
196 220 253
196 220 253
196 220 253
196 220 253
195 219 253
195 219 253
195 219 253
195 219 253
195 219 253
195 219 253
195 219 253
195 219 253
195 219 253
195 219 253
195 219 253
195 219 253
195 219 253
195 219 253
195 219 253
195 219 253
195 219 253
195 219 253
195 219 253
195 219 253
195 219 253
195 219 253
195 219 253
195 219 253
195 219 253
195 219 253
195 219 253
195 219 253
195 219 253
195 219 253
195 219 253
194 219 253
194 219 253
194 219 253
194 219 253
194 219 253
194 219 253
194 219 253
194 219 253
194 219 253
194 219 253
194 219 253
194 219 253
194 219 253
194 219 253
194 219 253
194 219 253
194 219 253
194 219 253
194 219 253
194 219 253
194 219 253
194 219 253
194 219 253
195 219 253
195 219 253
195 219 253
195 219 253
195 219 253
195 219 253
195 219 253
195 219 253
195 219 253
195 219 253
195 219 253
195 219 253
195 219 253
195 219 253
195 219 253
195 219 253
195 219 253
195 219 253
195 219 253
195 219 253
195 219 253
195 219 253
195 219 253
195 219 253
195 219 253
195 219 253
195 219 253
195 219 253
195 219 253
195 219 253
195 219 253
195 219 253
196 220 253
196 220 253
196 220 253
196 220 253
196 220 253
196 220 253
196 220 253
196 220 253
196 220 253
196 220 253
196 220 253
196 220 253
196 220 253
196 220 253
196 220 253
196 220 253
196 220 253
196 220 253
196 220 253
196 220 253
196 220 253
196 220 253
196 220 253
196 220 253
196 220 253
196 220 253
197 220 253
197 220 253
197 220 253
197 220 253
197 220 253
197 220 253
197 220 253
197 220 253
196 221 253
192 222 247
59 133 211
36 111 215
42 112 222
47 112 226
52 112 230
56 113 233
60 113 235
63 113 237
67 113 239
70 113 241
73 114 243
76 114 244
79 114 245
82 114 247
85 114 248
88 114 248
90 114 249
93 114 250
96 114 251
98 114 251
100 114 252
103 115 252
105 115 253
108 115 253
110 115 253
112 115 253
115 115 253
117 115 253
119 115 253
122 115 253
124 115 253
126 115 253
129 115 253
131 115 253
133 115 253
136 115 253
138 115 253
140 115 253
143 115 253
145 115 253
147 115 253
150 115 253
152 115 252
154 115 252
157 114 251
159 114 251
162 115 250
165 114 249
167 114 248
170 114 247
173 114 246
176 114 245
179 114 244
182 114 243
185 114 241
188 113 240
191 113 238
195 113 235
199 113 233
203 112 230
208 112 226
213 112 222
219 111 215
223 126 212
194 222 250
197 220 253
197 220 253
197 220 253
197 220 253
197 220 253
197 220 253
197 220 253
197 220 253
197 220 253
197 220 253
196 220 253
196 220 253
196 220 253
196 220 253
196 220 253
196 220 253
196 220 253
196 220 253
196 220 253
196 220 253
196 220 253
196 220 253
196 220 253
196 220 253
196 220 253
196 220 253
196 220 253
196 220 253
196 220 253
196 220 253
196 220 253
196 220 253
196 220 253
196 220 253
195 219 253
195 219 253
195 219 253
195 219 253
195 219 253
195 219 253
195 219 253
195 219 253
195 219 253
195 219 253
195 219 253
195 219 253
195 219 253
195 219 253
195 219 253
195 219 253
195 219 253
195 219 253
195 219 253
195 219 253
195 219 253
195 219 253
195 219 253
195 219 253
195 219 253
195 219 253
195 219 253
195 219 253
195 219 253
195 219 253
195 219 253
195 219 253
195 219 253
195 219 253
195 219 253
195 219 253
195 219 253
195 219 253
195 219 253
195 219 253
195 219 253
195 219 253
195 219 253
195 219 253
195 219 253
195 219 253
196 220 253
196 220 253
196 220 253
196 220 253
196 220 253
196 220 253
196 220 253
196 220 253
196 220 253
196 220 253
196 220 253
196 220 253
196 220 253
196 220 253
196 220 253
196 220 253
196 220 253
196 220 253
196 220 253
196 220 253
196 220 253
196 220 253
196 220 253
196 220 253
196 220 253
196 220 253
197 220 253
197 220 253
197 220 253
197 220 253
197 220 253
197 220 253
197 220 253
197 220 253
197 220 253
197 220 253
197 220 253
195 221 251
188 225 239
186 226 235
181 228 227
180 228 226
170 233 207
168 234 203
156 239 183
158 239 185
148 243 168
144 245 160
142 246 156
135 249 144
136 249 145
129 252 133
124 253 124
123 253 121
123 253 121
58 156 176
35 108 214
42 109 221
47 109 225
52 110 229
56 110 232
60 110 235
63 110 237
67 111 239
70 111 241
73 111 242
76 111 244
79 111 245
82 111 246
85 112 247
88 112 248
90 112 249
93 112 250
95 112 250
98 112 251
100 112 252
103 112 252
105 112 253
108 112 253
110 112 253
112 112 253
115 112 253
117 112 253
119 112 253
122 113 253
124 113 253
126 112 253
129 113 253
131 112 253
133 113 253
136 113 253
138 113 253
140 113 253
143 112 253
145 112 253
147 112 253
150 112 253
152 112 252
155 112 252
157 112 251
160 112 250
162 112 250
165 112 249
167 112 248
170 112 247
173 111 246
176 111 245
179 111 244
182 111 242
185 111 241
188 111 239
192 111 237
195 110 235
199 110 232
203 109 229
208 109 225
213 109 220
220 108 214
192 163 172
132 253 121
133 253 124
138 252 133
137 252 132
141 251 139
144 249 145
151 245 160
152 245 161
164 239 186
163 239 183
167 237 191
166 238 188
177 232 212
179 231 216
185 227 229
185 227 230
189 225 238
193 223 247
197 220 253
197 220 253
197 220 253
197 220 253
197 220 253
197 220 253
197 220 253
197 220 253
197 220 253
197 220 253
196 220 253
196 220 253
196 220 253
196 220 253
196 220 253
196 220 253
196 220 253
196 220 253
196 220 253
196 220 253
196 220 253
196 220 253
196 220 253
196 220 253
196 220 253
196 220 253
196 220 253
196 220 253
196 220 253
196 220 253
196 220 253
196 220 253
196 220 253
196 220 253
196 220 253
196 220 253
196 220 253
196 220 253
195 219 253
195 219 253
195 219 253
195 219 253
195 219 253
195 219 253
195 219 253
195 219 253
195 219 253
195 219 253
195 219 253
195 219 253
196 220 253
196 220 253
196 220 253
196 220 253
196 220 253
196 220 253
196 220 253
196 220 253
196 220 253
196 220 253
196 220 253
196 220 253
196 220 253
196 220 253
196 220 253
196 220 253
196 220 253
196 220 253
196 220 253
196 220 253
196 220 253
196 220 253
197 220 253
197 220 253
197 220 253
197 220 253
197 220 253
197 220 253
197 220 253
197 220 253
197 220 253
197 220 253
197 220 253
197 220 253
197 220 253
197 220 253
192 223 247
185 226 235
182 227 229
177 230 221
168 234 205
166 234 202
161 237 193
156 239 183
141 246 157
141 246 158
145 244 165
130 251 138
130 251 137
122 253 123
121 253 122
122 253 122
122 253 122
122 253 122
122 253 122
122 253 122
123 253 123
123 253 123
123 253 123
123 253 123
123 253 123
123 253 123
124 253 123
124 253 123
124 253 123
124 253 123
124 253 123
124 253 123
81 188 158
35 105 212
40 105 219
46 106 224
51 107 228
56 107 231
59 107 234
63 108 237
67 108 238
70 108 240
73 109 242
76 109 243
79 109 245
82 109 246
85 109 247
88 109 248
90 109 249
93 110 249
95 110 250
98 110 251
100 110 251
103 110 252
105 110 252
108 110 253
110 110 253
112 110 253
115 110 253
117 110 253
120 110 253
122 110 253
124 110 253
126 110 253
129 110 253
131 110 253
133 110 253
136 110 253
138 110 253
140 110 253
143 110 253
145 110 253
147 110 253
150 110 252
152 110 252
155 110 251
157 110 251
160 110 250
162 110 249
165 109 249
168 109 248
170 109 247
173 109 246
176 109 244
179 109 243
182 109 242
185 108 240
188 108 238
192 108 236
196 108 234
200 107 231
204 107 228
208 106 224
214 105 219
221 104 211
181 178 163
131 253 123
131 253 123
131 253 123
131 253 123
131 253 123
131 253 123
132 253 123
132 253 123
132 253 123
132 253 123
132 253 123
132 253 123
132 253 123
133 253 122
133 253 122
133 253 122
133 253 122
133 253 122
136 253 126
138 253 130
146 249 147
142 251 139
154 244 163
158 242 173
168 236 194
168 237 193
167 237 190
179 231 217
187 226 233
186 227 230
191 224 242
195 222 251
197 220 253
197 220 253
197 220 253
197 220 253
197 220 253
197 220 253
197 220 253
197 220 253
197 220 253
197 220 253
197 220 253
197 220 253
197 220 253
197 220 253
196 220 253
196 220 253
196 220 253
196 220 253
196 220 253
196 220 253
196 220 253
196 220 253
196 220 253
196 220 253
196 220 253
196 220 253
196 220 253
196 220 253
196 220 253
196 220 253
196 220 253
196 220 253
196 220 253
196 220 253
196 220 253
196 220 253
196 220 253
196 220 253
196 220 253
196 220 253
196 220 253
196 220 253
196 220 253
197 220 253
197 220 253
197 220 253
197 220 253
197 220 253
197 220 253
197 220 253
197 220 253
197 220 253
197 220 253
197 220 253
197 220 253
197 220 253
197 220 253
197 220 253
197 221 253
196 221 253
190 224 243
178 229 223
177 230 221
164 235 200
167 234 204
157 239 186
154 240 181
147 243 169
145 244 165
134 249 147
128 252 136
122 253 125
121 253 123
121 253 123
121 253 123
121 253 123
122 253 123
122 253 123
122 253 123
122 253 123
122 253 123
122 253 123
122 253 123
123 253 123
123 253 124
123 253 124
123 253 124
123 253 124
123 253 124
123 253 124
123 253 124
124 253 124
124 253 124
124 253 124
124 253 124
124 253 124
124 253 124
124 253 124
124 253 124
124 253 124
124 253 124
125 253 124
125 253 124
125 253 124
108 229 137
32 101 209
40 102 217
46 103 223
51 104 227
55 104 231
59 105 233
63 105 236
66 105 238
70 106 240
73 106 241
76 106 243
79 106 244
82 107 245
85 107 246
87 107 247
90 107 248
93 107 249
95 107 250
98 107 250
100 107 251
103 107 251
105 108 252
108 108 252
110 108 253
112 108 253
115 108 253
117 108 253
119 108 253
122 108 253
124 108 253
126 108 253
129 108 253
131 108 253
133 108 253
136 108 253
138 108 253
140 108 253
143 108 253
145 108 253
147 108 252
150 108 252
152 107 251
155 107 251
157 107 250
160 107 250
162 107 249
165 107 248
168 107 247
170 107 246
173 107 245
176 106 244
179 106 243
182 106 241
185 106 240
189 105 238
192 105 236
196 105 233
200 104 230
204 104 227
209 103 223
215 102 217
223 101 209
154 218 142
130 253 124
130 253 124
130 253 124
131 253 124
131 253 124
131 253 124
131 253 124
131 253 124
131 253 124
131 253 124
131 253 124
131 253 124
131 253 124
132 253 124
132 253 124
132 253 124
132 253 124
132 253 124
132 253 124
132 253 124
132 253 124
133 253 123
133 253 123
133 253 123
133 253 123
133 253 123
133 253 123
134 253 123
134 253 123
134 253 123
134 253 123
134 253 123
139 253 132
141 252 136
146 249 146
153 245 161
155 244 165
161 241 177
168 237 192
166 238 188
183 229 225
178 232 213
185 227 229
190 225 239
195 222 251
197 221 253
197 220 253
197 220 253
197 220 253
197 220 253
197 220 253
197 220 253
197 220 253
197 220 253
197 220 253
197 220 253
197 220 253
197 220 253
197 220 253
197 220 253
197 220 253
196 220 253
196 220 253
196 220 253
196 220 253
196 220 253
196 220 253
196 220 253
197 220 253
197 220 253
197 220 253
197 220 253
197 220 253
197 220 253
197 220 253
197 220 253
197 220 253
197 221 253
197 221 253
196 221 253
193 223 248
183 227 232
174 231 216
165 235 201
158 238 189
163 236 197
148 242 172
139 247 156
136 248 151
127 252 136
124 253 130
121 253 125
120 253 123
120 253 123
121 253 124
121 253 124
121 253 124
121 253 124
121 253 124
121 253 124
122 253 124
122 253 124
122 253 124
122 253 124
122 253 124
122 253 124
122 253 124
123 253 124
123 253 124
123 253 124
123 253 124
123 253 124
123 253 124
123 253 124
123 253 124
123 253 124
123 253 124
124 253 124
124 253 124
124 253 124
124 253 124
124 253 124
124 253 125
124 253 125
124 253 125
124 253 125
124 253 125
124 253 125
125 253 125
125 253 125
125 253 125
125 253 125
125 253 125
125 253 125
125 253 125
125 253 125
125 253 125
41 115 196
39 99 215
45 100 221
50 101 226
54 101 229
59 102 232
62 102 235
66 103 237
69 103 239
73 103 241
76 104 242
79 104 243
82 104 245
85 104 246
87 104 247
90 104 248
93 105 248
95 105 249
98 105 250
100 105 250
103 105 251
105 105 252
107 105 252
110 105 252
112 105 253
115 105 253
117 105 253
119 106 253
122 105 253
124 105 253
126 106 253
129 105 253
131 105 253
133 105 253
136 105 253
138 105 253
140 105 253
143 105 253
145 105 252
148 105 252
150 105 252
152 105 251
155 105 250
157 105 250
160 105 249
163 105 248
165 104 248
168 104 247
171 104 246
174 104 245
176 104 243
179 103 242
182 103 241
186 103 239
189 103 237
193 102 235
196 102 232
201 101 229
205 101 226
210 100 221
216 99 216
216 111 198
130 253 125
130 253 125
130 253 125
130 253 125
130 253 125
130 253 125
130 253 125
130 253 125
130 253 125
131 253 125
131 253 125
131 253 125
131 253 125
131 253 125
131 253 125
131 253 125
131 253 124
131 253 125
131 253 124
131 253 124
131 253 124
132 253 124
132 253 124
132 253 124
132 253 124
132 253 124
132 253 124
132 253 124
132 253 124
133 253 124
133 253 124
133 253 124
133 253 124
133 253 124
133 253 124
133 253 124
133 253 124
134 253 124
134 253 124
134 253 124
134 253 124
134 253 124
134 253 124
135 253 123
135 253 123
135 253 123
140 253 132
142 252 136
150 247 155
155 244 164
162 241 179
170 236 196
167 238 189
174 234 205
179 231 216
181 230 220
191 224 241
195 222 252
197 221 253
197 220 253
197 220 253
197 220 253
197 220 253
197 220 253
197 220 253
197 220 253
197 220 253
197 220 253
197 220 253
194 222 250
187 225 238
176 230 220
174 231 216
166 234 203
160 237 193
160 237 192
143 244 164
136 248 153
126 252 135
122 253 129
119 253 124
120 253 124
120 253 124
120 253 124
120 253 124
121 253 124
121 253 124
121 253 124
121 253 124
121 253 124
121 253 124
121 253 124
122 253 124
122 253 124
122 253 124
122 253 125
122 253 125
122 253 125
122 253 125
122 253 125
122 253 125
123 253 125
123 253 125
123 253 125
123 253 125
123 253 125
123 253 125
123 253 125
123 253 125
123 253 125
123 253 125
123 253 125
124 253 125
124 253 125
124 253 125
124 253 125
124 253 125
124 253 125
124 253 125
124 253 125
124 253 125
124 253 125
124 253 125
124 253 125
125 253 125
125 253 125
125 253 125
125 253 125
125 253 125
125 253 125
125 253 125
125 253 125
125 253 125
125 253 125
125 253 125
125 253 125
125 253 125
125 253 125
81 180 162
37 96 213
44 97 219
49 98 224
54 98 228
58 99 231
62 99 234
66 100 236
69 100 238
72 101 240
75 101 241
79 101 243
81 101 244
84 102 245
87 102 246
90 102 247
92 102 248
95 102 249
98 102 249
100 103 250
103 103 251
105 103 251
107 103 251
110 103 252
112 103 252
115 103 252
117 103 253
119 103 253
122 103 253
124 103 253
126 103 253
129 103 253
131 103 253
133 103 253
136 103 253
138 103 253
140 103 252
143 103 252
145 103 252
148 103 251
150 103 251
152 103 251
155 103 250
158 102 249
160 102 249
163 102 248
165 102 247
168 102 246
171 102 245
174 101 244
176 101 243
180 101 241
183 100 240
186 100 238
189 100 236
193 100 234
197 99 231
201 98 228
206 98 224
211 97 220
218 96 212
185 162 170
130 253 125
130 253 125
130 253 125
130 253 125
130 253 125
130 253 125
130 253 125
130 253 125
130 253 125
130 253 125
130 253 125
130 253 125
130 253 125
130 253 125
131 253 125
131 253 125
131 253 125
131 253 125
131 253 125
131 253 125
131 253 125
131 253 125
131 253 125
131 253 125
131 253 125
131 253 125
131 253 125
132 253 125
132 253 125
132 253 125
132 253 125
132 253 125
132 253 125
132 253 125
132 253 125
132 253 125
132 253 125
133 253 125
133 253 125
133 253 125
133 253 125
133 253 125
133 253 125
133 253 124
133 253 124
133 253 124
134 253 124
134 253 124
134 253 124
134 253 124
134 253 124
134 253 124
135 253 124
135 253 124
135 253 124
135 253 124
135 253 124
136 253 125
143 251 138
141 252 134
150 247 154
153 245 160
163 240 180
166 238 188
171 235 199
180 231 217
182 230 221
185 228 229
193 223 245
119 253 124
120 253 124
120 253 124
120 253 124
120 253 124
120 253 124
120 253 125
121 253 125
121 253 125
121 253 125
121 253 125
121 253 125
121 253 125
121 253 125
121 253 125
122 253 125
122 253 125
122 253 125
122 253 125
122 253 125
122 253 125
122 253 125
122 253 125
122 253 125
123 253 125
123 253 125
123 253 125
123 253 125
123 253 125
123 253 125
123 253 125
123 253 125
123 253 125
123 253 125
123 253 125
123 253 125
124 253 125
124 253 125
124 253 125
124 253 125
124 253 125
124 253 125
124 253 125
124 253 125
124 253 125
124 253 125
124 253 125
124 253 125
124 253 125
124 253 125
125 253 125
125 253 125
125 253 125
125 253 125
125 253 125
125 253 125
125 253 125
125 253 125
125 253 125
125 253 125
125 253 125
125 253 126
125 253 125
125 253 125
125 253 126
125 253 126
126 253 126
126 253 126
126 253 126
108 226 139
35 92 209
43 93 217
48 94 223
53 95 227
57 96 230
62 97 233
65 97 235
69 97 237
72 98 239
75 98 241
78 98 242
81 99 243
84 99 245
87 99 246
90 99 246
92 100 247
95 100 248
97 100 249
100 100 249
102 100 250
105 100 251
107 100 251
110 100 251
112 100 252
115 100 252
117 101 252
119 101 252
122 101 253
124 101 253
126 101 253
129 101 253
131 101 253
133 100 252
136 101 252
138 101 252
140 101 252
143 101 252
145 100 251
148 100 251
150 100 251
153 100 250
155 100 249
158 100 249
160 100 248
163 100 247
166 99 246
168 99 245
171 99 244
174 99 243
177 99 242
180 98 241
183 98 239
186 97 237
190 97 235
194 97 233
197 96 230
202 95 227
207 95 223
212 93 217
219 92 209
155 212 145
129 253 126
129 253 126
129 253 125
130 253 125
130 253 125
130 253 125
130 253 125
130 253 125
130 253 125
130 253 125
130 253 125
130 253 125
130 253 125
130 253 125
130 253 125
130 253 125
130 253 125
130 253 125
130 253 125
131 253 125
131 253 125
131 253 125
131 253 125
131 253 125
131 253 125
131 253 125
131 253 125
131 253 125
131 253 125
131 253 125
131 253 125
131 253 125
131 253 125
132 253 125
132 253 125
132 253 125
132 253 125
132 253 125
132 253 125
132 253 125
132 253 125
132 253 125
132 253 125
132 253 125
133 253 125
133 253 125
133 253 125
133 253 125
133 253 125
133 253 125
133 253 125
133 253 125
133 253 125
133 253 125
134 253 125
134 253 125
134 253 125
134 253 125
134 253 125
134 253 125
134 253 125
135 253 125
135 253 124
135 253 125
135 253 124
135 253 124
135 253 124
135 253 124
136 253 124
121 253 125
121 253 125
121 253 125
121 253 125
121 253 125
121 253 125
121 253 125
122 253 125
122 253 125
122 253 125
122 253 125
122 253 125
122 253 125
122 253 125
122 253 125
122 253 125
122 253 125
123 253 125
123 253 125
123 253 125
123 253 125
123 253 125
123 253 125
123 253 125
123 253 125
123 253 126
123 253 126
123 253 126
123 253 126
123 253 126
124 253 126
124 253 126
124 253 126
124 253 126
124 253 126
124 253 126
124 253 126
124 253 126
124 253 126
124 253 126
124 253 126
124 253 126
124 253 126
124 253 126
124 253 126
124 253 126
125 253 126
125 253 126
125 253 126
125 253 126
125 253 126
125 253 126
125 253 126
125 253 126
125 253 126
125 253 126
125 253 126
125 253 126
125 253 126
125 253 126
125 253 126
125 253 126
125 253 126
126 253 126
126 253 126
126 253 126
126 253 126
126 253 126
126 253 126
126 253 126
56 128 186
41 90 214
47 91 221
52 92 225
57 93 228
61 94 232
65 94 234
68 95 236
72 95 238
75 95 240
78 96 241
81 96 242
84 96 244
87 97 245
89 97 246
92 97 247
95 97 247
97 97 248
100 98 249
102 98 249
105 98 250
107 98 250
110 98 251
112 98 251
115 98 251
117 98 252
119 98 252
122 98 252
124 98 252
126 98 252
129 98 252
131 98 252
133 98 252
136 98 252
138 98 252
140 98 251
143 98 251
145 98 251
148 98 250
150 98 250
153 98 249
155 97 249
158 97 248
160 97 247
163 97 247
166 97 246
168 96 245
171 96 244
174 96 243
177 96 241
180 95 240
183 95 238
187 94 236
190 94 234
194 93 231
198 93 229
202 92 225
208 91 220
213 90 215
212 105 197
129 253 126
129 253 126
129 253 126
129 253 126
129 253 126
129 253 126
129 253 126
130 253 126
130 253 126
130 253 126
130 253 126
130 253 126
130 253 126
130 253 126
130 253 126
130 253 126
130 253 126
130 253 126
130 253 126
130 253 126
130 253 126
130 253 126
130 253 126
130 253 126
131 253 126
131 253 126
131 253 126
131 253 126
131 253 126
131 253 126
131 253 126
131 253 126
131 253 126
131 253 126
131 253 126
131 253 126
131 253 126
131 253 126
131 253 126
131 253 126
132 253 126
132 253 126
132 253 126
132 253 126
132 253 126
132 253 126
132 253 125
132 253 125
132 253 125
132 253 125
132 253 125
132 253 125
132 253 125
133 253 125
133 253 125
133 253 125
133 253 125
133 253 125
133 253 125
133 253 125
133 253 125
133 253 125
133 253 125
133 253 125
134 253 125
134 253 125
134 253 125
134 253 125
134 253 125
134 253 125
122 253 126
122 253 126
122 253 126
122 253 126
122 253 126
122 253 126
122 253 126
122 253 126
122 253 126
122 253 126
123 253 126
123 253 126
123 253 126
123 253 126
123 253 126
123 253 126
123 253 126
123 253 126
123 253 126
123 253 126
123 253 126
123 253 126
123 253 126
123 253 126
123 253 126
124 253 126
124 253 126
124 253 126
124 253 126
124 253 126
124 253 126
124 253 126
124 253 126
124 253 126
124 253 126
124 253 126
124 253 126
124 253 126
124 253 126
124 253 126
124 253 126
125 253 126
125 253 126
125 253 126
125 253 126
125 253 126
125 253 126
125 253 126
125 253 126
125 253 126
125 253 126
125 253 126
125 253 126
125 253 126
125 253 126
125 253 126
125 253 126
125 253 126
125 253 126
126 253 126
126 253 126
126 253 126
126 253 126
126 253 126
126 253 126
126 253 126
126 253 126
126 253 126
126 253 126
126 253 126
86 182 158
39 86 210
46 88 218
52 89 223
56 90 226
60 90 230
64 91 233
68 92 235
71 92 237
74 92 239
77 93 240
81 93 242
84 94 243
86 94 244
89 94 245
92 94 246
94 94 247
97 94 247
100 95 248
102 95 249
105 95 249
107 95 250
110 95 250
112 95 250
114 96 251
117 95 251
119 96 251
122 95 251
124 96 251
126 96 251
129 96 251
131 96 251
133 96 251
136 96 251
138 96 251
140 95 251
143 96 250
145 95 250
148 95 250
150 95 249
153 95 249
155 95 248
158 95 247
160 95 247
163 94 246
166 94 245
169 94 244
172 94 243
174 93 242
178 93 240
181 93 239
184 92 237
187 92 235
191 91 232
195 90 230
199 90 227
203 89 223
209 88 218
216 86 210
159 201 150
129 253 126
129 253 126
129 253 126
129 253 126
129 253 126
129 253 126
129 253 126
129 253 126
129 253 126
129 253 126
129 253 126
130 253 126
130 253 126
130 253 126
130 253 126
130 253 126
130 253 126
130 253 126
130 253 126
130 253 126
130 253 126
130 253 126
130 253 126
130 253 126
130 253 126
130 253 126
130 253 126
130 253 126
130 253 126
131 253 126
131 253 126
131 253 126
131 253 126
131 253 126
131 253 126
131 253 126
131 253 126
131 253 126
131 253 126
131 253 126
131 253 126
131 253 126
131 253 126
131 253 126
131 253 126
131 253 126
132 253 126
132 253 126
132 253 126
132 253 126
132 253 126
132 253 126
132 253 126
132 253 126
132 253 126
132 253 126
132 253 126
132 253 126
132 253 126
132 253 126
133 253 126
133 253 126
133 253 126
133 253 126
133 253 126
133 253 126
133 253 126
133 253 126
133 253 126
133 253 126
122 253 126
122 253 126
122 253 126
123 253 126
123 253 126
123 253 126
123 253 126
123 253 126
123 253 126
123 253 126
123 253 126
123 253 126
123 253 126
123 253 126
123 253 126
123 253 126
123 253 126
123 253 126
124 253 126
124 253 126
124 253 126
124 253 126
124 253 126
124 253 126
124 253 126
124 253 126
124 253 126
124 253 126
124 253 126
124 253 126
124 253 126
124 253 126
124 253 126
124 253 126
124 253 126
124 253 126
125 253 126
125 253 126
125 253 126
125 253 126
125 253 126
125 253 126
125 253 126
125 253 126
125 253 126
125 253 126
125 253 126
125 253 126
125 253 126
125 253 126
125 253 126
125 253 126
125 253 126
125 253 126
125 253 126
125 253 126
126 253 126
126 253 126
126 253 126
126 253 126
126 253 126
126 253 126
126 253 126
126 253 126
126 253 126
126 253 126
126 253 126
126 253 126
126 253 126
126 253 126
125 253 127
49 104 195
45 84 215
50 85 220
55 87 225
60 87 228
64 88 231
67 89 233
71 89 236
74 90 238
77 90 239
80 91 241
83 91 242
86 91 243
89 91 244
92 92 245
94 92 246
97 92 247
100 92 247
102 92 248
105 92 248
107 93 249
109 93 249
112 93 250
114 93 250
117 93 250
119 93 250
122 93 251
124 93 251
126 93 251
129 93 251
131 93 251
134 93 251
136 93 250
138 93 250
141 93 250
143 93 250
146 93 249
148 93 249
150 93 249
153 92 248
155 92 247
158 92 247
161 92 246
163 92 245
166 91 244
169 91 243
172 91 242
175 90 241
178 90 239
181 90 238
184 89 236
188 89 233
191 88 231
195 88 229
200 87 225
204 85 221
210 84 215
209 99 197
131 252 128
129 253 126
129 253 126
129 253 126
129 253 126
129 253 126
129 253 126
129 253 126
129 253 126
129 253 126
129 253 126
129 253 126
129 253 126
129 253 126
129 253 126
130 253 126
130 253 126
130 253 126
130 253 126
130 253 126
130 253 126
130 253 126
130 253 126
130 253 126
130 253 126
130 253 126
130 253 126
130 253 126
130 253 126
130 253 126
130 253 126
130 253 126
130 253 126
130 253 126
130 253 126
131 253 126
131 253 126
131 253 126
131 253 126
131 253 126
131 253 126
131 253 126
131 253 126
131 253 126
131 253 126
131 253 126
131 253 126
131 253 126
131 253 126
131 253 126
131 253 126
131 253 126
131 253 126
132 253 126
132 253 126
132 253 126
132 253 126
132 253 126
132 253 126
132 253 126
132 253 126
132 253 126
132 253 126
132 253 126
132 253 126
132 253 126
132 253 126
132 253 126
133 253 126
133 253 126
133 253 126
123 253 126
123 253 126
123 253 126
123 253 126
123 253 126
123 253 126
123 253 126
123 253 126
123 253 126
123 253 126
123 253 126
123 253 126
124 253 126
124 253 126
124 253 126
124 253 126
124 253 126
124 253 126
124 253 126
124 253 126
124 253 126
124 253 126
124 253 126
124 253 126
124 253 126
124 253 126
124 253 126
124 253 126
124 253 126
124 253 126
124 253 126
124 253 126
125 253 126
125 253 126
125 253 126
125 253 126
125 253 126
125 253 126
125 253 126
125 253 126
125 253 126
125 253 126
125 253 126
125 253 126
125 253 126
125 253 126
125 253 126
125 253 126
125 253 126
125 253 126
125 253 126
125 253 126
125 253 126
126 253 126
126 253 126
126 253 126
126 253 126
126 253 126
126 253 126
126 253 126
126 253 126
126 253 126
126 253 126
126 253 126
126 253 126
126 253 126
126 253 126
126 253 126
126 253 126
126 253 126
126 253 126
94 193 152
42 80 210
49 82 217
54 83 222
59 84 226
63 85 229
67 86 232
70 86 234
74 87 236
77 87 238
80 88 239
83 88 241
86 88 242
89 89 243
91 89 244
94 89 245
97 89 246
99 90 246
102 90 247
104 90 248
107 90 248
110 90 249
112 90 249
114 90 249
117 90 250
119 90 250
122 90 250
124 91 250
126 90 250
129 91 250
131 91 250
133 91 250
136 91 250
138 90 250
141 90 249
143 90 249
146 90 249
148 90 248
151 90 248
153 90 247
156 90 246
158 89 246
161 89 245
164 89 244
166 88 243
169 88 242
172 88 241
175 88 240
178 87 238
182 87 236
185 86 234
188 85 232
192 85 229
196 84 226
201 83 222
206 81 217
213 80 210
163 189 154
129 253 126
129 253 126
129 253 126
129 253 126
129 253 126
129 253 126
129 253 126
129 253 126
129 253 126
129 253 126
129 253 126
129 253 126
129 253 126
129 253 126
129 253 126
129 253 126
129 253 126
129 253 126
130 253 126
130 253 126
130 253 126
130 253 126
130 253 126
130 253 126
130 253 126
130 253 126
130 253 126
130 253 126
130 253 126
130 253 126
130 253 126
130 253 126
130 253 126
130 253 126
130 253 126
130 253 126
130 253 126
130 253 126
130 253 126
131 253 126
131 253 126
131 253 126
131 253 126
131 253 126
131 253 126
131 253 126
131 253 126
131 253 126
131 253 126
131 253 126
131 253 126
131 253 126
131 253 126
131 253 126
131 253 126
131 253 126
131 253 126
131 253 126
131 253 126
132 253 126
132 253 126
132 253 126
132 253 126
132 253 126
132 253 126
132 253 126
132 253 126
132 253 126
132 253 126
132 253 126
132 253 126
123 253 126
123 253 126
123 253 126
123 253 126
123 253 126
123 253 126
124 253 126
124 253 126
124 253 126
124 253 126
124 253 126
124 253 126
124 253 126
124 253 126
124 253 126
124 253 126
124 253 126
124 253 126
124 253 126
124 253 126
124 253 126
124 253 126
124 253 126
124 253 126
124 253 126
124 253 126
124 253 126
125 253 126
125 253 126
125 253 126
125 253 126
125 253 126
125 253 126
125 253 127
125 253 126
125 253 127
125 253 127
125 253 127
125 253 127
125 253 127
125 253 127
125 253 127
125 253 127
125 253 127
125 253 127
125 253 127
125 253 127
125 253 127
125 253 127
125 253 127
126 253 127
126 253 127
126 253 127
126 253 127
126 253 127
126 253 127
126 253 127
126 253 127
126 253 127
126 253 127
126 253 127
126 253 127
126 253 127
126 253 127
126 253 127
126 253 127
126 253 127
126 253 127
126 253 127
126 253 127
126 253 127
125 253 127
58 113 188
47 77 213
53 79 219
58 80 224
62 81 227
66 82 230
70 83 233
73 84 235
76 84 236
79 85 238
83 85 240
85 85 241
88 86 242
91 86 243
94 86 244
96 87 245
99 87 246
102 87 246
104 87 247
107 87 247
109 87 248
112 88 248
114 88 248
117 88 249
119 88 249
122 88 249
124 88 249
126 88 249
129 88 249
131 88 249
133 88 249
136 88 249
138 88 249
141 88 248
143 87 248
146 87 248
148 87 247
151 87 247
153 87 246
156 87 245
159 87 245
161 86 244
164 86 243
167 86 242
170 85 241
172 85 240
175 85 238
179 84 237
182 84 235
186 83 233
189 82 230
193 81 227
197 80 224
202 79 219
208 77 214
197 113 188
130 253 127
129 253 127
129 253 127
129 253 127
129 253 127
129 253 127
129 253 127
129 253 127
129 253 127
129 253 127
129 253 127
129 253 127
129 253 127
129 253 127
129 253 127
129 253 127
129 253 127
129 253 127
129 253 127
129 253 127
129 253 127
129 253 127
130 253 127
130 253 127
130 253 127
130 253 127
130 253 127
130 253 127
130 253 127
130 253 127
130 253 127
130 253 127
130 253 127
130 253 127
130 253 127
130 253 126
130 253 127
130 253 126
130 253 126
130 253 126
130 253 126
130 253 126
130 253 126
130 253 126
130 253 126
131 253 126
131 253 126
131 253 126
131 253 126
131 253 126
131 253 126
131 253 126
131 253 126
131 253 126
131 253 126
131 253 126
131 253 126
131 253 126
131 253 126
131 253 126
131 253 126
131 253 126
131 253 126
131 253 126
131 253 126
132 253 126
132 253 126
132 253 126
132 253 126
132 253 126
132 253 126
132 253 126
123 253 127
124 253 127
124 253 127
124 253 127
124 253 127
124 253 127
124 253 127
124 253 127
124 253 127
124 253 127
124 253 127
124 253 127
124 253 127
124 253 127
124 253 127
124 253 127
124 253 127
124 253 127
124 253 127
124 253 127
124 253 127
124 253 127
124 253 127
125 253 127
125 253 127
125 253 127
125 253 127
125 253 127
125 253 127
125 253 127
125 253 127
125 253 127
125 253 127
125 253 127
125 253 127
125 253 127
125 253 127
125 253 127
125 253 127
125 253 127
125 253 127
125 253 127
125 253 127
125 253 127
125 253 127
125 253 127
125 253 127
126 253 127
126 253 127
126 253 127
126 253 127
126 253 127
126 253 127
126 253 127
126 253 127
126 253 127
126 253 127
126 253 127
126 253 127
126 253 127
126 253 127
126 253 127
126 253 127
126 253 127
126 253 127
126 253 127
126 253 127
126 253 127
126 253 127
126 253 127
126 253 127
126 253 127
110 220 141
45 74 207
51 75 216
56 76 221
61 78 225
65 79 228
69 80 231
72 80 233
76 81 235
79 82 237
82 82 238
85 83 240
88 83 241
91 83 242
94 84 243
96 84 244
99 84 244
101 84 245
104 84 246
107 85 246
109 85 247
112 85 247
114 85 247
117 85 248
119 85 248
121 85 248
124 85 248
126 85 248
129 85 248
131 85 248
134 85 248
136 85 248
138 85 248
141 85 247
143 85 247
146 85 247
148 85 246
151 84 246
153 84 245
156 84 245
159 84 244
161 83 243
164 83 242
167 83 241
170 82 240
173 82 238
176 82 237
179 81 235
183 80 233
186 80 231
190 79 228
194 78 225
199 77 221
204 75 216
210 73 208
142 228 138
129 253 127
129 253 127
129 253 127
129 253 127
129 253 127
129 253 127
129 253 127
129 253 127
129 253 127
129 253 127
129 253 127
129 253 127
129 253 127
129 253 127
129 253 127
129 253 127
129 253 127
129 253 127
129 253 127
129 253 127
129 253 127
129 253 127
129 253 127
129 253 127
129 253 127
130 253 127
130 253 127
130 253 127
130 253 127
130 253 127
130 253 127
130 253 127
130 253 127
130 253 127
130 253 127
130 253 127
130 253 127
130 253 127
130 253 127
130 253 127
130 253 127
130 253 127
130 253 127
130 253 127
130 253 127
130 253 127
130 253 127
130 253 127
130 253 127
131 253 127
131 253 127
131 253 127
131 253 127
131 253 127
131 253 127
131 253 127
131 253 127
131 253 127
131 253 127
131 253 127
131 253 127
131 253 127
131 253 127
131 253 127
131 253 127
131 253 127
131 253 127
131 253 127
131 253 127
131 253 127
131 253 127
132 253 127
124 253 127
124 253 127
124 253 127
124 253 127
124 253 127
124 253 127
124 253 127
124 253 127
124 253 127
124 253 127
124 253 127
124 253 127
124 253 127
124 253 127
124 253 127
124 253 127
124 253 127
124 253 127
125 253 127
125 253 127
125 253 127
125 253 127
125 253 127
125 253 127
125 253 127
125 253 127
125 253 127
125 253 127
125 253 127
125 253 127
125 253 127
125 253 127
125 253 127
125 253 127
125 253 127
125 253 127
125 253 127
125 253 127
125 253 127
125 253 127
125 253 127
125 253 127
125 253 127
125 253 127
126 253 127
126 253 127
126 253 127
126 253 127
126 253 127
126 253 127
126 253 127
126 253 127
126 253 127
126 253 127
126 253 127
126 253 127
126 253 127
126 253 127
126 253 127
126 253 127
126 253 127
126 253 127
126 253 127
126 253 127
126 253 127
126 253 127
126 253 127
126 253 127
126 253 127
126 253 127
126 253 127
127 253 127
127 253 127
83 160 165
48 70 210
55 73 218
60 74 222
64 75 226
68 76 229
72 77 231
75 78 233
79 78 235
82 79 237
85 79 238
88 80 240
91 80 241
93 81 242
96 81 242
99 81 243
101 81 244
104 82 245
106 82 245
109 82 246
112 82 246
114 82 246
116 82 247
119 82 247
121 82 247
124 82 247
126 82 247
129 83 247
131 82 247
134 82 247
136 82 247
139 82 247
141 82 247
143 82 246
146 82 246
149 82 245
151 82 245
154 81 244
156 81 243
159 81 243
162 80 242
164 80 241
167 80 239
170 79 238
173 79 237
176 78 235
180 78 233
183 77 231
187 76 228
191 75 226
195 74 222
200 73 217
206 70 211
168 167 162
128 253 127
128 253 127
129 253 127
129 253 127
129 253 127
129 253 127
129 253 127
129 253 127
129 253 127
129 253 127
129 253 127
129 253 127
129 253 127
129 253 127
129 253 127
129 253 127
129 253 127
129 253 127
129 253 127
129 253 127
129 253 127
129 253 127
129 253 127
129 253 127
129 253 127
129 253 127
129 253 127
129 253 127
129 253 127
130 253 127
130 253 127
130 253 127
130 253 127
130 253 127
130 253 127
130 253 127
130 253 127
130 253 127
130 253 127
130 253 127
130 253 127
130 253 127
130 253 127
130 253 127
130 253 127
130 253 127
130 253 127
130 253 127
130 253 127
130 253 127
130 253 127
130 253 127
130 253 127
130 253 127
130 253 127
131 253 127
131 253 127
131 253 127
131 253 127
131 253 127
131 253 127
131 253 127
131 253 127
131 253 127
131 253 127
131 253 127
131 253 127
131 253 127
131 253 127
131 253 127
131 253 127
131 253 127
131 253 127
124 253 127
124 253 127
124 253 127
124 253 127
124 253 127
124 253 127
124 253 127
124 253 127
124 253 127
124 253 127
124 253 127
124 253 127
124 253 127
124 253 127
125 253 127
125 253 127
125 253 127
125 253 127
125 253 127
125 253 127
125 253 127
125 253 127
125 253 127
125 253 127
125 253 127
125 253 127
125 253 127
125 253 127
125 253 127
125 253 127
125 253 127
125 253 127
125 253 127
125 253 127
125 253 127
125 253 127
125 253 127
125 253 127
125 253 127
125 253 127
125 253 127
126 253 127
126 253 127
126 253 127
126 253 127
126 253 127
126 253 127
126 253 127
126 253 127
126 253 127
126 253 127
126 253 127
126 253 127
126 253 127
126 253 127
126 253 127
126 253 127
126 253 127
126 253 127
126 253 127
126 253 127
126 253 127
126 253 127
126 253 127
126 253 127
126 253 127
126 253 127
126 253 127
126 253 127
126 253 127
127 253 127
127 253 127
127 253 127
127 253 127
58 93 192
53 68 213
58 70 218
63 72 223
67 73 226
71 74 229
74 74 231
78 75 233
81 76 235
84 76 236
87 77 238
90 77 239
93 78 240
96 78 241
99 78 242
101 78 243
104 79 243
106 79 244
109 79 245
111 80 245
114 79 245
116 79 246
119 80 246
121 80 246
124 80 246
126 80 246
129 80 246
131 80 246
134 80 246
136 80 246
139 79 246
141 79 245
144 79 245
146 79 244
149 79 244
151 79 243
154 79 243
156 78 242
159 78 241
162 77 240
165 77 239
168 77 238
171 76 237
174 76 235
177 75 233
181 75 231
184 73 229
188 73 226
192 71 222
197 70 218
202 68 213
194 102 190
128 253 127
128 253 127
128 253 127
128 253 127
129 253 127
129 253 127
129 253 127
129 253 127
129 253 127
129 253 127
129 253 127
129 253 127
129 253 127
129 253 127
129 253 127
129 253 127
129 253 127
129 253 127
129 253 127
129 253 127
129 253 127
129 253 127
129 253 127
129 253 127
129 253 127
129 253 127
129 253 127
129 253 127
129 253 127
129 253 127
129 253 127
129 253 127
129 253 127
130 253 127
130 253 127
130 253 127
130 253 127
130 253 127
130 253 127
130 253 127
130 253 127
130 253 127
130 253 127
130 253 127
130 253 127
130 253 127
130 253 127
130 253 127
130 253 127
130 253 127
130 253 127
130 253 127
130 253 127
130 253 127
130 253 127
130 253 127
130 253 127
130 253 127
130 253 127
130 253 127
131 253 127
131 253 127
131 253 127
131 253 127
131 253 127
131 253 127
131 253 127
131 253 127
131 253 127
131 253 127
131 253 127
131 253 127
131 253 127
131 253 127
124 253 127
124 253 127
124 253 127
124 253 127
124 253 127
124 253 127
124 253 127
124 253 127
124 253 127
125 253 127
125 253 127
125 253 127
125 253 127
125 253 127
125 253 127
125 253 127
125 253 127
125 253 127
125 253 127
125 253 127
125 253 127
125 253 127
125 253 127
125 253 127
125 253 127
125 253 127
125 253 127
125 253 127
125 253 127
125 253 127
125 253 127
125 253 127
125 253 127
125 253 127
125 253 127
125 253 127
125 253 127
125 253 127
126 253 127
126 253 127
126 253 127
126 253 127
126 253 127
126 253 127
126 253 127
126 253 127
126 253 127
126 253 127
126 253 127
126 253 127
126 253 127
126 253 127
126 253 127
126 253 127
126 253 127
126 253 127
126 253 127
126 253 127
126 253 127
126 253 127
126 253 127
126 253 127
126 253 127
126 253 127
126 253 127
126 253 127
126 253 127
126 253 127
127 253 127
127 253 127
127 253 127
127 253 127
127 253 127
127 253 127
119 236 134
60 89 194
56 65 214
61 67 219
66 69 223
70 70 226
74 71 229
77 72 231
81 73 233
84 73 235
87 74 236
90 74 237
93 75 239
95 75 240
98 75 240
101 76 241
104 76 242
106 76 243
109 76 243
111 76 244
114 76 244
116 77 244
119 77 245
121 77 245
124 77 245
126 77 245
129 77 245
131 77 245
134 77 245
136 77 245
139 77 244
141 76 244
144 76 244
146 76 243
149 76 243
151 76 242
154 75 241
157 75 241
160 75 240
163 74 239
165 74 237
168 74 236
171 73 235
175 72 233
178 72 231
182 71 229
185 70 226
189 69 223
194 67 219
199 65 213
199 78 199
133 244 131
128 253 127
128 253 127
128 253 127
128 253 127
128 253 127
128 253 127
129 253 127
129 253 127
129 253 127
129 253 127
129 253 127
129 253 127
129 253 127
129 253 127
129 253 127
129 253 127
129 253 127
129 253 127
129 253 127
129 253 127
129 253 127
129 253 127
129 253 127
129 253 127
129 253 127
129 253 127
129 253 127
129 253 127
129 253 127
129 253 127
129 253 127
129 253 127
129 253 127
129 253 127
129 253 127
129 253 127
130 253 127
130 253 127
130 253 127
130 253 127
130 253 127
130 253 127
130 253 127
130 253 127
130 253 127
130 253 127
130 253 127
130 253 127
130 253 127
130 253 127
130 253 127
130 253 127
130 253 127
130 253 127
130 253 127
130 253 127
130 253 127
130 253 127
130 253 127
130 253 127
130 253 127
130 253 127
130 253 127
130 253 127
130 253 127
131 253 127
131 253 127
131 253 127
131 253 127
131 253 127
131 253 127
131 253 127
131 253 127
131 253 127
124 253 127
124 253 127
124 253 127
124 253 127
124 253 127
125 253 127
125 253 127
125 253 127
125 253 127
125 253 127
125 253 127
125 253 127
125 253 127
125 253 127
125 253 127
125 253 127
125 253 127
125 253 127
125 253 127
125 253 127
125 253 127
125 253 127
125 253 127
125 253 127
125 253 127
125 253 127
125 253 127
125 253 127
125 253 127
125 253 127
125 253 127
125 253 127
125 253 127
125 253 127
125 253 127
126 253 127
126 253 127
126 253 127
126 253 127
126 253 127
126 253 127
126 253 127
126 253 127
126 253 127
126 253 127
126 253 127
126 253 127
126 253 127
126 253 127
126 253 127
126 253 127
126 253 127
126 253 127
126 253 127
126 253 127
126 253 127
126 253 127
126 253 127
126 253 127
126 253 127
126 253 127
126 253 127
126 253 127
126 253 127
126 253 127
126 253 127
126 253 127
127 253 127
127 253 127
127 253 127
127 253 127
127 253 127
127 253 127
127 253 127
127 253 127
115 226 138
61 81 197
59 62 214
65 64 219
68 66 223
73 67 226
76 68 229
80 69 231
83 70 233
86 70 234
89 71 236
92 71 237
95 72 238
98 72 239
100 72 240
103 73 241
106 73 241
108 73 242
111 73 242
114 73 243
116 73 243
119 74 243
121 74 243
124 74 244
126 74 244
129 74 244
131 74 244
134 74 243
136 74 243
139 74 243
141 73 243
144 73 242
146 73 242
149 73 241
152 73 241
154 72 240
157 72 239
160 71 238
163 71 237
166 71 236
169 70 234
172 70 233
175 69 231
178 68 229
182 67 226
186 66 223
191 65 219
196 62 214
199 67 203
143 218 141
128 253 127
128 253 127
128 253 127
128 253 127
128 253 127
128 253 127
128 253 127
128 253 127
129 253 127
129 253 127
129 253 127
129 253 127
129 253 127
129 253 127
129 253 127
129 253 127
129 253 127
129 253 127
129 253 127
129 253 127
129 253 127
129 253 127
129 253 127
129 253 127
129 253 127
129 253 127
129 253 127
129 253 127
129 253 127
129 253 127
129 253 127
129 253 127
129 253 127
129 253 127
129 253 127
129 253 127
129 253 127
129 253 127
129 253 127
129 253 127
129 253 127
130 253 127
130 253 127
130 253 127
130 253 127
130 253 127
130 253 127
130 253 127
130 253 127
130 253 127
130 253 127
130 253 127
130 253 127
130 253 127
130 253 127
130 253 127
130 253 127
130 253 127
130 253 127
130 253 127
130 253 127
130 253 127
130 253 127
130 253 127
130 253 127
130 253 127
130 253 127
130 253 127
130 253 127
130 253 127
131 253 127
131 253 127
131 253 127
131 253 127
131 253 127
125 253 127
125 253 127
125 253 127
125 253 127
125 253 127
125 253 127
125 253 127
125 253 127
125 253 127
125 253 127
125 253 127
125 253 127
125 253 127
125 253 127
125 253 127
125 253 127
125 253 127
125 253 127
125 253 127
125 253 127
125 253 127
125 253 127
125 253 127
125 253 127
125 253 127
125 253 127
125 253 127
125 253 127
125 253 127
125 253 127
125 253 127
126 253 127
126 253 127
126 253 127
126 253 127
126 253 127
126 253 127
126 253 127
126 253 127
126 253 127
126 253 127
126 253 127
126 253 127
126 253 127
126 253 127
126 253 127
126 253 127
126 253 127
126 253 127
126 253 127
126 253 127
126 253 127
126 253 127
126 253 127
126 253 127
126 253 127
126 253 127
126 253 127
126 253 127
126 253 127
126 253 127
126 253 127
126 253 127
126 253 127
126 253 127
127 253 127
127 253 127
127 253 127
127 253 127
127 253 127
127 253 127
127 253 127
127 253 127
127 253 127
127 253 127
127 253 127
104 195 149
63 75 200
62 59 214
67 61 219
72 63 223
75 64 226
79 65 228
83 66 230
86 67 232
89 67 234
92 68 235
95 68 236
97 68 237
100 69 238
103 69 239
106 70 240
108 70 240
111 70 241
114 70 241
116 70 241
119 71 242
121 71 242
124 71 242
126 71 242
129 71 242
131 71 242
134 71 242
136 71 242
139 71 242
141 70 241
144 70 241
147 70 240
149 70 240
152 69 239
155 69 238
158 69 237
160 68 236
163 68 235
166 67 234
169 67 232
173 66 230
176 65 228
180 64 226
183 63 223
188 61 219
193 59 214
197 60 205
145 211 143
128 253 127
128 253 127
128 253 127
128 253 127
128 253 127
128 253 127
128 253 127
128 253 127
128 253 127
128 253 127
128 253 127
129 253 127
129 253 127
129 253 127
129 253 127
129 253 127
129 253 127
129 253 127
129 253 127
129 253 127
129 253 127
129 253 127
129 253 127
129 253 127
129 253 127
129 253 127
129 253 127
129 253 127
129 253 127
129 253 127
129 253 127
129 253 127
129 253 127
129 253 127
129 253 127
129 253 127
129 253 127
129 253 127
129 253 127
129 253 127
129 253 127
129 253 127
129 253 127
129 253 127
129 253 127
130 253 127
130 253 127
130 253 127
130 253 127
130 253 127
130 253 127
130 253 127
130 253 127
130 253 127
130 253 127
130 253 127
130 253 127
130 253 127
130 253 127
130 253 127
130 253 127
130 253 127
130 253 127
130 253 127
130 253 127
130 253 127
130 253 127
130 253 127
130 253 127
130 253 127
130 253 127
130 253 127
130 253 127
130 253 127
130 253 127
130 253 127
125 253 127
125 253 127
125 253 127
125 253 127
125 253 127
125 253 127
125 253 127
125 253 127
125 253 127
125 253 127
125 253 127
125 253 127
125 253 127
125 253 127
125 253 127
125 253 127
125 253 127
125 253 127
125 253 127
125 253 127
125 253 127
125 253 127
125 253 127
125 253 127
125 253 127
125 253 127
125 253 127
125 253 127
126 253 127
126 253 127
126 253 127
126 253 127
126 253 127
126 253 127
126 253 127
126 253 127
126 253 127
126 253 127
126 253 127
126 253 127
126 253 127
126 253 127
126 253 127
126 253 127
126 253 127
126 253 127
126 253 127
126 253 127
126 253 127
126 253 127
126 253 127
126 253 127
126 253 127
126 253 127
126 253 127
126 253 127
126 253 127
126 253 127
126 253 127
126 253 127
126 253 127
126 253 127
126 253 127
126 253 127
127 253 127
127 253 127
127 253 127
127 253 127
127 253 127
127 253 127
127 253 127
127 253 127
127 253 127
127 253 127
127 253 127
127 253 127
127 253 127
105 192 150
65 70 200
65 56 214
70 58 218
74 60 222
78 61 225
81 62 227
85 63 229
88 63 231
91 64 233
94 65 234
97 65 235
100 66 236
102 66 237
105 66 238
108 67 238
111 67 239
113 67 239
116 67 240
119 67 240
121 68 240
124 68 241
126 68 241
129 67 241
131 67 240
134 67 240
136 67 240
139 67 240
142 67 239
144 67 239
147 67 238
150 66 238
152 66 237
155 66 236
158 65 235
161 65 234
164 64 233
167 63 231
170 63 229
174 62 227
177 61 225
181 60 222
185 58 218
190 56 214
193 60 205
142 215 142
128 253 127
128 253 127
128 253 127
128 253 127
128 253 127
128 253 127
128 253 127
128 253 127
128 253 127
128 253 127
128 253 127
128 253 127
128 253 127
128 253 127
129 253 127
129 253 127
129 253 127
129 253 127
129 253 127
129 253 127
129 253 127
129 253 127
129 253 127
129 253 127
129 253 127
129 253 127
129 253 127
129 253 127
129 253 127
129 253 127
129 253 127
129 253 127
129 253 127
129 253 127
129 253 127
129 253 127
129 253 127
129 253 127
129 253 127
129 253 127
129 253 127
129 253 127
129 253 127
129 253 127
129 253 127
129 253 127
129 253 127
129 253 127
129 253 127
130 253 127
130 253 127
130 253 127
130 253 127
130 253 127
130 253 127
130 253 127
130 253 127
130 253 127
130 253 127
130 253 127
130 253 127
130 253 127
130 253 127
130 253 127
130 253 127
130 253 127
130 253 127
130 253 127
130 253 127
130 253 127
130 253 127
130 253 127
130 253 127
130 253 127
130 253 127
130 253 127
130 253 127
125 253 127
125 253 127
125 253 127
125 253 127
125 253 127
125 253 127
125 253 127
125 253 127
125 253 127
125 253 127
125 253 127
125 253 127
125 253 127
125 253 127
125 253 127
125 253 127
125 253 127
125 253 127
125 253 127
125 253 127
125 253 127
125 253 127
125 253 127
125 253 127
125 253 127
126 253 127
126 253 127
126 253 127
126 253 127
126 253 127
126 253 127
126 253 127
126 253 127
126 253 127
126 253 127
126 253 127
126 253 127
126 253 127
126 253 127
126 253 127
126 253 127
126 253 127
126 253 127
126 253 127
126 253 127
126 253 127
126 253 127
126 253 127
126 253 127
126 253 127
126 253 127
126 253 127
126 253 127
126 253 127
126 253 127
126 253 127
126 253 127
126 253 127
126 253 127
126 253 127
126 253 127
126 253 127
127 253 127
127 253 127
127 253 127
127 253 127
127 253 127
127 253 127
127 253 127
127 253 127
127 253 127
127 253 127
127 253 127
127 253 127
127 253 127
127 253 127
127 253 127
127 253 127
114 218 140
68 67 200
68 53 213
72 54 217
77 56 221
80 58 224
84 59 226
87 60 228
91 60 230
93 61 231
97 62 233
99 62 234
102 62 235
105 63 236
108 63 236
111 63 237
113 64 238
116 64 238
118 64 238
121 64 238
124 64 239
126 64 239
129 64 239
131 64 239
134 64 238
137 64 238
139 64 238
142 64 237
144 63 237
147 63 236
150 63 236
153 62 235
156 62 234
158 61 233
161 61 231
164 60 230
168 60 228
171 58 226
175 57 224
178 56 221
182 55 218
187 53 213
188 66 199
145 206 144
128 253 127
128 253 127
128 253 127
128 253 127
128 253 127
128 253 127
128 253 127
128 253 127
128 253 127
128 253 127
128 253 127
128 253 127
128 253 127
128 253 127
128 253 127
128 253 127
129 253 127
129 253 127
129 253 127
129 253 127
129 253 127
129 253 127
129 253 127
129 253 127
129 253 127
129 253 127
129 253 127
129 253 127
129 253 127
129 253 127
129 253 127
129 253 127
129 253 127
129 253 127
129 253 127
129 253 127
129 253 127
129 253 127
129 253 127
129 253 127
129 253 127
129 253 127
129 253 127
129 253 127
129 253 127
129 253 127
129 253 127
129 253 127
129 253 127
129 253 127
129 253 127
129 253 127
129 253 127
130 253 127
130 253 127
130 253 127
130 253 127
130 253 127
130 253 127
130 253 127
130 253 127
130 253 127
130 253 127
130 253 127
130 253 127
130 253 127
130 253 127
130 253 127
130 253 127
130 253 127
130 253 127
130 253 127
130 253 127
130 253 127
130 253 127
130 253 127
130 253 127
130 253 127
125 253 127
125 253 127
125 253 127
125 253 127
125 253 127
125 253 127
125 253 127
125 253 127
125 253 127
125 253 127
125 253 127
125 253 127
125 253 127
125 253 127
125 253 127
125 253 127
125 253 127
125 253 127
125 253 127
125 253 127
125 253 127
125 253 127
126 253 127
126 253 127
126 253 127
126 253 127
126 253 127
126 253 127
126 253 127
126 253 127
126 253 127
126 253 127
126 253 127
126 253 127
126 253 127
126 253 127
126 253 127
126 253 127
126 253 127
126 253 127
126 253 127
126 253 127
126 253 127
126 253 127
126 253 127
126 253 127
126 253 127
126 253 127
126 253 127
126 253 127
126 253 127
126 253 127
126 253 127
126 253 127
126 253 127
126 253 127
126 253 127
126 253 127
126 253 127
126 253 127
127 253 127
127 253 127
127 253 127
127 253 127
127 253 127
127 253 127
127 253 127
127 253 127
127 253 127
127 253 127
127 253 127
127 253 127
127 253 127
127 253 127
127 253 127
127 253 127
127 253 127
127 253 127
127 253 127
122 241 132
81 100 184
70 49 210
75 51 215
79 53 219
83 54 223
86 55 225
90 56 227
93 57 228
96 58 230
99 58 231
102 59 232
105 59 233
107 59 234
110 60 235
113 60 235
116 60 236
118 60 236
121 61 236
124 60 236
126 61 237
129 60 237
131 61 237
134 60 236
137 61 236
139 60 236
142 60 235
145 60 235
147 59 234
150 59 233
153 59 232
156 58 231
159 58 230
162 57 228
165 56 227
169 55 225
172 54 223
176 53 219
180 51 216
185 49 211
175 95 187
133 241 132
128 253 127
128 253 127
128 253 127
128 253 127
128 253 127
128 253 127
128 253 127
128 253 127
128 253 127
128 253 127
128 253 127
128 253 127
128 253 127
128 253 127
128 253 127
128 253 127
128 253 127
128 253 127
128 253 127
129 253 127
129 253 127
129 253 127
129 253 127
129 253 127
129 253 127
129 253 127
129 253 127
129 253 127
129 253 127
129 253 127
129 253 127
129 253 127
129 253 127
129 253 127
129 253 127
129 253 127
129 253 127
129 253 127
129 253 127
129 253 127
129 253 127
129 253 127
129 253 127
129 253 127
129 253 127
129 253 127
129 253 127
129 253 127
129 253 127
129 253 127
129 253 127
129 253 127
129 253 127
129 253 127
129 253 127
129 253 127
129 253 127
130 253 127
130 253 127
130 253 127
130 253 127
130 253 127
130 253 127
130 253 127
130 253 127
130 253 127
130 253 127
130 253 127
130 253 127
130 253 127
130 253 127
130 253 127
130 253 127
130 253 127
130 253 127
130 253 127
130 253 127
130 253 127
130 253 127
125 253 127
125 253 127
125 253 127
125 253 127
125 253 127
125 253 127
125 253 127
125 253 127
125 253 127
125 253 127
125 253 127
125 253 127
125 253 127
125 253 127
125 253 127
125 253 127
125 253 127
125 253 127
125 253 127
126 253 127
126 253 127
126 253 127
126 253 127
126 253 127
126 253 127
126 253 127
126 253 127
126 253 127
126 253 127
126 253 127
126 253 127
126 253 127
126 253 127
126 253 127
126 253 127
126 253 127
126 253 127
126 253 127
126 253 127
126 253 127
126 253 127
126 253 127
126 253 127
126 253 127
126 253 127
126 253 127
126 253 127
126 253 127
126 253 127
126 253 127
126 253 127
126 253 127
126 253 127
126 253 127
126 253 127
126 253 127
126 253 127
126 253 127
126 253 127
127 253 127
127 253 127
127 253 127
127 253 127
127 253 127
127 253 127
127 253 127
127 253 127
127 253 127
127 253 127
127 253 127
127 253 127
127 253 127
127 253 127
127 253 127
127 253 127
127 253 127
127 253 127
127 253 127
127 253 127
127 253 127
125 249 129
93 132 170
73 44 207
77 47 213
82 49 218
85 50 220
89 52 223
92 53 225
95 53 227
98 54 228
101 54 229
104 55 230
107 55 231
110 56 232
113 56 233
115 57 233
118 57 234
121 57 234
124 57 234
126 57 234
129 57 234
131 57 234
134 57 234
137 56 234
140 56 233
142 56 233
145 56 232
148 56 231
151 55 231
154 54 229
157 54 228
160 53 227
163 52 225
166 52 223
170 50 220
174 49 217
178 47 213
183 44 207
157 151 164
129 253 128
128 253 127
128 253 127
128 253 127
128 253 127
128 253 127
128 253 127
128 253 127
128 253 127
128 253 127
128 253 127
128 253 127
128 253 127
128 253 127
128 253 127
128 253 127
128 253 127
128 253 127
128 253 127
128 253 127
128 253 127
128 253 127
129 253 127
129 253 127
129 253 127
129 253 127
129 253 127
129 253 127
129 253 127
129 253 127
129 253 127
129 253 127
129 253 127
129 253 127
129 253 127
129 253 127
129 253 127
129 253 127
129 253 127
129 253 127
129 253 127
129 253 127
129 253 127
129 253 127
129 253 127
129 253 127
129 253 127
129 253 127
129 253 127
129 253 127
129 253 127
129 253 127
129 253 127
129 253 127
129 253 127
129 253 127
129 253 127
129 253 127
129 253 127
129 253 127
129 253 127
129 253 127
130 253 127
130 253 127
130 253 127
130 253 127
130 253 127
130 253 127
130 253 127
130 253 127
130 253 127
130 253 127
130 253 127
130 253 127
130 253 127
130 253 127
130 253 127
130 253 127
130 253 127
130 253 127
130 253 127
125 253 127
125 253 127
125 253 127
125 253 127
125 253 127
125 253 127
125 253 127
125 253 127
125 253 127
125 253 127
125 253 127
125 253 127
125 253 127
125 253 127
125 253 127
125 253 127
126 253 127
126 253 127
126 253 127
126 253 127
126 253 127
126 253 127
126 253 127
126 253 127
126 253 127
126 253 127
126 253 127
126 253 127
126 253 127
126 253 127
126 253 127
126 253 127
126 253 127
126 253 127
126 253 127
126 253 127
126 253 127
126 253 127
126 253 127
126 253 127
126 253 127
126 253 127
126 253 127
126 253 127
126 253 127
126 253 127
126 253 127
126 253 127
126 253 127
126 253 127
126 253 127
126 253 127
126 253 127
126 253 127
126 253 127
126 253 127
126 253 127
127 253 127
127 253 127
127 253 127
127 253 127
127 253 127
127 253 127
127 253 127
127 253 127
127 253 127
127 253 127
127 253 127
127 253 127
127 253 127
127 253 127
127 253 127
127 253 127
127 253 127
127 253 127
127 253 127
127 253 127
127 253 127
127 253 127
127 253 127
127 253 127
127 253 127
115 210 143
85 83 189
79 42 210
84 45 215
88 46 218
91 47 220
95 49 223
98 49 224
101 50 226
104 51 227
107 51 228
109 52 229
112 52 230
115 52 230
118 53 231
121 53 231
124 53 231
126 53 231
129 53 231
131 53 231
134 53 231
137 52 231
140 52 230
142 52 230
145 52 229
148 51 228
151 51 227
154 50 226
157 49 224
160 49 223
164 48 221
168 46 218
171 44 214
176 42 210
169 87 187
144 195 147
128 253 127
128 253 127
128 253 127
128 253 127
128 253 127
128 253 127
128 253 127
128 253 127
128 253 127
128 253 127
128 253 127
128 253 127
128 253 127
128 253 127
128 253 127
128 253 127
128 253 127
128 253 127
128 253 127
128 253 127
128 253 127
128 253 127
128 253 127
128 253 127
128 253 127
129 253 127
129 253 127
129 253 127
129 253 127
129 253 127
129 253 127
129 253 127
129 253 127
129 253 127
129 253 127
129 253 127
129 253 127
129 253 127
129 253 127
129 253 127
129 253 127
129 253 127
129 253 127
129 253 127
129 253 127
129 253 127
129 253 127
129 253 127
129 253 127
129 253 127
129 253 127
129 253 127
129 253 127
129 253 127
129 253 127
129 253 127
129 253 127
129 253 127
129 253 127
129 253 127
129 253 127
129 253 127
129 253 127
129 253 127
129 253 127
129 253 127
130 253 127
130 253 127
130 253 127
130 253 127
130 253 127
130 253 127
130 253 127
130 253 127
130 253 127
130 253 127
130 253 127
130 253 127
130 253 127
130 253 127
130 253 127
130 253 127
125 253 127
125 253 127
125 253 127
125 253 127
125 253 127
125 253 127
125 253 127
125 253 127
125 253 127
125 253 127
125 253 127
125 253 127
125 253 127
126 253 127
126 253 127
126 253 127
126 253 127
126 253 127
126 253 127
126 253 127
126 253 127
126 253 127
126 253 127
126 253 127
126 253 127
126 253 127
126 253 127
126 253 128
126 253 128
126 253 128
126 253 128
126 253 128
126 253 128
126 253 128
126 253 128
126 253 128
126 253 128
126 253 128
126 253 128
126 253 128
126 253 128
126 253 128
126 253 128
126 253 128
126 253 128
126 253 128
126 253 128
126 253 128
126 253 128
126 253 128
126 253 128
126 253 128
126 253 128
126 253 128
126 253 128
126 253 128
127 253 128
127 253 128
127 253 128
127 253 128
127 253 128
127 253 128
127 253 128
127 253 128
127 253 128
127 253 128
127 253 128
127 253 128
127 253 128
127 253 128
127 253 128
127 253 128
127 253 128
127 253 128
127 253 128
127 253 128
127 253 128
127 253 128
127 253 128
127 253 128
127 253 128
127 253 128
127 253 128
127 253 128
106 161 159
88 67 194
86 40 211
90 41 214
94 43 217
97 44 219
100 45 221
103 46 223
106 46 224
109 47 225
112 48 226
115 48 227
118 48 227
121 48 228
123 48 228
126 48 228
129 48 228
132 48 228
134 48 228
137 48 227
140 48 227
143 47 226
146 47 225
149 47 224
152 46 223
155 45 221
158 44 219
162 43 217
165 41 214
169 39 210
170 54 199
150 156 160
128 253 128
128 253 128
128 253 128
128 253 128
128 253 128
128 253 128
128 253 128
128 253 128
128 253 128
128 253 128
128 253 128
128 253 128
128 253 128
128 253 128
128 253 128
128 253 128
128 253 128
128 253 128
128 253 128
128 253 128
128 253 128
128 253 128
128 253 128
128 253 128
128 253 128
128 253 128
128 253 128
128 253 128
129 253 128
129 253 128
129 253 128
129 253 128
129 253 128
129 253 128
129 253 128
129 253 128
129 253 128
129 253 128
129 253 128
129 253 128
129 253 128
129 253 128
129 253 128
129 253 128
129 253 128
129 253 128
129 253 128
129 253 128
129 253 128
129 253 128
129 253 128
129 253 128
129 253 128
129 253 128
129 253 128
129 253 128
129 253 128
129 253 128
129 253 127
129 253 127
129 253 127
129 253 127
129 253 127
129 253 127
129 253 127
129 253 127
129 253 127
129 253 127
129 253 127
129 253 127
129 253 127
130 253 127
130 253 127
130 253 127
130 253 127
130 253 127
130 253 127
130 253 127
130 253 127
130 253 127
130 253 127
130 253 127
130 253 127
130 253 127
125 253 128
125 253 128
125 253 128
125 253 128
125 253 128
125 253 128
125 253 128
125 253 128
125 253 128
125 253 128
126 253 128
126 253 128
126 253 128
126 253 128
126 253 128
126 253 128
126 253 128
126 253 128
126 253 128
126 253 128
126 253 128
126 253 128
126 253 128
126 253 128
126 253 128
126 253 128
126 253 128
126 253 128
126 253 128
126 253 128
126 253 128
126 253 128
126 253 128
126 253 128
126 253 128
126 253 128
126 253 128
126 253 128
126 253 128
126 253 128
126 253 128
126 253 128
126 253 128
126 253 128
126 253 128
126 253 128
126 253 128
126 253 128
126 253 128
126 253 128
126 253 128
126 253 128
126 253 128
126 253 128
127 253 128
127 253 128
127 253 128
127 253 128
127 253 128
127 253 128
127 253 128
127 253 128
127 253 128
127 253 128
127 253 128
127 253 128
127 253 128
127 253 128
127 253 128
127 253 128
127 253 128
127 253 128
127 253 128
127 253 128
127 253 128
127 253 128
127 253 128
127 253 128
127 253 128
127 253 128
127 253 128
127 253 128
127 253 128
127 253 128
127 253 128
126 249 130
110 166 157
95 75 189
92 35 209
95 37 212
99 39 215
102 40 217
105 41 219
109 42 220
112 42 222
115 43 222
117 43 223
120 43 224
123 43 224
126 44 224
129 43 224
132 43 224
135 43 224
137 43 223
140 43 223
143 42 222
146 41 220
150 41 219
153 40 217
156 39 215
160 37 212
163 35 209
159 82 188
146 162 159
128 253 128
128 253 128
128 253 128
128 253 128
128 253 128
128 253 128
128 253 128
128 253 128
128 253 128
128 253 128
128 253 128
128 253 128
128 253 128
128 253 128
128 253 128
128 253 128
128 253 128
128 253 128
128 253 128
128 253 128
128 253 128
128 253 128
128 253 128
128 253 128
128 253 128
128 253 128
128 253 128
128 253 128
128 253 128
128 253 128
128 253 128
128 253 128
129 253 128
129 253 128
129 253 128
129 253 128
129 253 128
129 253 128
129 253 128
129 253 128
129 253 128
129 253 128
129 253 128
129 253 128
129 253 128
129 253 128
129 253 128
129 253 128
129 253 128
129 253 128
129 253 128
129 253 128
129 253 128
129 253 128
129 253 128
129 253 128
129 253 128
129 253 128
129 253 128
129 253 128
129 253 128
129 253 128
129 253 128
129 253 128
129 253 128
129 253 128
129 253 128
129 253 128
129 253 128
129 253 128
129 253 128
129 253 128
129 253 128
129 253 128
129 253 128
129 253 128
130 253 128
130 253 128
130 253 128
130 253 128
130 253 128
130 253 128
130 253 128
130 253 128
130 253 128
130 253 128
125 253 128
125 253 128
125 253 128
125 253 128
125 253 128
125 253 128
125 253 128
126 253 128
126 253 128
126 253 128
126 253 128
126 253 128
126 253 128
126 253 128
126 253 128
126 253 128
126 253 128
126 253 128
126 253 128
126 253 128
126 253 128
126 253 128
126 253 128
126 253 128
126 253 128
126 253 128
126 253 128
126 253 128
126 253 128
126 253 128
126 253 128
126 253 128
126 253 128
126 253 128
126 253 128
126 253 128
126 253 128
126 253 128
126 253 128
126 253 128
126 253 128
126 253 128
126 253 128
126 253 128
126 253 128
126 253 128
126 253 128
126 253 128
126 253 128
126 253 128
126 253 128
126 253 128
126 253 128
127 253 128
127 253 128
127 253 128
127 253 128
127 253 128
127 253 128
127 253 128
127 253 128
127 253 128
127 253 128
127 253 128
127 253 128
127 253 128
127 253 128
127 253 128
127 253 128
127 253 128
127 253 128
127 253 128
127 253 128
127 253 128
127 253 128
127 253 128
127 253 128
127 253 128
127 253 128
127 253 128
127 253 128
127 253 128
127 253 128
127 253 128
127 253 128
127 253 128
127 253 128
127 253 128
119 206 143
109 136 168
101 58 196
101 32 208
105 34 212
108 35 214
111 36 215
114 37 217
117 37 217
120 38 218
123 37 218
126 38 219
129 37 218
132 38 219
135 37 218
138 37 218
141 36 216
144 36 215
147 35 213
150 34 211
154 32 209
156 46 200
147 126 170
138 192 148
128 253 128
128 253 128
128 253 128
128 253 128
128 253 128
128 253 128
128 253 128
128 253 128
128 253 128
128 253 128
128 253 128
128 253 128
128 253 128
128 253 128
128 253 128
128 253 128
128 253 128
128 253 128
128 253 128
128 253 128
128 253 128
128 253 128
128 253 128
128 253 128
128 253 128
128 253 128
128 253 128
128 253 128
128 253 128
128 253 128
128 253 128
128 253 128
128 253 128
128 253 128
128 253 128
129 253 128
129 253 128
129 253 128
129 253 128
129 253 128
129 253 128
129 253 128
129 253 128
129 253 128
129 253 128
129 253 128
129 253 128
129 253 128
129 253 128
129 253 128
129 253 128
129 253 128
129 253 128
129 253 128
129 253 128
129 253 128
129 253 128
129 253 128
129 253 128
129 253 128
129 253 128
129 253 128
129 253 128
129 253 128
129 253 128
129 253 128
129 253 128
129 253 128
129 253 128
129 253 128
129 253 128
129 253 128
129 253 128
129 253 128
129 253 128
129 253 128
129 253 128
129 253 128
129 253 128
129 253 128
129 253 128
130 253 128
130 253 128
130 253 128
130 253 128
130 253 128
130 253 128
130 253 128
125 253 128
125 253 128
125 253 128
125 253 128
126 253 128
126 253 128
126 253 128
126 253 128
126 253 128
126 253 128
126 253 128
126 253 128
126 253 128
126 253 128
126 253 128
126 253 128
126 253 128
126 253 128
126 253 128
126 253 128
126 253 128
126 253 128
126 253 128
126 253 128
126 253 128
126 253 128
126 253 128
126 253 128
126 253 128
126 253 128
126 253 128
126 253 128
126 253 128
126 253 128
126 253 128
126 253 128
126 253 128
126 253 128
126 253 128
126 253 128
126 253 128
126 253 128
126 253 128
126 253 128
126 253 128
126 253 128
126 253 128
126 253 128
126 253 128
126 253 128
126 253 128
127 253 128
127 253 128
127 253 128
127 253 128
127 253 128
127 253 128
127 253 128
127 253 128
127 253 128
127 253 128
127 253 128
127 253 128
127 253 128
127 253 128
127 253 128
127 253 128
127 253 128
127 253 128
127 253 128
127 253 128
127 253 128
127 253 128
127 253 128
127 253 128
127 253 128
127 253 128
127 253 128
127 253 128
127 253 128
127 253 128
127 253 128
127 253 128
127 253 128
127 253 128
127 253 128
127 253 128
127 253 128
127 253 128
127 253 128
127 253 128
123 221 138
118 164 157
113 95 181
113 64 192
113 28 207
117 29 209
120 30 210
123 30 210
126 30 210
129 30 210
132 30 210
135 29 209
139 29 208
142 27 206
143 59 194
141 107 177
136 175 154
135 198 145
128 253 128
128 253 128
128 253 128
128 253 128
128 253 128
128 253 128
128 253 128
128 253 128
128 253 128
128 253 128
128 253 128
128 253 128
128 253 128
128 253 128
128 253 128
128 253 128
128 253 128
128 253 128
128 253 128
128 253 128
128 253 128
128 253 128
128 253 128
128 253 128
128 253 128
128 253 128
128 253 128
128 253 128
128 253 128
128 253 128
128 253 128
128 253 128
128 253 128
128 253 128
128 253 128
128 253 128
128 253 128
128 253 128
128 253 128
128 253 128
129 253 128
129 253 128
129 253 128
129 253 128
129 253 128
129 253 128
129 253 128
129 253 128
129 253 128
129 253 128
129 253 128
129 253 128
129 253 128
129 253 128
129 253 128
129 253 128
129 253 128
129 253 128
129 253 128
129 253 128
129 253 128
129 253 128
129 253 128
129 253 128
129 253 128
129 253 128
129 253 128
129 253 128
129 253 128
129 253 128
129 253 128
129 253 128
129 253 128
129 253 128
129 253 128
129 253 128
129 253 128
129 253 128
129 253 128
129 253 128
129 253 128
129 253 128
129 253 128
129 253 128
129 253 128
129 253 128
129 253 128
130 253 128
130 253 128
130 253 128
130 253 128
125 253 128
126 253 128
126 253 128
126 253 128
126 253 128
126 253 128
126 253 128
126 253 128
126 253 128
126 253 128
126 253 128
126 253 128
126 253 128
126 253 128
126 253 128
126 253 128
126 253 128
126 253 128
126 253 128
126 253 128
126 253 128
126 253 128
126 253 128
126 253 128
126 253 128
126 253 128
126 253 128
126 253 128
126 253 128
126 253 128
126 253 128
126 253 128
126 253 128
126 253 128
126 253 128
126 253 128
126 253 128
126 253 128
126 253 128
126 253 128
126 253 128
126 253 128
126 253 128
126 253 128
126 253 128
126 253 128
126 253 128
126 253 128
126 253 128
126 253 128
127 253 128
127 253 128
127 253 128
127 253 128
127 253 128
127 253 128
127 253 128
127 253 128
127 253 128
127 253 128
127 253 128
127 253 128
127 253 128
127 253 128
127 253 128
127 253 128
127 253 128
127 253 128
127 253 128
127 253 128
127 253 128
127 253 128
127 253 128
127 253 128
127 253 128
127 253 128
127 253 128
127 253 128
127 253 128
127 253 128
127 253 128
127 253 128
127 253 128
127 253 128
127 253 128
127 253 128
127 253 128
127 253 128
127 253 128
127 253 128
127 253 128
127 253 128
127 253 128
127 253 128
127 253 128
127 248 130
125 211 141
126 216 140
126 188 149
127 195 146
128 179 152
129 183 150
129 202 144
129 218 139
128 248 130
128 253 128
128 253 128
128 253 128
128 253 128
128 253 128
128 253 128
128 253 128
128 253 128
128 253 128
128 253 128
128 253 128
128 253 128
128 253 128
128 253 128
128 253 128
128 253 128
128 253 128
128 253 128
128 253 128
128 253 128
128 253 128
128 253 128
128 253 128
128 253 128
128 253 128
128 253 128
128 253 128
128 253 128
128 253 128
128 253 128
128 253 128
128 253 128
128 253 128
128 253 128
128 253 128
128 253 128
128 253 128
128 253 128
128 253 128
128 253 128
128 253 128
128 253 128
128 253 128
128 253 128
128 253 128
129 253 128
129 253 128
129 253 128
129 253 128
129 253 128
129 253 128
129 253 128
129 253 128
129 253 128
129 253 128
129 253 128
129 253 128
129 253 128
129 253 128
129 253 128
129 253 128
129 253 128
129 253 128
129 253 128
129 253 128
129 253 128
129 253 128
129 253 128
129 253 128
129 253 128
129 253 128
129 253 128
129 253 128
129 253 128
129 253 128
129 253 128
129 253 128
129 253 128
129 253 128
129 253 128
129 253 128
129 253 128
129 253 128
129 253 128
129 253 128
129 253 128
129 253 128
129 253 128
129 253 128
129 253 128
129 253 128
129 253 128
129 253 128
129 253 128
130 253 128
126 253 128
126 253 128
126 253 128
126 253 128
126 253 128
126 253 128
126 253 128
126 253 128
126 253 128
126 253 128
126 253 128
126 253 128
126 253 128
126 253 128
126 253 128
126 253 128
126 253 128
126 253 128
126 253 128
126 253 128
126 253 128
126 253 128
126 253 128
126 253 128
126 253 128
126 253 128
126 253 128
126 253 128
126 253 128
126 253 128
126 253 128
126 253 128
126 253 128
126 253 128
126 253 128
126 253 128
126 253 128
126 253 128
126 253 128
126 253 128
126 253 128
126 253 128
126 253 128
126 253 128
126 253 128
126 253 128
126 253 128
126 253 128
127 253 128
127 253 128
127 253 128
127 253 128
127 253 128
127 253 128
127 253 128
127 253 128
127 253 128
127 253 128
127 253 128
127 253 128
127 253 128
127 253 128
127 253 128
127 253 128
127 253 128
127 253 128
127 253 128
127 253 128
127 253 128
127 253 128
127 253 128
127 253 128
127 253 128
127 253 128
127 253 128
127 253 128
127 253 128
127 253 128
127 253 128
127 253 128
127 253 128
127 253 128
127 253 128
127 253 128
127 253 128
127 253 128
127 253 128
127 253 128
127 253 128
127 253 128
127 253 128
127 253 128
127 253 128
127 253 128
127 253 128
127 253 128
127 253 128
127 253 128
127 253 128
127 253 128
128 253 128
128 253 128
128 253 128
128 253 128
128 253 128
128 253 128
128 253 128
128 253 128
128 253 128
128 253 128
128 253 128
128 253 128
128 253 128
128 253 128
128 253 128
128 253 128
128 253 128
128 253 128
128 253 128
128 253 128
128 253 128
128 253 128
128 253 128
128 253 128
128 253 128
128 253 128
128 253 128
128 253 128
128 253 128
128 253 128
128 253 128
128 253 128
128 253 128
128 253 128
128 253 128
128 253 128
128 253 128
128 253 128
128 253 128
128 253 128
128 253 128
128 253 128
128 253 128
128 253 128
128 253 128
128 253 128
128 253 128
128 253 128
128 253 128
128 253 128
128 253 128
128 253 128
129 253 128
129 253 128
129 253 128
129 253 128
129 253 128
129 253 128
129 253 128
129 253 128
129 253 128
129 253 128
129 253 128
129 253 128
129 253 128
129 253 128
129 253 128
129 253 128
129 253 128
129 253 128
129 253 128
129 253 128
129 253 128
129 253 128
129 253 128
129 253 128
129 253 128
129 253 128
129 253 128
129 253 128
129 253 128
129 253 128
129 253 128
129 253 128
129 253 128
129 253 128
129 253 128
129 253 128
129 253 128
129 253 128
129 253 128
129 253 128
129 253 128
129 253 128
129 253 128
129 253 128
129 253 128
129 253 128
129 253 128
129 253 128
126 253 128
126 253 128
126 253 128
126 253 128
126 253 128
126 253 128
126 253 128
126 253 128
126 253 128
126 253 128
126 253 128
126 253 128
126 253 128
126 253 128
126 253 128
126 253 128
126 253 128
126 253 128
126 253 128
126 253 128
126 253 128
126 253 128
126 253 128
126 253 128
126 253 128
126 253 128
126 253 128
126 253 128
126 253 128
126 253 128
126 253 128
126 253 128
126 253 128
126 253 128
126 253 128
126 253 128
126 253 128
126 253 128
126 253 128
126 253 128
126 253 128
126 253 128
126 253 128
126 253 128
126 253 128
126 253 128
127 253 128
127 253 128
127 253 128
127 253 128
127 253 128
127 253 128
127 253 128
127 253 128
127 253 128
127 253 128
127 253 128
127 253 128
127 253 128
127 253 128
127 253 128
127 253 128
127 253 128
127 253 128
127 253 128
127 253 128
127 253 128
127 253 128
127 253 128
127 253 128
127 253 128
127 253 128
127 253 128
127 253 128
127 253 128
127 253 128
127 253 128
127 253 128
127 253 128
127 253 128
127 253 128
127 253 128
127 253 128
127 253 128
127 253 128
127 253 128
127 253 128
127 253 128
127 253 128
127 253 128
127 253 128
127 253 128
127 253 128
127 253 128
127 253 128
127 253 128
127 253 128
127 253 128
127 253 128
127 253 128
128 253 128
128 253 128
128 253 128
128 253 128
128 253 128
128 253 128
128 253 128
128 253 128
128 253 128
128 253 128
128 253 128
128 253 128
128 253 128
128 253 128
128 253 128
128 253 128
128 253 128
128 253 128
128 253 128
128 253 128
128 253 128
128 253 128
128 253 128
128 253 128
128 253 128
128 253 128
128 253 128
128 253 128
128 253 128
128 253 128
128 253 128
128 253 128
128 253 128
128 253 128
128 253 128
128 253 128
128 253 128
128 253 128
128 253 128
128 253 128
128 253 128
128 253 128
128 253 128
128 253 128
128 253 128
128 253 128
128 253 128
128 253 128
128 253 128
128 253 128
128 253 128
128 253 128
128 253 128
128 253 128
129 253 128
129 253 128
129 253 128
129 253 128
129 253 128
129 253 128
129 253 128
129 253 128
129 253 128
129 253 128
129 253 128
129 253 128
129 253 128
129 253 128
129 253 128
129 253 128
129 253 128
129 253 128
129 253 128
129 253 128
129 253 128
129 253 128
129 253 128
129 253 128
129 253 128
129 253 128
129 253 128
129 253 128
129 253 128
129 253 128
129 253 128
129 253 128
129 253 128
129 253 128
129 253 128
129 253 128
129 253 128
129 253 128
129 253 128
129 253 128
129 253 128
129 253 128
129 253 128
129 253 128
129 253 128
129 253 128
126 253 128
126 253 128
126 253 128
126 253 128
126 253 128
126 253 128
126 253 128
126 253 128
126 253 128
126 253 128
126 253 128
126 253 128
126 253 128
126 253 128
126 253 128
126 253 128
126 253 128
126 253 128
126 253 128
126 253 128
126 253 128
126 253 128
126 253 128
126 253 128
126 253 128
126 253 128
126 253 128
126 253 128
126 253 128
126 253 128
126 253 128
126 253 128
126 253 128
126 253 128
126 253 128
126 253 128
126 253 128
126 253 128
126 253 128
126 253 128
126 253 128
126 253 128
126 253 128
126 253 128
126 253 128
127 253 128
127 253 128
127 253 128
127 253 128
127 253 128
127 253 128
127 253 128
127 253 128
127 253 128
127 253 128
127 253 128
127 253 128
127 253 128
127 253 128
127 253 128
127 253 128
127 253 128
127 253 128
127 253 128
127 253 128
127 253 128
127 253 128
127 253 128
127 253 128
127 253 128
127 253 128
127 253 128
127 253 128
127 253 128
127 253 128
127 253 128
127 253 128
127 253 128
127 253 128
127 253 128
127 253 128
127 253 128
127 253 128
127 253 128
127 253 128
127 253 128
127 253 128
127 253 128
127 253 128
127 253 128
127 253 128
127 253 128
127 253 128
127 253 128
127 253 128
127 253 128
127 253 128
127 253 128
127 253 128
127 253 128
128 253 128
128 253 128
128 253 128
128 253 128
128 253 128
128 253 128
128 253 128
128 253 128
128 253 128
128 253 128
128 253 128
128 253 128
128 253 128
128 253 128
128 253 128
128 253 128
128 253 128
128 253 128
128 253 128
128 253 128
128 253 128
128 253 128
128 253 128
128 253 128
128 253 128
128 253 128
128 253 128
128 253 128
128 253 128
128 253 128
128 253 128
128 253 128
128 253 128
128 253 128
128 253 128
128 253 128
128 253 128
128 253 128
128 253 128
128 253 128
128 253 128
128 253 128
128 253 128
128 253 128
128 253 128
128 253 128
128 253 128
128 253 128
128 253 128
128 253 128
128 253 128
128 253 128
128 253 128
128 253 128
128 253 128
129 253 128
129 253 128
129 253 128
129 253 128
129 253 128
129 253 128
129 253 128
129 253 128
129 253 128
129 253 128
129 253 128
129 253 128
129 253 128
129 253 128
129 253 128
129 253 128
129 253 128
129 253 128
129 253 128
129 253 128
129 253 128
129 253 128
129 253 128
129 253 128
129 253 128
129 253 128
129 253 128
129 253 128
129 253 128
129 253 128
129 253 128
129 253 128
129 253 128
129 253 128
129 253 128
129 253 128
129 253 128
129 253 128
129 253 128
129 253 128
129 253 128
129 253 128
129 253 128
129 253 128
129 253 128
126 253 128
126 253 128
126 253 128
126 253 128
126 253 128
126 253 128
126 253 128
126 253 128
126 253 128
126 253 128
126 253 128
126 253 128
126 253 128
126 253 128
126 253 128
126 253 128
126 253 128
126 253 128
126 253 128
126 253 128
126 253 128
126 253 128
126 253 128
126 253 128
126 253 128
126 253 128
126 253 128
126 253 128
126 253 128
126 253 128
126 253 128
126 253 128
126 253 128
126 253 128
126 253 128
126 253 128
126 253 128
126 253 128
126 253 128
126 253 128
126 253 128
126 253 128
126 253 128
127 253 128
127 253 128
127 253 128
127 253 128
127 253 128
127 253 128
127 253 128
127 253 128
127 253 128
127 253 128
127 253 128
127 253 128
127 253 128
127 253 128
127 253 128
127 253 128
127 253 128
127 253 128
127 253 128
127 253 128
127 253 128
127 253 128
127 253 128
127 253 128
127 253 128
127 253 128
127 253 128
127 253 128
127 253 128
127 253 128
127 253 128
127 253 128
127 253 128
127 253 128
127 253 128
127 253 128
127 253 128
127 253 128
127 253 128
127 253 128
127 253 128
127 253 128
127 253 128
127 253 128
127 253 128
127 253 128
127 253 128
127 253 128
127 253 128
127 253 128
127 253 128
127 253 128
127 253 128
127 253 128
127 253 128
127 253 128
127 253 128
128 253 128
128 253 128
128 253 128
128 253 128
128 253 128
128 253 128
128 253 128
128 253 128
128 253 128
128 253 128
128 253 128
128 253 128
128 253 128
128 253 128
128 253 128
128 253 128
128 253 128
128 253 128
128 253 128
128 253 128
128 253 128
128 253 128
128 253 128
128 253 128
128 253 128
128 253 128
128 253 128
128 253 128
128 253 128
128 253 128
128 253 128
128 253 128
128 253 128
128 253 128
128 253 128
128 253 128
128 253 128
128 253 128
128 253 128
128 253 128
128 253 128
128 253 128
128 253 128
128 253 128
128 253 128
128 253 128
128 253 128
128 253 128
128 253 128
128 253 128
128 253 128
128 253 128
128 253 128
128 253 128
128 253 128
128 253 128
128 253 128
129 253 128
129 253 128
129 253 128
129 253 128
129 253 128
129 253 128
129 253 128
129 253 128
129 253 128
129 253 128
129 253 128
129 253 128
129 253 128
129 253 128
129 253 128
129 253 128
129 253 128
129 253 128
129 253 128
129 253 128
129 253 128
129 253 128
129 253 128
129 253 128
129 253 128
129 253 128
129 253 128
129 253 128
129 253 128
129 253 128
129 253 128
129 253 128
129 253 128
129 253 128
129 253 128
129 253 128
129 253 128
129 253 128
129 253 128
129 253 128
129 253 128
129 253 128
129 253 128
126 253 128
126 253 128
126 253 128
126 253 128
126 253 128
126 253 128
126 253 128
126 253 128
126 253 128
126 253 128
126 253 128
126 253 128
126 253 128
126 253 128
126 253 128
126 253 128
126 253 128
126 253 128
126 253 128
126 253 128
126 253 128
126 253 128
126 253 128
126 253 128
126 253 128
126 253 128
126 253 128
126 253 128
126 253 128
126 253 128
126 253 128
126 253 128
126 253 128
126 253 128
126 253 128
126 253 128
126 253 128
126 253 128
126 253 128
126 253 128
126 253 128
126 253 128
127 253 128
127 253 128
127 253 128
127 253 128
127 253 128
127 253 128
127 253 128
127 253 128
127 253 128
127 253 128
127 253 128
127 253 128
127 253 128
127 253 128
127 253 128
127 253 128
127 253 128
127 253 128
127 253 128
127 253 128
127 253 128
127 253 128
127 253 128
127 253 128
127 253 128
127 253 128
127 253 128
127 253 128
127 253 128
127 253 128
127 253 128
127 253 128
127 253 128
127 253 128
127 253 128
127 253 128
127 253 128
127 253 128
127 253 128
127 253 128
127 253 128
127 253 128
127 253 128
127 253 128
127 253 128
127 253 128
127 253 128
127 253 128
127 253 128
127 253 128
127 253 128
127 253 128
127 253 128
127 253 128
127 253 128
127 253 128
127 253 128
127 253 128
128 253 128
128 253 128
128 253 128
128 253 128
128 253 128
128 253 128
128 253 128
128 253 128
128 253 128
128 253 128
128 253 128
128 253 128
128 253 128
128 253 128
128 253 128
128 253 128
128 253 128
128 253 128
128 253 128
128 253 128
128 253 128
128 253 128
128 253 128
128 253 128
128 253 128
128 253 128
128 253 128
128 253 128
128 253 128
128 253 128
128 253 128
128 253 128
128 253 128
128 253 128
128 253 128
128 253 128
128 253 128
128 253 128
128 253 128
128 253 128
128 253 128
128 253 128
128 253 128
128 253 128
128 253 128
128 253 128
128 253 128
128 253 128
128 253 128
128 253 128
128 253 128
128 253 128
128 253 128
128 253 128
128 253 128
128 253 128
128 253 128
128 253 128
129 253 128
129 253 128
129 253 128
129 253 128
129 253 128
129 253 128
129 253 128
129 253 128
129 253 128
129 253 128
129 253 128
129 253 128
129 253 128
129 253 128
129 253 128
129 253 128
129 253 128
129 253 128
129 253 128
129 253 128
129 253 128
129 253 128
129 253 128
129 253 128
129 253 128
129 253 128
129 253 128
129 253 128
129 253 128
129 253 128
129 253 128
129 253 128
129 253 128
129 253 128
129 253 128
129 253 128
129 253 128
129 253 128
129 253 128
129 253 128
129 253 128
129 253 128
126 253 128
126 253 128
126 253 128
126 253 128
126 253 128
126 253 128
126 253 128
126 253 128
126 253 128
126 253 128
126 253 128
126 253 128
126 253 128
126 253 128
126 253 128
126 253 128
126 253 128
126 253 128
126 253 128
126 253 128
126 253 128
126 253 128
126 253 128
126 253 128
126 253 128
126 253 128
126 253 128
126 253 128
126 253 128
126 253 128
126 253 128
126 253 128
126 253 128
126 253 128
126 253 128
126 253 128
126 253 128
126 253 128
126 253 128
126 253 128
127 253 128
127 253 128
127 253 128
127 253 128
127 253 128
127 253 128
127 253 128
127 253 128
127 253 128
127 253 128
127 253 128
127 253 128
127 253 128
127 253 128
127 253 128
127 253 128
127 253 128
127 253 128
127 253 128
127 253 128
127 253 128
127 253 128
127 253 128
127 253 128
127 253 128
127 253 128
127 253 128
127 253 128
127 253 128
127 253 128
127 253 128
127 253 128
127 253 128
127 253 128
127 253 128
127 253 128
127 253 128
127 253 128
127 253 128
127 253 128
127 253 128
127 253 128
127 253 128
127 253 128
127 253 128
127 253 128
127 253 128
127 253 128
127 253 128
127 253 128
127 253 128
127 253 128
127 253 128
127 253 128
127 253 128
127 253 128
127 253 128
127 253 128
127 253 128
127 253 128
128 253 128
128 253 128
128 253 128
128 253 128
128 253 128
128 253 128
128 253 128
128 253 128
128 253 128
128 253 128
128 253 128
128 253 128
128 253 128
128 253 128
128 253 128
128 253 128
128 253 128
128 253 128
128 253 128
128 253 128
128 253 128
128 253 128
128 253 128
128 253 128
128 253 128
128 253 128
128 253 128
128 253 128
128 253 128
128 253 128
128 253 128
128 253 128
128 253 128
128 253 128
128 253 128
128 253 128
128 253 128
128 253 128
128 253 128
128 253 128
128 253 128
128 253 128
128 253 128
128 253 128
128 253 128
128 253 128
128 253 128
128 253 128
128 253 128
128 253 128
128 253 128
128 253 128
128 253 128
128 253 128
128 253 128
128 253 128
128 253 128
128 253 128
128 253 128
128 253 128
129 253 128
129 253 128
129 253 128
129 253 128
129 253 128
129 253 128
129 253 128
129 253 128
129 253 128
129 253 128
129 253 128
129 253 128
129 253 128
129 253 128
129 253 128
129 253 128
129 253 128
129 253 128
129 253 128
129 253 128
129 253 128
129 253 128
129 253 128
129 253 128
129 253 128
129 253 128
129 253 128
129 253 128
129 253 128
129 253 128
129 253 128
129 253 128
129 253 128
129 253 128
129 253 128
129 253 128
129 253 128
129 253 128
129 253 128
129 253 128
126 253 128
126 253 128
126 253 128
126 253 128
126 253 128
126 253 128
126 253 128
126 253 128
126 253 128
126 253 128
126 253 128
126 253 128
126 253 128
126 253 128
126 253 128
126 253 128
126 253 128
126 253 128
126 253 128
126 253 128
126 253 128
126 253 128
126 253 128
126 253 128
126 253 128
126 253 128
126 253 128
126 253 128
126 253 128
126 253 128
126 253 128
126 253 128
126 253 128
126 253 128
126 253 128
126 253 128
126 253 128
126 253 128
126 253 128
127 253 128
127 253 128
127 253 128
127 253 128
127 253 128
127 253 128
127 253 128
127 253 128
127 253 128
127 253 128
127 253 128
127 253 128
127 253 128
127 253 128
127 253 128
127 253 128
127 253 128
127 253 128
127 253 128
127 253 128
127 253 128
127 253 128
127 253 128
127 253 128
127 253 128
127 253 128
127 253 128
127 253 128
127 253 128
127 253 128
127 253 128
127 253 128
127 253 128
127 253 128
127 253 128
127 253 128
127 253 128
127 253 128
127 253 128
127 253 128
127 253 128
127 253 128
127 253 128
127 253 128
127 253 128
127 253 128
127 253 128
127 253 128
127 253 128
127 253 128
127 253 128
127 253 128
127 253 128
127 253 128
127 253 128
127 253 128
127 253 128
127 253 128
127 253 128
127 253 128
127 253 128
128 253 128
128 253 128
128 253 128
128 253 128
128 253 128
128 253 128
128 253 128
128 253 128
128 253 128
128 253 128
128 253 128
128 253 128
128 253 128
128 253 128
128 253 128
128 253 128
128 253 128
128 253 128
128 253 128
128 253 128
128 253 128
128 253 128
128 253 128
128 253 128
128 253 128
128 253 128
128 253 128
128 253 128
128 253 128
128 253 128
128 253 128
128 253 128
128 253 128
128 253 128
128 253 128
128 253 128
128 253 128
128 253 128
128 253 128
128 253 128
128 253 128
128 253 128
128 253 128
128 253 128
128 253 128
128 253 128
128 253 128
128 253 128
128 253 128
128 253 128
128 253 128
128 253 128
128 253 128
128 253 128
128 253 128
128 253 128
128 253 128
128 253 128
128 253 128
128 253 128
128 253 128
129 253 128
129 253 128
129 253 128
129 253 128
129 253 128
129 253 128
129 253 128
129 253 128
129 253 128
129 253 128
129 253 128
129 253 128
129 253 128
129 253 128
129 253 128
129 253 128
129 253 128
129 253 128
129 253 128
129 253 128
129 253 128
129 253 128
129 253 128
129 253 128
129 253 128
129 253 128
129 253 128
129 253 128
129 253 128
129 253 128
129 253 128
129 253 128
129 253 128
129 253 128
129 253 128
129 253 128
129 253 128
129 253 128
129 253 128
126 253 128
126 253 128
126 253 128
126 253 128
126 253 128
126 253 128
126 253 128
126 253 128
126 253 128
126 253 128
126 253 128
126 253 128
126 253 128
126 253 128
126 253 128
126 253 128
126 253 128
126 253 128
126 253 128
126 253 128
126 253 128
126 253 128
126 253 128
126 253 128
126 253 128
126 253 128
126 253 128
126 253 128
126 253 128
126 253 128
126 253 128
126 253 128
126 253 128
126 253 128
126 253 128
126 253 128
126 253 128
127 253 128
127 253 128
127 253 128
127 253 128
127 253 128
127 253 128
127 253 128
127 253 128
127 253 128
127 253 128
127 253 128
127 253 128
127 253 128
127 253 128
127 253 128
127 253 128
127 253 128
127 253 128
127 253 128
127 253 128
127 253 128
127 253 128
127 253 128
127 253 128
127 253 128
127 253 128
127 253 128
127 253 128
127 253 128
127 253 128
127 253 128
127 253 128
127 253 128
127 253 128
127 253 128
127 253 128
127 253 128
127 253 128
127 253 128
127 253 128
127 253 128
127 253 128
127 253 128
127 253 128
127 253 128
127 253 128
127 253 128
127 253 128
127 253 128
127 253 128
127 253 128
127 253 128
127 253 128
127 253 128
127 253 128
127 253 128
127 253 128
127 253 128
127 253 128
127 253 128
127 253 128
127 253 128
127 253 128
128 253 128
128 253 128
128 253 128
128 253 128
128 253 128
128 253 128
128 253 128
128 253 128
128 253 128
128 253 128
128 253 128
128 253 128
128 253 128
128 253 128
128 253 128
128 253 128
128 253 128
128 253 128
128 253 128
128 253 128
128 253 128
128 253 128
128 253 128
128 253 128
128 253 128
128 253 128
128 253 128
128 253 128
128 253 128
128 253 128
128 253 128
128 253 128
128 253 128
128 253 128
128 253 128
128 253 128
128 253 128
128 253 128
128 253 128
128 253 128
128 253 128
128 253 128
128 253 128
128 253 128
128 253 128
128 253 128
128 253 128
128 253 128
128 253 128
128 253 128
128 253 128
128 253 128
128 253 128
128 253 128
128 253 128
128 253 128
128 253 128
128 253 128
128 253 128
128 253 128
128 253 128
128 253 128
128 253 128
129 253 128
129 253 128
129 253 128
129 253 128
129 253 128
129 253 128
129 253 128
129 253 128
129 253 128
129 253 128
129 253 128
129 253 128
129 253 128
129 253 128
129 253 128
129 253 128
129 253 128
129 253 128
129 253 128
129 253 128
129 253 128
129 253 128
129 253 128
129 253 128
129 253 128
129 253 128
129 253 128
129 253 128
129 253 128
129 253 128
129 253 128
129 253 128
129 253 128
129 253 128
129 253 128
129 253 128
129 253 128
126 253 128
126 253 128
126 253 128
126 253 128
126 253 128
126 253 128
126 253 128
126 253 128
126 253 128
126 253 128
126 253 128
126 253 128
126 253 128
126 253 128
126 253 128
126 253 128
126 253 128
126 253 128
126 253 128
126 253 128
126 253 128
126 253 128
126 253 128
126 253 128
126 253 128
126 253 128
126 253 128
126 253 128
126 253 128
126 253 128
126 253 128
126 253 128
126 253 128
126 253 128
126 253 128
126 253 128
127 253 128
127 253 128
127 253 128
127 253 128
127 253 128
127 253 128
127 253 128
127 253 128
127 253 128
127 253 128
127 253 128
127 253 128
127 253 128
127 253 128
127 253 128
127 253 128
127 253 128
127 253 128
127 253 128
127 253 128
127 253 128
127 253 128
127 253 128
127 253 128
127 253 128
127 253 128
127 253 128
127 253 128
127 253 128
127 253 128
127 253 128
127 253 128
127 253 128
127 253 128
127 253 128
127 253 128
127 253 128
127 253 128
127 253 128
127 253 128
127 253 128
127 253 128
127 253 128
127 253 128
127 253 128
127 253 128
127 253 128
127 253 128
127 253 128
127 253 128
127 253 128
127 253 128
127 253 128
127 253 128
127 253 128
127 253 128
127 253 128
127 253 128
127 253 128
127 253 128
127 253 128
127 253 128
127 253 128
127 253 128
128 253 128
128 253 128
128 253 128
128 253 128
128 253 128
128 253 128
128 253 128
128 253 128
128 253 128
128 253 128
128 253 128
128 253 128
128 253 128
128 253 128
128 253 128
128 253 128
128 253 128
128 253 128
128 253 128
128 253 128
128 253 128
128 253 128
128 253 128
128 253 128
128 253 128
128 253 128
128 253 128
128 253 128
128 253 128
128 253 128
128 253 128
128 253 128
128 253 128
128 253 128
128 253 128
128 253 128
128 253 128
128 253 128
128 253 128
128 253 128
128 253 128
128 253 128
128 253 128
128 253 128
128 253 128
128 253 128
128 253 128
128 253 128
128 253 128
128 253 128
128 253 128
128 253 128
128 253 128
128 253 128
128 253 128
128 253 128
128 253 128
128 253 128
128 253 128
128 253 128
128 253 128
128 253 128
128 253 128
128 253 128
129 253 128
129 253 128
129 253 128
129 253 128
129 253 128
129 253 128
129 253 128
129 253 128
129 253 128
129 253 128
129 253 128
129 253 128
129 253 128
129 253 128
129 253 128
129 253 128
129 253 128
129 253 128
129 253 128
129 253 128
129 253 128
129 253 128
129 253 128
129 253 128
129 253 128
129 253 128
129 253 128
129 253 128
129 253 128
129 253 128
129 253 128
129 253 128
129 253 128
129 253 128
129 253 128
129 253 128
126 253 128
126 253 128
126 253 128
126 253 128
126 253 128
126 253 128
126 253 128
126 253 128
126 253 128
126 253 128
126 253 128
126 253 128
126 253 128
126 253 128
126 253 128
126 253 128
126 253 128
126 253 128
126 253 128
126 253 128
126 253 128
126 253 128
126 253 128
126 253 128
126 253 128
126 253 128
126 253 128
126 253 128
126 253 128
126 253 128
126 253 128
126 253 128
126 253 128
126 253 128
127 253 128
127 253 128
127 253 128
127 253 128
127 253 128
127 253 128
127 253 128
127 253 128
127 253 128
127 253 128
127 253 128
127 253 128
127 253 128
127 253 128
127 253 128
127 253 128
127 253 128
127 253 128
127 253 128
127 253 128
127 253 128
127 253 128
127 253 128
127 253 128
127 253 128
127 253 128
127 253 128
127 253 128
127 253 128
127 253 128
127 253 128
127 253 128
127 253 128
127 253 128
127 253 128
127 253 128
127 253 128
127 253 128
127 253 128
127 253 128
127 253 128
127 253 128
127 253 128
127 253 128
127 253 128
127 253 128
127 253 128
127 253 128
127 253 128
127 253 128
127 253 128
127 253 128
127 253 128
127 253 128
127 253 128
127 253 128
127 253 128
127 253 128
127 253 128
127 253 128
127 253 128
127 253 128
127 253 128
127 253 128
127 253 128
127 253 128
128 253 128
128 253 128
128 253 128
128 253 128
128 253 128
128 253 128
128 253 128
128 253 128
128 253 128
128 253 128
128 253 128
128 253 128
128 253 128
128 253 128
128 253 128
128 253 128
128 253 128
128 253 128
128 253 128
128 253 128
128 253 128
128 253 128
128 253 128
128 253 128
128 253 128
128 253 128
128 253 128
128 253 128
128 253 128
128 253 128
128 253 128
128 253 128
128 253 128
128 253 128
128 253 128
128 253 128
128 253 128
128 253 128
128 253 128
128 253 128
128 253 128
128 253 128
128 253 128
128 253 128
128 253 128
128 253 128
128 253 128
128 253 128
128 253 128
128 253 128
128 253 128
128 253 128
128 253 128
128 253 128
128 253 128
128 253 128
128 253 128
128 253 128
128 253 128
128 253 128
128 253 128
128 253 128
128 253 128
128 253 128
128 253 128
128 253 128
129 253 128
129 253 128
129 253 128
129 253 128
129 253 128
129 253 128
129 253 128
129 253 128
129 253 128
129 253 128
129 253 128
129 253 128
129 253 128
129 253 128
129 253 128
129 253 128
129 253 128
129 253 128
129 253 128
129 253 128
129 253 128
129 253 128
129 253 128
129 253 128
129 253 128
129 253 128
129 253 128
129 253 128
129 253 128
129 253 128
129 253 128
129 253 128
129 253 128
129 253 128
126 253 128
126 253 128
126 253 128
126 253 128
126 253 128
126 253 128
126 253 128
126 253 128
126 253 128
126 253 128
126 253 128
126 253 128
126 253 128
126 253 128
126 253 128
126 253 128
126 253 128
126 253 128
126 253 128
126 253 128
126 253 128
126 253 128
126 253 128
126 253 128
126 253 128
126 253 128
126 253 128
126 253 128
126 253 128
126 253 128
126 253 128
126 253 128
126 253 128
127 253 128
127 253 128
127 253 128
127 253 128
127 253 128
127 253 128
127 253 128
127 253 128
127 253 128
127 253 128
127 253 128
127 253 128
127 253 128
127 253 128
127 253 128
127 253 128
127 253 128
127 253 128
127 253 128
127 253 128
127 253 128
127 253 128
127 253 128
127 253 128
127 253 128
127 253 128
127 253 128
127 253 128
127 253 128
127 253 128
127 253 128
127 253 128
127 253 128
127 253 128
127 253 128
127 253 128
127 253 128
127 253 128
127 253 128
127 253 128
127 253 128
127 253 128
127 253 128
127 253 128
127 253 128
127 253 128
127 253 128
127 253 128
127 253 128
127 253 128
127 253 128
127 253 128
127 253 128
127 253 128
127 253 128
127 253 128
127 253 128
127 253 128
127 253 128
127 253 128
127 253 128
127 253 128
127 253 128
127 253 128
127 253 128
127 253 128
127 253 128
128 253 128
128 253 128
128 253 128
128 253 128
128 253 128
128 253 128
128 253 128
128 253 128
128 253 128
128 253 128
128 253 128
128 253 128
128 253 128
128 253 128
128 253 128
128 253 128
128 253 128
128 253 128
128 253 128
128 253 128
128 253 128
128 253 128
128 253 128
128 253 128
128 253 128
128 253 128
128 253 128
128 253 128
128 253 128
128 253 128
128 253 128
128 253 128
128 253 128
128 253 128
128 253 128
128 253 128
128 253 128
128 253 128
128 253 128
128 253 128
128 253 128
128 253 128
128 253 128
128 253 128
128 253 128
128 253 128
128 253 128
128 253 128
128 253 128
128 253 128
128 253 128
128 253 128
128 253 128
128 253 128
128 253 128
128 253 128
128 253 128
128 253 128
128 253 128
128 253 128
128 253 128
128 253 128
128 253 128
128 253 128
128 253 128
128 253 128
128 253 128
129 253 128
129 253 128
129 253 128
129 253 128
129 253 128
129 253 128
129 253 128
129 253 128
129 253 128
129 253 128
129 253 128
129 253 128
129 253 128
129 253 128
129 253 128
129 253 128
129 253 128
129 253 128
129 253 128
129 253 128
129 253 128
129 253 128
129 253 128
129 253 128
129 253 128
129 253 128
129 253 128
129 253 128
129 253 128
129 253 128
129 253 128
129 253 128
129 253 128
126 253 128
126 253 128
126 253 128
126 253 128
126 253 128
126 253 128
126 253 128
126 253 128
126 253 128
126 253 128
126 253 128
126 253 128
126 253 128
126 253 128
126 253 128
126 253 128
126 253 128
126 253 128
126 253 128
126 253 128
126 253 128
126 253 128
126 253 128
126 253 128
126 253 128
126 253 128
126 253 128
126 253 128
126 253 128
126 253 128
126 253 128
127 253 128
127 253 128
127 253 128
127 253 128
127 253 128
127 253 128
127 253 128
127 253 128
127 253 128
127 253 128
127 253 128
127 253 128
127 253 128
127 253 128
127 253 128
127 253 128
127 253 128
127 253 128
127 253 128
127 253 128
127 253 128
127 253 128
127 253 128
127 253 128
127 253 128
127 253 128
127 253 128
127 253 128
127 253 128
127 253 128
127 253 128
127 253 128
127 253 128
127 253 128
127 253 128
127 253 128
127 253 128
127 253 128
127 253 128
127 253 128
127 253 128
127 253 128
127 253 128
127 253 128
127 253 128
127 253 128
127 253 128
127 253 128
127 253 128
127 253 128
127 253 128
127 253 128
127 253 128
127 253 128
127 253 128
127 253 128
127 253 128
127 253 128
127 253 128
127 253 128
127 253 128
127 253 128
127 253 128
127 253 128
127 253 128
127 253 128
127 253 128
127 253 128
127 253 128
128 253 128
128 253 128
128 253 128
128 253 128
128 253 128
128 253 128
128 253 128
128 253 128
128 253 128
128 253 128
128 253 128
128 253 128
128 253 128
128 253 128
128 253 128
128 253 128
128 253 128
128 253 128
128 253 128
128 253 128
128 253 128
128 253 128
128 253 128
128 253 128
128 253 128
128 253 128
128 253 128
128 253 128
128 253 128
128 253 128
128 253 128
128 253 128
128 253 128
128 253 128
128 253 128
128 253 128
128 253 128
128 253 128
128 253 128
128 253 128
128 253 128
128 253 128
128 253 128
128 253 128
128 253 128
128 253 128
128 253 128
128 253 128
128 253 128
128 253 128
128 253 128
128 253 128
128 253 128
128 253 128
128 253 128
128 253 128
128 253 128
128 253 128
128 253 128
128 253 128
128 253 128
128 253 128
128 253 128
128 253 128
128 253 128
128 253 128
128 253 128
128 253 128
128 253 128
129 253 128
129 253 128
129 253 128
129 253 128
129 253 128
129 253 128
129 253 128
129 253 128
129 253 128
129 253 128
129 253 128
129 253 128
129 253 128
129 253 128
129 253 128
129 253 128
129 253 128
129 253 128
129 253 128
129 253 128
129 253 128
129 253 128
129 253 128
129 253 128
129 253 128
129 253 128
129 253 128
129 253 128
129 253 128
129 253 128
129 253 128
126 253 128
126 253 128
126 253 128
126 253 128
126 253 128
126 253 128
126 253 128
126 253 128
126 253 128
126 253 128
126 253 128
126 253 128
126 253 128
126 253 128
126 253 128
126 253 128
126 253 128
126 253 128
126 253 128
126 253 128
126 253 128
126 253 128
126 253 128
126 253 128
126 253 128
126 253 128
126 253 128
126 253 128
126 253 128
127 253 128
127 253 128
127 253 128
127 253 128
127 253 128
127 253 128
127 253 128
127 253 128
127 253 128
127 253 128
127 253 128
127 253 128
127 253 128
127 253 128
127 253 128
127 253 128
127 253 128
127 253 128
127 253 128
127 253 128
127 253 128
127 253 128
127 253 128
127 253 128
127 253 128
127 253 128
127 253 128
127 253 128
127 253 128
127 253 128
127 253 128
127 253 128
127 253 128
127 253 128
127 253 128
127 253 128
127 253 128
127 253 128
127 253 128
127 253 128
127 253 128
127 253 128
127 253 128
127 253 128
127 253 128
127 253 128
127 253 128
127 253 128
127 253 128
127 253 128
127 253 128
127 253 128
127 253 128
127 253 128
127 253 128
127 253 128
127 253 128
127 253 128
127 253 128
127 253 128
127 253 128
127 253 128
127 253 128
127 253 128
127 253 128
127 253 128
127 253 128
127 253 128
127 253 128
127 253 128
127 253 128
128 253 128
128 253 128
128 253 128
128 253 128
128 253 128
128 253 128
128 253 128
128 253 128
128 253 128
128 253 128
128 253 128
128 253 128
128 253 128
128 253 128
128 253 128
128 253 128
128 253 128
128 253 128
128 253 128
128 253 128
128 253 128
128 253 128
128 253 128
128 253 128
128 253 128
128 253 128
128 253 128
128 253 128
128 253 128
128 253 128
128 253 128
128 253 128
128 253 128
128 253 128
128 253 128
128 253 128
128 253 128
128 253 128
128 253 128
128 253 128
128 253 128
128 253 128
128 253 128
128 253 128
128 253 128
128 253 128
128 253 128
128 253 128
128 253 128
128 253 128
128 253 128
128 253 128
128 253 128
128 253 128
128 253 128
128 253 128
128 253 128
128 253 128
128 253 128
128 253 128
128 253 128
128 253 128
128 253 128
128 253 128
128 253 128
128 253 128
128 253 128
128 253 128
128 253 128
128 253 128
128 253 128
129 253 128
129 253 128
129 253 128
129 253 128
129 253 128
129 253 128
129 253 128
129 253 128
129 253 128
129 253 128
129 253 128
129 253 128
129 253 128
129 253 128
129 253 128
129 253 128
129 253 128
129 253 128
129 253 128
129 253 128
129 253 128
129 253 128
129 253 128
129 253 128
129 253 128
129 253 128
129 253 128
129 253 128
129 253 128
126 253 128
126 253 128
126 253 128
126 253 128
126 253 128
126 253 128
126 253 128
126 253 128
126 253 128
126 253 128
126 253 128
126 253 128
126 253 128
126 253 128
126 253 128
126 253 128
126 253 128
126 253 128
126 253 128
126 253 128
126 253 128
126 253 128
126 253 128
126 253 128
126 253 128
126 253 128
126 253 128
126 253 128
127 253 128
127 253 128
127 253 128
127 253 128
127 253 128
127 253 128
127 253 128
127 253 128
127 253 128
127 253 128
127 253 128
127 253 128
127 253 128
127 253 128
127 253 128
127 253 128
127 253 128
127 253 128
127 253 128
127 253 128
127 253 128
127 253 128
127 253 128
127 253 128
127 253 128
127 253 128
127 253 128
127 253 128
127 253 128
127 253 128
127 253 128
127 253 128
127 253 128
127 253 128
127 253 128
127 253 128
127 253 128
127 253 128
127 253 128
127 253 128
127 253 128
127 253 128
127 253 128
127 253 128
127 253 128
127 253 128
127 253 128
127 253 128
127 253 128
127 253 128
127 253 128
127 253 128
127 253 128
127 253 128
127 253 128
127 253 128
127 253 128
127 253 128
127 253 128
127 253 128
127 253 128
127 253 128
127 253 128
127 253 128
127 253 128
127 253 128
127 253 128
127 253 128
127 253 128
127 253 128
127 253 128
127 253 128
128 253 128
128 253 128
128 253 128
128 253 128
128 253 128
128 253 128
128 253 128
128 253 128
128 253 128
128 253 128
128 253 128
128 253 128
128 253 128
128 253 128
128 253 128
128 253 128
128 253 128
128 253 128
128 253 128
128 253 128
128 253 128
128 253 128
128 253 128
128 253 128
128 253 128
128 253 128
128 253 128
128 253 128
128 253 128
128 253 128
128 253 128
128 253 128
128 253 128
128 253 128
128 253 128
128 253 128
128 253 128
128 253 128
128 253 128
128 253 128
128 253 128
128 253 128
128 253 128
128 253 128
128 253 128
128 253 128
128 253 128
128 253 128
128 253 128
128 253 128
128 253 128
128 253 128
128 253 128
128 253 128
128 253 128
128 253 128
128 253 128
128 253 128
128 253 128
128 253 128
128 253 128
128 253 128
128 253 128
128 253 128
128 253 128
128 253 128
128 253 128
128 253 128
128 253 128
128 253 128
128 253 128
128 253 128
129 253 128
129 253 128
129 253 128
129 253 128
129 253 128
129 253 128
129 253 128
129 253 128
129 253 128
129 253 128
129 253 128
129 253 128
129 253 128
129 253 128
129 253 128
129 253 128
129 253 128
129 253 128
129 253 128
129 253 128
129 253 128
129 253 128
129 253 128
129 253 128
129 253 128
129 253 128
129 253 128
129 253 128
126 253 128
126 253 128
126 253 128
126 253 128
126 253 128
126 253 128
126 253 128
126 253 128
126 253 128
126 253 128
126 253 128
126 253 128
126 253 128
126 253 128
126 253 128
126 253 128
126 253 128
126 253 128
126 253 128
126 253 128
126 253 128
126 253 128
126 253 128
126 253 128
126 253 128
126 253 128
127 253 128
127 253 128
127 253 128
127 253 128
127 253 128
127 253 128
127 253 128
127 253 128
127 253 128
127 253 128
127 253 128
127 253 128
127 253 128
127 253 128
127 253 128
127 253 128
127 253 128
127 253 128
127 253 128
127 253 128
127 253 128
127 253 128
127 253 128
127 253 128
127 253 128
127 253 128
127 253 128
127 253 128
127 253 128
127 253 128
127 253 128
127 253 128
127 253 128
127 253 128
127 253 128
127 253 128
127 253 128
127 253 128
127 253 128
127 253 128
127 253 128
127 253 128
127 253 128
127 253 128
127 253 128
127 253 128
127 253 128
127 253 128
127 253 128
127 253 128
127 253 128
127 253 128
127 253 128
127 253 128
127 253 128
127 253 128
127 253 128
127 253 128
127 253 128
127 253 128
127 253 128
127 253 128
127 253 128
127 253 128
127 253 128
127 253 128
127 253 128
127 253 128
127 253 128
127 253 128
127 253 128
127 253 128
127 253 128
127 253 128
128 253 128
128 253 128
128 253 128
128 253 128
128 253 128
128 253 128
128 253 128
128 253 128
128 253 128
128 253 128
128 253 128
128 253 128
128 253 128
128 253 128
128 253 128
128 253 128
128 253 128
128 253 128
128 253 128
128 253 128
128 253 128
128 253 128
128 253 128
128 253 128
128 253 128
128 253 128
128 253 128
128 253 128
128 253 128
128 253 128
128 253 128
128 253 128
128 253 128
128 253 128
128 253 128
128 253 128
128 253 128
128 253 128
128 253 128
128 253 128
128 253 128
128 253 128
128 253 128
128 253 128
128 253 128
128 253 128
128 253 128
128 253 128
128 253 128
128 253 128
128 253 128
128 253 128
128 253 128
128 253 128
128 253 128
128 253 128
128 253 128
128 253 128
128 253 128
128 253 128
128 253 128
128 253 128
128 253 128
128 253 128
128 253 128
128 253 128
128 253 128
128 253 128
128 253 128
128 253 128
128 253 128
128 253 128
128 253 128
128 253 128
129 253 128
129 253 128
129 253 128
129 253 128
129 253 128
129 253 128
129 253 128
129 253 128
129 253 128
129 253 128
129 253 128
129 253 128
129 253 128
129 253 128
129 253 128
129 253 128
129 253 128
129 253 128
129 253 128
129 253 128
129 253 128
129 253 128
129 253 128
129 253 128
129 253 128
129 253 128
126 253 128
126 253 128
126 253 128
126 253 128
126 253 128
126 253 128
126 253 128
126 253 128
126 253 128
126 253 128
126 253 128
126 253 128
126 253 128
126 253 128
126 253 128
126 253 128
126 253 128
126 253 128
126 253 128
126 253 128
126 253 128
126 253 128
126 253 128
126 253 128
126 253 128
127 253 128
127 253 128
127 253 128
127 253 128
127 253 128
127 253 128
127 253 128
127 253 128
127 253 128
127 253 128
127 253 128
127 253 128
127 253 128
127 253 128
127 253 128
127 253 128
127 253 128
127 253 128
127 253 128
127 253 128
127 253 128
127 253 128
127 253 128
127 253 128
127 253 128
127 253 128
127 253 128
127 253 128
127 253 128
127 253 128
127 253 128
127 253 128
127 253 128
127 253 128
127 253 128
127 253 128
127 253 128
127 253 128
127 253 128
127 253 128
127 253 128
127 253 128
127 253 128
127 253 128
127 253 128
127 253 128
127 253 128
127 253 128
127 253 128
127 253 128
127 253 128
127 253 128
127 253 128
127 253 128
127 253 128
127 253 128
127 253 128
127 253 128
127 253 128
127 253 128
127 253 128
127 253 128
127 253 128
127 253 128
127 253 128
127 253 128
127 253 128
127 253 128
127 253 128
127 253 128
127 253 128
127 253 128
127 253 128
127 253 128
127 253 128
128 253 128
128 253 128
128 253 128
128 253 128
128 253 128
128 253 128
128 253 128
128 253 128
128 253 128
128 253 128
128 253 128
128 253 128
128 253 128
128 253 128
128 253 128
128 253 128
128 253 128
128 253 128
128 253 128
128 253 128
128 253 128
128 253 128
128 253 128
128 253 128
128 253 128
128 253 128
128 253 128
128 253 128
128 253 128
128 253 128
128 253 128
128 253 128
128 253 128
128 253 128
128 253 128
128 253 128
128 253 128
128 253 128
128 253 128
128 253 128
128 253 128
128 253 128
128 253 128
128 253 128
128 253 128
128 253 128
128 253 128
128 253 128
128 253 128
128 253 128
128 253 128
128 253 128
128 253 128
128 253 128
128 253 128
128 253 128
128 253 128
128 253 128
128 253 128
128 253 128
128 253 128
128 253 128
128 253 128
128 253 128
128 253 128
128 253 128
128 253 128
128 253 128
128 253 128
128 253 128
128 253 128
128 253 128
128 253 128
128 253 128
128 253 128
129 253 128
129 253 128
129 253 128
129 253 128
129 253 128
129 253 128
129 253 128
129 253 128
129 253 128
129 253 128
129 253 128
129 253 128
129 253 128
129 253 128
129 253 128
129 253 128
129 253 128
129 253 128
129 253 128
129 253 128
129 253 128
129 253 128
129 253 128
129 253 128
129 253 128
126 253 128
126 253 128
126 253 128
126 253 128
126 253 128
126 253 128
126 253 128
126 253 128
126 253 128
126 253 128
126 253 128
126 253 128
126 253 128
126 253 128
126 253 128
126 253 128
126 253 128
126 253 128
126 253 128
126 253 128
126 253 128
126 253 128
126 253 128
127 253 128
127 253 128
127 253 128
127 253 128
127 253 128
127 253 128
127 253 128
127 253 128
127 253 128
127 253 128
127 253 128
127 253 128
127 253 128
127 253 128
127 253 128
127 253 128
127 253 128
127 253 128
127 253 128
127 253 128
127 253 128
127 253 128
127 253 128
127 253 128
127 253 128
127 253 128
127 253 128
127 253 128
127 253 128
127 253 128
127 253 128
127 253 128
127 253 128
127 253 128
127 253 128
127 253 128
127 253 128
127 253 128
127 253 128
127 253 128
127 253 128
127 253 128
127 253 128
127 253 128
127 253 128
127 253 128
127 253 128
127 253 128
127 253 128
127 253 128
127 253 128
127 253 128
127 253 128
127 253 128
127 253 128
127 253 128
127 253 128
127 253 128
127 253 128
127 253 128
127 253 128
127 253 128
127 253 128
127 253 128
127 253 128
127 253 128
127 253 128
127 253 128
127 253 128
127 253 128
127 253 128
127 253 128
127 253 128
127 253 128
127 253 128
127 253 128
127 253 128
128 253 128
128 253 128
128 253 128
128 253 128
128 253 128
128 253 128
128 253 128
128 253 128
128 253 128
128 253 128
128 253 128
128 253 128
128 253 128
128 253 128
128 253 128
128 253 128
128 253 128
128 253 128
128 253 128
128 253 128
128 253 128
128 253 128
128 253 128
128 253 128
128 253 128
128 253 128
128 253 128
128 253 128
128 253 128
128 253 128
128 253 128
128 253 128
128 253 128
128 253 128
128 253 128
128 253 128
128 253 128
128 253 128
128 253 128
128 253 128
128 253 128
128 253 128
128 253 128
128 253 128
128 253 128
128 253 128
128 253 128
128 253 128
128 253 128
128 253 128
128 253 128
128 253 128
128 253 128
128 253 128
128 253 128
128 253 128
128 253 128
128 253 128
128 253 128
128 253 128
128 253 128
128 253 128
128 253 128
128 253 128
128 253 128
128 253 128
128 253 128
128 253 128
128 253 128
128 253 128
128 253 128
128 253 128
128 253 128
128 253 128
128 253 128
128 253 128
128 253 128
129 253 128
129 253 128
129 253 128
129 253 128
129 253 128
129 253 128
129 253 128
129 253 128
129 253 128
129 253 128
129 253 128
129 253 128
129 253 128
129 253 128
129 253 128
129 253 128
129 253 128
129 253 128
129 253 128
129 253 128
129 253 128
129 253 128
129 253 128
126 253 128
126 253 128
126 253 128
126 253 128
126 253 128
126 253 128
126 253 128
126 253 128
126 253 128
126 253 128
126 253 128
126 253 128
126 253 128
126 253 128
126 253 128
126 253 128
126 253 128
126 253 128
126 253 128
126 253 128
126 253 128
126 253 128
127 253 128
127 253 128
127 253 128
127 253 128
127 253 128
127 253 128
127 253 128
127 253 128
127 253 128
127 253 128
127 253 128
127 253 128
127 253 128
127 253 128
127 253 128
127 253 128
127 253 128
127 253 128
127 253 128
127 253 128
127 253 128
127 253 128
127 253 128
127 253 128
127 253 128
127 253 128
127 253 128
127 253 128
127 253 128
127 253 128
127 253 128
127 253 128
127 253 128
127 253 128
127 253 128
127 253 128
127 253 128
127 253 128
127 253 128
127 253 128
127 253 128
127 253 128
127 253 128
127 253 128
127 253 128
127 253 128
127 253 128
127 253 128
127 253 128
127 253 128
127 253 128
127 253 128
127 253 128
127 253 128
127 253 128
127 253 128
127 253 128
127 253 128
127 253 128
127 253 128
127 253 128
127 253 128
127 253 128
127 253 128
127 253 128
127 253 128
127 253 128
127 253 128
127 253 128
127 253 128
127 253 128
127 253 128
127 253 128
127 253 128
127 253 128
127 253 128
127 253 128
127 253 128
128 253 128
128 253 128
128 253 128
128 253 128
128 253 128
128 253 128
128 253 128
128 253 128
128 253 128
128 253 128
128 253 128
128 253 128
128 253 128
128 253 128
128 253 128
128 253 128
128 253 128
128 253 128
128 253 128
128 253 128
128 253 128
128 253 128
128 253 128
128 253 128
128 253 128
128 253 128
128 253 128
128 253 128
128 253 128
128 253 128
128 253 128
128 253 128
128 253 128
128 253 128
128 253 128
128 253 128
128 253 128
128 253 128
128 253 128
128 253 128
128 253 128
128 253 128
128 253 128
128 253 128
128 253 128
128 253 128
128 253 128
128 253 128
128 253 128
128 253 128
128 253 128
128 253 128
128 253 128
128 253 128
128 253 128
128 253 128
128 253 128
128 253 128
128 253 128
128 253 128
128 253 128
128 253 128
128 253 128
128 253 128
128 253 128
128 253 128
128 253 128
128 253 128
128 253 128
128 253 128
128 253 128
128 253 128
128 253 128
128 253 128
128 253 128
128 253 128
128 253 128
128 253 128
129 253 128
129 253 128
129 253 128
129 253 128
129 253 128
129 253 128
129 253 128
129 253 128
129 253 128
129 253 128
129 253 128
129 253 128
129 253 128
129 253 128
129 253 128
129 253 128
129 253 128
129 253 128
129 253 128
129 253 128
129 253 128
129 253 128
126 253 128
126 253 128
126 253 128
126 253 128
126 253 128
126 253 128
126 253 128
126 253 128
126 253 128
126 253 128
126 253 128
126 253 128
126 253 128
126 253 128
126 253 128
126 253 128
126 253 128
126 253 128
126 253 128
126 253 128
127 253 128
127 253 128
127 253 128
127 253 128
127 253 128
127 253 128
127 253 128
127 253 128
127 253 128
127 253 128
127 253 128
127 253 128
127 253 128
127 253 128
127 253 128
127 253 128
127 253 128
127 253 128
127 253 128
127 253 128
127 253 128
127 253 128
127 253 128
127 253 128
127 253 128
127 253 128
127 253 128
127 253 128
127 253 128
127 253 128
127 253 128
127 253 128
127 253 128
127 253 128
127 253 128
127 253 128
127 253 128
127 253 128
127 253 128
127 253 128
127 253 128
127 253 128
127 253 128
127 253 128
127 253 128
127 253 128
127 253 128
127 253 128
127 253 128
127 253 128
127 253 128
127 253 128
127 253 128
127 253 128
127 253 128
127 253 128
127 253 128
127 253 128
127 253 128
127 253 128
127 253 128
127 253 128
127 253 128
127 253 128
127 253 128
127 253 128
127 253 128
127 253 128
127 253 128
127 253 128
127 253 128
127 253 128
127 253 128
127 253 128
127 253 128
127 253 128
127 253 128
127 253 128
127 253 128
127 253 128
128 253 128
128 253 128
128 253 128
128 253 128
128 253 128
128 253 128
128 253 128
128 253 128
128 253 128
128 253 128
128 253 128
128 253 128
128 253 128
128 253 128
128 253 128
128 253 128
128 253 128
128 253 128
128 253 128
128 253 128
128 253 128
128 253 128
128 253 128
128 253 128
128 253 128
128 253 128
128 253 128
128 253 128
128 253 128
128 253 128
128 253 128
128 253 128
128 253 128
128 253 128
128 253 128
128 253 128
128 253 128
128 253 128
128 253 128
128 253 128
128 253 128
128 253 128
128 253 128
128 253 128
128 253 128
128 253 128
128 253 128
128 253 128
128 253 128
128 253 128
128 253 128
128 253 128
128 253 128
128 253 128
128 253 128
128 253 128
128 253 128
128 253 128
128 253 128
128 253 128
128 253 128
128 253 128
128 253 128
128 253 128
128 253 128
128 253 128
128 253 128
128 253 128
128 253 128
128 253 128
128 253 128
128 253 128
128 253 128
128 253 128
128 253 128
128 253 128
128 253 128
128 253 128
128 253 128
128 253 128
129 253 128
129 253 128
129 253 128
129 253 128
129 253 128
129 253 128
129 253 128
129 253 128
129 253 128
129 253 128
129 253 128
129 253 128
129 253 128
129 253 128
129 253 128
129 253 128
129 253 128
129 253 128
129 253 128
129 253 128
126 253 128
126 253 128
126 253 128
126 253 128
126 253 128
126 253 128
126 253 128
126 253 128
126 253 128
126 253 128
126 253 128
126 253 128
126 253 128
126 253 128
126 253 128
126 253 128
126 253 128
126 253 128
126 253 128
127 253 128
127 253 128
127 253 128
127 253 128
127 253 128
127 253 128
127 253 128
127 253 128
127 253 128
127 253 128
127 253 128
127 253 128
127 253 128
127 253 128
127 253 128
127 253 128
127 253 128
127 253 128
127 253 128
127 253 128
127 253 128
127 253 128
127 253 128
127 253 128
127 253 128
127 253 128
127 253 128
127 253 128
127 253 128
127 253 128
127 253 128
127 253 128
127 253 128
127 253 128
127 253 128
127 253 128
127 253 128
127 253 128
127 253 128
127 253 128
127 253 128
127 253 128
127 253 128
127 253 128
127 253 128
127 253 128
127 253 128
127 253 128
127 253 128
127 253 128
127 253 128
127 253 128
127 253 128
127 253 128
127 253 128
127 253 128
127 253 128
127 253 128
127 253 128
127 253 128
127 253 128
127 253 128
127 253 128
127 253 128
127 253 128
127 253 128
127 253 128
127 253 128
127 253 128
127 253 128
127 253 128
127 253 128
127 253 128
127 253 128
127 253 128
127 253 128
127 253 128
127 253 128
127 253 128
127 253 128
127 253 128
128 253 128
128 253 128
128 253 128
128 253 128
128 253 128
128 253 128
128 253 128
128 253 128
128 253 128
128 253 128
128 253 128
128 253 128
128 253 128
128 253 128
128 253 128
128 253 128
128 253 128
128 253 128
128 253 128
128 253 128
128 253 128
128 253 128
128 253 128
128 253 128
128 253 128
128 253 128
128 253 128
128 253 128
128 253 128
128 253 128
128 253 128
128 253 128
128 253 128
128 253 128
128 253 128
128 253 128
128 253 128
128 253 128
128 253 128
128 253 128
128 253 128
128 253 128
128 253 128
128 253 128
128 253 128
128 253 128
128 253 128
128 253 128
128 253 128
128 253 128
128 253 128
128 253 128
128 253 128
128 253 128
128 253 128
128 253 128
128 253 128
128 253 128
128 253 128
128 253 128
128 253 128
128 253 128
128 253 128
128 253 128
128 253 128
128 253 128
128 253 128
128 253 128
128 253 128
128 253 128
128 253 128
128 253 128
128 253 128
128 253 128
128 253 128
128 253 128
128 253 128
128 253 128
128 253 128
128 253 128
128 253 128
129 253 128
129 253 128
129 253 128
129 253 128
129 253 128
129 253 128
129 253 128
129 253 128
129 253 128
129 253 128
129 253 128
129 253 128
129 253 128
129 253 128
129 253 128
129 253 128
129 253 128
129 253 128
129 253 128
126 253 128
126 253 128
126 253 128
126 253 128
126 253 128
126 253 128
126 253 128
126 253 128
126 253 128
126 253 128
126 253 128
126 253 128
126 253 128
126 253 128
126 253 128
126 253 128
126 253 128
127 253 128
127 253 128
127 253 128
127 253 128
127 253 128
127 253 128
127 253 128
127 253 128
127 253 128
127 253 128
127 253 128
127 253 128
127 253 128
127 253 128
127 253 128
127 253 128
127 253 128
127 253 128
127 253 128
127 253 128
127 253 128
127 253 128
127 253 128
127 253 128
127 253 128
127 253 128
127 253 128
127 253 128
127 253 128
127 253 128
127 253 128
127 253 128
127 253 128
127 253 128
127 253 128
127 253 128
127 253 128
127 253 128
127 253 128
127 253 128
127 253 128
127 253 128
127 253 128
127 253 128
127 253 128
127 253 128
127 253 128
127 253 128
127 253 128
127 253 128
127 253 128
127 253 128
127 253 128
127 253 128
127 253 128
127 253 128
127 253 128
127 253 128
127 253 128
127 253 128
127 253 128
127 253 128
127 253 128
127 253 128
127 253 128
127 253 128
127 253 128
127 253 128
127 253 128
127 253 128
127 253 128
127 253 128
127 253 128
127 253 128
127 253 128
127 253 128
127 253 128
127 253 128
127 253 128
127 253 128
127 253 128
127 253 128
127 253 128
128 253 128
128 253 128
128 253 128
128 253 128
128 253 128
128 253 128
128 253 128
128 253 128
128 253 128
128 253 128
128 253 128
128 253 128
128 253 128
128 253 128
128 253 128
128 253 128
128 253 128
128 253 128
128 253 128
128 253 128
128 253 128
128 253 128
128 253 128
128 253 128
128 253 128
128 253 128
128 253 128
128 253 128
128 253 128
128 253 128
128 253 128
128 253 128
128 253 128
128 253 128
128 253 128
128 253 128
128 253 128
128 253 128
128 253 128
128 253 128
128 253 128
128 253 128
128 253 128
128 253 128
128 253 128
128 253 128
128 253 128
128 253 128
128 253 128
128 253 128
128 253 128
128 253 128
128 253 128
128 253 128
128 253 128
128 253 128
128 253 128
128 253 128
128 253 128
128 253 128
128 253 128
128 253 128
128 253 128
128 253 128
128 253 128
128 253 128
128 253 128
128 253 128
128 253 128
128 253 128
128 253 128
128 253 128
128 253 128
128 253 128
128 253 128
128 253 128
128 253 128
128 253 128
128 253 128
128 253 128
128 253 128
128 253 128
128 253 128
129 253 128
129 253 128
129 253 128
129 253 128
129 253 128
129 253 128
129 253 128
129 253 128
129 253 128
129 253 128
129 253 128
129 253 128
129 253 128
129 253 128
129 253 128
129 253 128
129 253 128
126 253 128
126 253 128
126 253 128
126 253 128
126 253 128
126 253 128
126 253 128
126 253 128
126 253 128
126 253 128
126 253 128
126 253 128
126 253 128
126 253 128
126 253 128
126 253 128
127 253 128
127 253 128
127 253 128
127 253 128
127 253 128
127 253 128
127 253 128
127 253 128
127 253 128
127 253 128
127 253 128
127 253 128
127 253 128
127 253 128
127 253 128
127 253 128
127 253 128
127 253 128
127 253 128
127 253 128
127 253 128
127 253 128
127 253 128
127 253 128
127 253 128
127 253 128
127 253 128
127 253 128
127 253 128
127 253 128
127 253 128
127 253 128
127 253 128
127 253 128
127 253 128
127 253 128
127 253 128
127 253 128
127 253 128
127 253 128
127 253 128
127 253 128
127 253 128
127 253 128
127 253 128
127 253 128
127 253 128
127 253 128
127 253 128
127 253 128
127 253 128
127 253 128
127 253 128
127 253 128
127 253 128
127 253 128
127 253 128
127 253 128
127 253 128
127 253 128
127 253 128
127 253 128
127 253 128
127 253 128
127 253 128
127 253 128
127 253 128
127 253 128
127 253 128
127 253 128
127 253 128
127 253 128
127 253 128
127 253 128
127 253 128
127 253 128
127 253 128
127 253 128
127 253 128
127 253 128
127 253 128
127 253 128
127 253 128
127 253 128
128 253 128
128 253 128
128 253 128
128 253 128
128 253 128
128 253 128
128 253 128
128 253 128
128 253 128
128 253 128
128 253 128
128 253 128
128 253 128
128 253 128
128 253 128
128 253 128
128 253 128
128 253 128
128 253 128
128 253 128
128 253 128
128 253 128
128 253 128
128 253 128
128 253 128
128 253 128
128 253 128
128 253 128
128 253 128
128 253 128
128 253 128
128 253 128
128 253 128
128 253 128
128 253 128
128 253 128
128 253 128
128 253 128
128 253 128
128 253 128
128 253 128
128 253 128
128 253 128
128 253 128
128 253 128
128 253 128
128 253 128
128 253 128
128 253 128
128 253 128
128 253 128
128 253 128
128 253 128
128 253 128
128 253 128
128 253 128
128 253 128
128 253 128
128 253 128
128 253 128
128 253 128
128 253 128
128 253 128
128 253 128
128 253 128
128 253 128
128 253 128
128 253 128
128 253 128
128 253 128
128 253 128
128 253 128
128 253 128
128 253 128
128 253 128
128 253 128
128 253 128
128 253 128
128 253 128
128 253 128
128 253 128
128 253 128
128 253 128
128 253 128
128 253 128
129 253 128
129 253 128
129 253 128
129 253 128
129 253 128
129 253 128
129 253 128
129 253 128
129 253 128
129 253 128
129 253 128
129 253 128
129 253 128
129 253 128
129 253 128
126 253 128
126 253 128
126 253 128
126 253 128
126 253 128
126 253 128
126 253 128
126 253 128
126 253 128
126 253 128
126 253 128
126 253 128
126 253 128
126 253 128
127 253 128
127 253 128
127 253 128
127 253 128
127 253 128
127 253 128
127 253 128
127 253 128
127 253 128
127 253 128
127 253 128
127 253 128
127 253 128
127 253 128
127 253 128
127 253 128
127 253 128
127 253 128
127 253 128
127 253 128
127 253 128
127 253 128
127 253 128
127 253 128
127 253 128
127 253 128
127 253 128
127 253 128
127 253 128
127 253 128
127 253 128
127 253 128
127 253 128
127 253 128
127 253 128
127 253 128
127 253 128
127 253 128
127 253 128
127 253 128
127 253 128
127 253 128
127 253 128
127 253 128
127 253 128
127 253 128
127 253 128
127 253 128
127 253 128
127 253 128
127 253 128
127 253 128
127 253 128
127 253 128
127 253 128
127 253 128
127 253 128
127 253 128
127 253 128
127 253 128
127 253 128
127 253 128
127 253 128
127 253 128
127 253 128
127 253 128
127 253 128
127 253 128
127 253 128
127 253 128
127 253 128
127 253 128
127 253 128
127 253 128
127 253 128
127 253 128
127 253 128
127 253 128
127 253 128
127 253 128
127 253 128
127 253 128
127 253 128
127 253 128
127 253 128
127 253 128
128 253 128
128 253 128
128 253 128
128 253 128
128 253 128
128 253 128
128 253 128
128 253 128
128 253 128
128 253 128
128 253 128
128 253 128
128 253 128
128 253 128
128 253 128
128 253 128
128 253 128
128 253 128
128 253 128
128 253 128
128 253 128
128 253 128
128 253 128
128 253 128
128 253 128
128 253 128
128 253 128
128 253 128
128 253 128
128 253 128
128 253 128
128 253 128
128 253 128
128 253 128
128 253 128
128 253 128
128 253 128
128 253 128
128 253 128
128 253 128
128 253 128
128 253 128
128 253 128
128 253 128
128 253 128
128 253 128
128 253 128
128 253 128
128 253 128
128 253 128
128 253 128
128 253 128
128 253 128
128 253 128
128 253 128
128 253 128
128 253 128
128 253 128
128 253 128
128 253 128
128 253 128
128 253 128
128 253 128
128 253 128
128 253 128
128 253 128
128 253 128
128 253 128
128 253 128
128 253 128
128 253 128
128 253 128
128 253 128
128 253 128
128 253 128
128 253 128
128 253 128
128 253 128
128 253 128
128 253 128
128 253 128
128 253 128
128 253 128
128 253 128
128 253 128
128 253 128
129 253 128
129 253 128
129 253 128
129 253 128
129 253 128
129 253 128
129 253 128
129 253 128
129 253 128
129 253 128
129 253 128
129 253 128
129 253 128
129 253 128
